(Generated by PartKam Version 0.05)

G21 G90 G40

(follow path 1)
G0 Z5
T0 M6
G17
M3
G0 X160.86675126903555 Y80.43324873096446
G1 Z-0.5 F800
G3 X160.8502538071066 Y81.59390862944163 I-41.200507614213194 J0 F1500
G3 X160.8020304568528 Y82.748730964467 I-40.85532994923858 J-1.1497461928934012
G3 X160.7208121827411 Y83.89593908629442 I-40.670050761421315 J-2.296954314720812
G3 X160.60659898477158 Y85.04060913705584 I-40.37563451776649 J-3.4289340101522843
G1 X160.65736040609139 Y85.04568527918781
G3 X160.5456852791878 Y86.73857868020305 I-80.69543147208122 J-4.5126903553299496
G3 X160.39593908629442 Y88.43401015228426 I-81.18274111675127 J-6.251269035532995
G3 X160.21319796954316 Y90.1243654822335 I-80.66243654822335 J-7.911167512690356
G3 X159.994923857868 Y91.78680203045685 I-78.40609137055837 J-9.355329949238579
G1 X159.9467005076142 Y91.78172588832487
G3 X159.83502538071068 Y92.86802030456853 I-40.59390862944163 J-3.6243654822335025
G3 X159.69289340101523 Y93.95431472081219 I-40.68527918781726 J-4.736040609137056
G3 X159.5228426395939 Y95.04060913705584 I-40.68781725888325 J-5.842639593908629
G3 X159.3223350253807 Y96.1243654822335 I-40.880710659898476 J-6.98984771573604
G3 X159.10659898477155 Y97.13197969543147 I-39.474619289340104 J-7.865482233502537
G3 X158.86548223350252 Y98.13959390862945 I-39.619289340101524 J-8.954314720812183
G3 X158.60152284263958 Y99.12944162436548 I-39.576142131979694 J-10.01015228426396
G3 X158.31218274111674 Y100.11928934010152 I-39.733502538071065 J-11.119289340101524
G1 X158.36294416243655 Y100.13197969543148
G3 X157.87817258883248 Y101.96446700507614 I-77.34010152284264 J-19.477157360406093
G3 X157.3451776649746 Y103.79441624365482 I-77.79441624365482 J-21.568527918781726
G3 X156.7715736040609 Y105.61421319796955 I-77.10659898477158 J-23.35279187817259
G3 X156.15989847715736 Y107.3984771573604 I-74.99492385786802 J-24.664974619289342
G1 X156.11421319796955 Y107.38324873096447
G3 X155.80964467005077 Y108.3477157360406 I-38.69543147208122 J-11.687817258883248
G3 X155.47969543147207 Y109.30964467005076 I-38.751269035533 J-12.771573604060913
G3 X155.12436548223351 Y110.26395939086294 I-38.64720812182741 J-13.814720812182742
G3 X154.74365482233503 Y111.21319796954316 I-38.84010152284264 J-14.97715736040609
G3 X154.3451776649746 Y112.14213197969544 I-36.92893401015228 J-15.296954314720812
G3 X153.92131979695432 Y113.06598984771574 I-36.91370558375635 J-16.395939086294415
G3 X153.47969543147207 Y113.96700507614213 I-36.713197969543145 J-17.426395939086294
G3 X153.01269035532994 Y114.86548223350253 I-36.776649746192895 J-18.583756345177665
G1 X153.05837563451777 Y114.88832487309645
G3 X152.23096446700507 Y116.57614213197971 I-71.37817258883248 J-33.888324873096444
G3 X151.35786802030458 Y118.26142131979695 I-71.95939086294416 J-36.28426395939086
G3 X150.44416243654823 Y119.92131979695431 I-71.18020304568529 J-38.02030456852792
G3 X149.5 Y121.5507614213198 I-69.25380710659898 J-39.109137055837564
G1 X149.45685279187816 Y121.5253807106599
G3 X148.9568527918782 Y122.43908629441623 I-35.111675126903556 J-18.532994923857867
G3 X148.43401015228426 Y123.34517766497463 I-35.03299492385787 J-19.68020304568528
G3 X147.88578680203045 Y124.23604060913705 I-34.753807106598984 J-20.733502538071065
G3 X147.31218274111677 Y125.11928934010152 I-34.75888324873096 J-21.974619289340104
G3 X146.71065989847716 Y125.99492385786802 I-33.621827411167516 J-22.461928934010153
G3 X146.08629441624367 Y126.85279187817258 I-32.95177664974619 J-23.289340101522843
G3 X145.44416243654823 Y127.69035532994923 I-32.33248730964467 J-24.149746192893403
G3 X144.77918781725887 Y128.51015228426397 I-31.771573604060915 J-25.050761421319798
G1 X144.8197969543147 Y128.54060913705584
G3 X143.73350253807106 Y129.9568527918782 I-63.80203045685279 J-47.75888324873097
G3 X142.60659898477158 Y131.36294416243655 I-64.08629441624366 J-50.24873096446701
G3 X141.44416243654823 Y132.748730964467 I-63.101522842639596 J-51.7741116751269
G3 X140.25888324873097 Y134.0964467005076 I-61.18781725888325 J-52.51269035532995
G1 X140.22081218274113 Y134.06345177664974
G3 X139.5253807106599 Y134.90609137055839 I-32.29187817258883 J-26.022842639593907
G3 X138.81218274111674 Y135.72081218274113 I-31.078680203045685 J-26.423857868020306
G3 X138.06852791878174 Y136.5253807106599 I-30.17258883248731 J-27.065989847715738
G3 X137.30964467005077 Y137.30964467005077 I-29.16243654822335 J-27.619289340101524
G3 X136.5253807106599 Y138.0710659898477 I-28.350253807106597 J-28.350253807106597
G3 X135.71573604060913 Y138.8172588832487 I-27.954314720812185 J-29.52030456852792
G3 X134.9010152284264 Y139.52791878172587 I-27.388324873096444 J-30.538071065989847
G3 X134.05583756345177 Y140.2284263959391 I-27.15482233502538 J-31.939086294416246
G1 X134.08883248730965 Y140.26649746192894
G3 X132.753807106599 Y141.43654822335026 I-54.01776649746193 J-60.22335025380711
G3 X131.38832487309645 Y142.58375634517768 I-53.18781725888325 J-61.982233502538065
G3 X129.994923857868 Y143.7030456852792 I-51.61421319796954 J-62.878172588832484
G3 X128.5964467005076 Y144.7741116751269 I-48.95685279187817 J-62.38324873096447
G1 X128.56598984771574 Y144.73604060913706
G3 X127.73096446700508 Y145.41370558375635 I-26.45939086294416 J-31.78172588832487
G3 X126.88071065989847 Y146.06598984771574 I-25.373096446700508 J-32.13959390862944
G3 X126.00761421319797 Y146.7005076142132 I-24.436548223350254 J-32.67258883248731
G3 X125.11928934010152 Y147.31218274111677 I-23.45431472081218 J-33.152284263959395
G3 X124.24365482233503 Y147.88071065989845 I-21.911167512690355 J-32.753807106598984
G3 X123.34517766497463 Y148.43147208121826 I-21.512690355329948 J-34.076142131979694
G3 X122.44670050761421 Y148.9517766497462 I-20.850253807106597 J-35.02791878172589
G3 X121.5228426395939 Y149.4543147208122 I-20.418781725888326 J-36.380710659898476
G1 X121.54568527918782 Y149.49746192893403
G3 X119.94416243654823 Y150.42893401015226 I-40.444162436548226 J-67.78934010152284
G3 X118.30710659898477 Y151.32994923857868 I-39.61167512690355 J-70.08375634517766
G3 X116.6497461928934 Y152.19035532994926 I-38.02791878172589 J-71.08629441624365
G3 X114.98730964467006 Y153.00761421319797 I-35.86294416243655 J-70.94162436548223
G1 X114.96446700507613 Y152.96192893401016
G3 X114.04568527918782 Y153.44162436548226 I-19.578680203045685 J-36.36040609137056
G3 X113.11675126903553 Y153.89847715736042 I-18.593908629441625 J-36.71065989847716
G3 X112.17005076142131 Y154.33248730964468 I-17.65228426395939 J-37.13705583756345
G3 X111.21319796954316 Y154.74365482233503 I-16.71319796954315 J-37.588832487309645
G3 X110.248730964467 Y155.12944162436548 I-15.652284263959391 J-37.786802030456855
G3 X109.2741116751269 Y155.48984771573603 I-14.690355329949238 J-38.18527918781726
G3 X108.29695431472081 Y155.8248730964467 I-13.736040609137056 J-38.60406091370558
G3 X107.30964467005077 Y156.13451776649748 I-12.83248730964467 J-39.15989847715736
G1 X107.32233502538071 Y156.1827411167513
G3 X105.59137055837564 Y156.7741116751269 I-26.246192893401016 J-74.0253807106599
G3 X103.82994923857868 Y157.32994923857868 I-25.048223350253807 J-76.24111675126903
G3 X102.05583756345177 Y157.8477157360406 I-23.347715736040612 J-77
G3 X100.27918781725889 Y158.31979695431474 I-21.33502538071066 J-76.66243654822335
G1 X100.26649746192894 Y158.26903553299493
G3 X99.24873096446701 Y158.5710659898477 I-11.944162436548222 J-38.4263959390863
G3 X98.21573604060914 Y158.8477157360406 I-11.093908629441625 J-39.32233502538071
G3 X97.17766497461929 Y159.0964467005076 I-10.137055837563452 J-39.89847715736041
G3 X96.1243654822335 Y159.3223350253807 I-9.236040609137056 J-40.74873096446701
G3 X95.0228426395939 Y159.5253807106599 I-7.8908629441624365 J-39.64213197969543
G3 X93.91370558375634 Y159.6979695431472 I-6.837563451776649 J-40.1269035532995
G3 X92.8020304568528 Y159.84010152284264 I-5.736040609137056 J-40.360406091370564
G3 X91.68781725888324 Y159.9517766497462 I-4.619289340101523 J-40.45939086294417
G1 X91.69289340101523 Y160.002538071066
G3 X90.08375634517768 Y160.21065989847716 I-10.868020304568528 J-77.76142131979695
G3 X88.4492385786802 Y160.38578680203045 I-9.522842639593907 J-80.1751269035533
G3 X86.80964467005076 Y160.53045685279187 I-7.931472081218274 J-80.78934010152284
G3 X85.17005076142132 Y160.64213197969542 I-6.253807106598986 J-80.45939086294416
G1 X85.16497461928934 Y160.59137055837564
G3 X83.99238578680203 Y160.71065989847716 I-4.692893401015229 J-40.121827411167516
G3 X82.81218274111674 Y160.79695431472084 I-3.5406091370558372 J-40.472081218274106
G3 X81.62436548223351 Y160.8502538071066 I-2.368020304568528 J-40.7005076142132
G3 X80.43401015228426 Y160.86548223350252 I-1.1928934010152283 J-41.08121827411168
G3 X79.21573604060913 Y160.8477157360406 I0 J-41.340101522842644
G3 X78.00761421319797 Y160.79441624365484 I1.1979695431472082 J-40.66497461928934
G3 X76.80203045685279 Y160.7055837563452 I2.3883248730964466 J-40.317258883248726
G3 X75.60913705583756 Y160.58121827411168 I3.5456852791878175 J-39.7005076142132
G1 X75.60406091370558 Y160.63197969543148
G3 X74.05583756345177 Y160.5228426395939 I4.804568527918781 J-80.34263959390863
G3 X72.50507614213198 Y160.38578680203045 I6.423857868020305 J-81.15736040609137
G3 X70.95431472081218 Y160.21827411167516 I7.949238578680204 J-80.75380710659898
G3 X69.42893401015229 Y160.02284263959393 I9.269035532994923 J-78.62690355329948
G1 X69.43401015228426 Y159.9720812182741
G3 X68.25634517766497 Y159.86294416243655 I3.223350253807107 J-40.398477157360404
G3 X67.07868020304568 Y159.71573604060916 I4.4238578680203045 J-40.50507614213198
G3 X65.90862944162437 Y159.53553299492387 I5.606598984771574 J-40.40609137055838
G3 X64.74111675126903 Y159.3223350253807 I6.774111675126903 J-40.2005076142132
G3 X63.58121827411168 Y159.0736040609137 I7.974619289340101 J-40.07868020304569
G3 X62.42893401015229 Y158.79187817258884 I9.16243654822335 J-39.95177664974619
G3 X61.29441624365482 Y158.47969543147207 I10.33756345177665 J-39.753807106598984
G3 X60.164974619289346 Y158.13197969543148 I11.532994923857869 J-39.65482233502538
G1 X60.152284263959395 Y158.1802030456853
G3 X58.642131979695435 Y157.7715736040609 I19.84517766497462 J-76.12182741116752
G3 X57.13197969543147 Y157.32741116751268 I21.66497461928934 J-76.81725888324874
G3 X55.62690355329949 Y156.85532994923858 I23.149746192893403 J-76.28934010152284
G3 X54.14467005076142 Y156.35786802030458 I24.190355329949238 J-74.38832487309645
G1 X54.15989847715736 Y156.30964467005077
G3 X53.022842639593904 Y155.96954314720813 I10.987309644670052 J-38.87563451776649
G3 X51.890862944162436 Y155.5964467005076 I12.175126903553299 J-38.692893401015226
G3 X50.76903553299492 Y155.18781725888323 I13.347715736040609 J-38.444162436548226
G3 X49.65228426395939 Y154.74365482233503 I14.598984771573605 J-38.370558375634516
G3 X48.502538071065985 Y154.248730964467 I15.961928934010153 J-38.48730964467005
G3 X47.38071065989848 Y153.7208121827411 I16.799492385786802 J-37.299492385786806
G3 X46.27157360406091 Y153.15989847715736 I17.776649746192895 J-36.4746192893401
G3 X45.190355329949234 Y152.5685279187817 I18.616751269035532 J-35.40609137055838
G1 X45.16751269035532 Y152.61421319796955
G3 X43.89340101522842 Y151.9746192893401 I34.558375634517766 J-70.5253807106599
G3 X42.61928934010152 Y151.30710659898477 I36.6751269035533 J-71.53553299492386
G3 X41.357868020304565 Y150.61675126903555 I38.07106598984772 J-71.08883248730965
G3 X40.11928934010152 Y149.91116751269035 I38.898477157360404 J-69.62690355329948
G1 X40.14213197969543 Y149.86548223350252
G3 X39.01776649746193 Y149.28172588832487 I18.03553299492386 J-36.09644670050761
G3 X37.911167512690355 Y148.65989847715736 I19.18274111675127 J-35.55329949238579
G3 X36.81979695431472 Y148.00253807106597 I20.314720812182742 J-34.977157360406096
G3 X35.746192893401016 Y147.31218274111677 I21.48984771573604 J-34.45177664974619
G3 X34.63959390862944 Y146.5456852791878 I22.588832487309645 J-33.80456852791878
G3 X33.558375634517766 Y145.74111675126903 I23.700507614213198 J-33.045685279187815
G3 X32.51269035532995 Y144.91116751269035 I24.8248730964467 J-32.299492385786806
G3 X31.49238578680203 Y144.04314720812184 I26.04060913705584 J-31.675126903553302
G1 X31.46192893401015 Y144.08121827411168
G3 X30.497461928934012 Y143.32741116751268 I47.469543147208114 J-61.56345177664974
G3 X29.53045685279188 Y142.5431472081218 I50.21573604060913 J-63.04822335025381
G3 X28.581218274111677 Y141.751269035533 I51.67005076142132 J-62.85532994923858
G3 X27.64213197969543 Y140.94416243654823 I52.67766497461929 J-62.13197969543147
G1 X27.6751269035533 Y140.90609137055839
G3 X26.601522842639596 Y140.05837563451777 I25 J-32.80964467005076
G3 X25.563451776649746 Y139.18274111675126 I25.751269035532992 J-31.565989847715734
G3 X24.54314720812183 Y138.26142131979697 I26.680203045685282 J-30.565989847715738
G3 X23.558375634517766 Y137.30964467005077 I27.606598984771576 J-29.545685279187815
G3 X22.58375634517766 Y136.2994923857868 I28.692893401015226 J-28.692893401015226
G3 X21.644670050761423 Y135.25634517766497 I29.66243654822335 J-27.67766497461929
G3 X20.748730964467008 Y134.19289340101523 I30.639593908629443 J-26.67005076142132
G3 X19.888324873096444 Y133.0964467005076 I31.695431472081218 J-25.736040609137056
G1 X19.8502538071066 Y133.12690355329948
G3 X19.106598984771573 Y132.25888324873097 I60.454314720812185 J-52.52030456852792
G3 X18.370558375634516 Y131.3756345177665 I62.21827411167513 J-52.51269035532995
G3 X17.64213197969543 Y130.4746192893401 I62.911167512690355 J-51.59390862944163
G3 X16.934010152284266 Y129.57106598984774 I62.44670050761421 J-49.743654822335024
G1 X16.972081218274113 Y129.54060913705584
G3 X16.063451776649746 Y128.48477157360406 I30.13197969543147 J-26.827411167512693
G3 X15.192893401015228 Y127.3984771573604 I30.994923857868024 J-25.733502538071065
G3 X14.355329949238577 Y126.2741116751269 I31.83756345177665 J-24.626903553299492
G3 X13.555837563451776 Y125.11928934010152 I32.61675126903553 J-23.45939086294416
G3 X12.789340101522843 Y123.92893401015229 I33.941624365482234 J-22.700507614213198
G3 X12.065989847715738 Y122.71573604060913 I34.515228426395936 J-21.390862944162436
G3 X11.390862944162436 Y121.48730964467005 I35.20812182741117 J-20.159898477157363
G3 X10.756345177664974 Y120.23350253807106 I35.95939086294416 J-18.96954314720812
G1 X10.713197969543147 Y120.25888324873095
G3 X10.149746192893401 Y119.25634517766497 I71.2741116751269 J-40.713197969543145
G3 X9.604060913705583 Y118.25126903553299 I70.92639593908629 J-39.20558375634518
G3 X9.065989847715736 Y117.22842639593908 I70.3756345177665 J-37.61675126903553
G3 X8.555837563451776 Y116.2233502538071 I67.55837563451776 J-34.86294416243655
G1 X8.601522842639595 Y116.19796954314721
G3 X7.9187817258883255 Y114.98730964467006 I35.3248730964467 J-20.68781725888325
G3 X7.279187817258883 Y113.75634517766498 I35.79441624365482 J-19.36294416243655
G3 X6.680203045685279 Y112.49492385786802 I36.35279187817259 J-18.091370558375633
G3 X6.121827411167513 Y111.21319796954316 I36.85279187817259 J-16.784263959390863
G3 X5.596446700507615 Y109.88071065989848 I38.28426395939086 J-15.852791878172589
G3 X5.121827411167512 Y108.54060913705584 I38.2005076142132 J-14.289340101522843
G3 X4.695431472081219 Y107.18527918781726 I38.43908629441624 J-12.870558375634518
G3 X4.317258883248731 Y105.82233502538071 I38.5253807106599 J-11.413705583756347
G1 X4.269035532994923 Y105.83756345177665
G3 X3.9289340101522843 Y104.78680203045685 I77.20558375634518 J-25.68020304568528
G3 X3.604060913705584 Y103.73857868020303 I76.69035532994924 J-24.35786802030457
G3 X3.2893401015228423 Y102.67766497461929 I75.89593908629442 J-22.972081218274113
G3 X2.9974619289340105 Y101.63451776649745 I72.71573604060913 J-20.906091370558375
G1 X3.0456852791878175 Y101.61928934010152
G3 X2.5989847715736043 Y100.26903553299492 I38.53807106598985 J-13.47969543147208
G3 X2.200507614213198 Y98.90609137055839 I38.86040609137056 J-12.091370558375633
G3 X1.850253807106599 Y97.5228426395939 I39.28426395939086 J-10.736040609137056
G3 X1.5456852791878173 Y96.1243654822335 I39.870558375634516 J-9.408629441624365
G3 X1.2766497461928932 Y94.62690355329948 I40.48984771573604 J-8.058375634517766
G3 X1.0634517766497462 Y93.13197969543147 I40.17005076142132 J-6.467005076142131
G3 X0.9060913705583756 Y91.63451776649745 I40.1269035532995 J-4.939086294416244
G3 X0.8071065989847716 Y90.13705583756345 I39.84771573604061 J-3.4035532994923856
G1 X0.7588832487309645 Y90.14213197969542
G1 X0.40609137055837563 Y86.5253807106599
G1 X0.45431472081218277 Y86.52030456852792
G3 X0.2563451776649746 Y85.01522842639594 I39.60406091370559 J-5.99746192893401
G3 X0.11421319796954314 Y83.497461928934 I40.22081218274111 J-4.540609137055838
G3 X0.027918781725888325 Y81.97208121827413 I40.61928934010152 J-3.0406091370558377
G3 X0 Y80.43401015228426 I41.31472081218274 J-1.5380710659898478
G3 X0.030456852791878174 Y78.8756345177665 I41.25634517766497 J0
G3 X0.11675126903553298 Y77.33248730964468 I40.576142131979694 J1.532994923857868
G3 X0.2639593908629442 Y75.79695431472081 I40.23096446700507 J3.0558375634517763
G3 X0.46700507614213194 Y74.2741116751269 I39.69796954314721 J4.548223350253807
G1 X0.416243654822335 Y74.26903553299493
G3 X0.4847715736040609 Y73.42893401015229 I77.18527918781726 J5.895939086294416
G3 X0.565989847715736 Y72.57360406091371 I80.16751269035532 J7
G3 X0.6548223350253807 Y71.71573604060913 I80.96192893401016 J7.941624365482234
G3 X0.751269035532995 Y70.85532994923858 I81.29187817258882 J8.845177664974619
G1 X0.8020304568527918 Y70.86040609137056
G3 X0.8984771573604061 Y69.32994923857868 I39.85279187817259 J1.7614213197969544
G3 X1.0558375634517767 Y67.79695431472081 I40.2005076142132 J3.3274111675126905
G3 X1.2715736040609138 Y66.2715736040609 I40.35532994923858 J4.898477157360406
G3 X1.5456852791878173 Y64.74111675126903 I40.94923857868021 J6.553299492385786
G3 X1.8680203045685277 Y63.26395939086295 I39.944162436548226 J7.949238578680204
G3 X2.246192893401015 Y61.7994923857868 I39.535532994923855 J9.406091370558375
G3 X2.67258883248731 Y60.35786802030457 I39.15482233502538 J10.870558375634518
G3 X3.1548223350253806 Y58.934010152284266 I38.79187817258883 J12.329949238578681
G1 X3.1091370558375635 Y58.91878172588832
G1 X4.175126903553299 Y55.39340101522843
G1 X4.223350253807107 Y55.40862944162437
G3 X4.614213197969543 Y53.95431472081218 I38.68527918781726 J9.606598984771574
G3 X5.063451776649747 Y52.50507614213198 I38.923857868020306 J11.241116751269036
G3 X5.563451776649746 Y51.078680203045685 I38.86802030456853 J12.819796954314722
G3 X6.121827411167513 Y49.65228426395939 I39.2994923857868 J14.593908629441625
G3 X6.738578680203045 Y48.23857868020305 I37.95939086294416 J15.736040609137056
G3 X7.406091370558375 Y46.857868020304565 I36.92893401015228 J16.95939086294416
G3 X8.121827411167512 Y45.50507614213198 I36.08121827411168 J18.248730964467008
G3 X8.885786802030456 Y44.18781725888324 I35.04060913705584 J19.421319796954315
G1 X8.842639593908629 Y44.16243654822335
G1 X10.467005076142133 Y41.1243654822335
G1 X10.51269035532995 Y41.147208121827404
G3 X11.190355329949238 Y39.763959390862944 I36.35279187817259 J16.951776649746193
G3 X11.923857868020304 Y38.398477157360404 I35.97208121827411 J18.48984771573604
G3 X12.713197969543145 Y37.06345177664974 I35.44670050761421 J19.972081218274113
G3 X13.555837563451776 Y35.746192893401016 I35.19289340101523 J21.63705583756345
G3 X14.459390862944161 Y34.4492385786802 I33.576142131979694 J22.428934010152286
G3 X15.413705583756345 Y33.190355329949234 I32.700507614213194 J23.743654822335024
G3 X16.406091370558375 Y31.97969543147208 I31.78172588832487 J25.035532994923855
G3 X17.444162436548222 Y30.804568527918782 I30.898477157360404 J26.337563451776653
G1 X17.406091370558375 Y30.774111675126903
G1 X19.388324873096447 Y28.36040609137056
G1 X19.428934010152282 Y28.39086294416244
G3 X20.385786802030456 Y27.126903553299492 I32.89340101522843 J23.934010152284266
G3 X21.390862944162436 Y25.903553299492387 I31.911167512690355 J25.180203045685282
G3 X22.449238578680202 Y24.710659898477157 I30.96700507614213 J26.454314720812185
G3 X23.558375634517766 Y23.558375634517766 I30.162436548223347 J27.880710659898476
G3 X24.710659898477157 Y22.451776649746193 I28.883248730964468 J28.883248730964468
G3 X25.898477157360404 Y21.393401015228427 I27.540609137055835 J29.784263959390863
G3 X27.121827411167516 Y20.390862944162436 I26.31472081218274 J30.799492385786806
G3 X28.383248730964468 Y19.434010152284266 I25.129441624365484 J31.850253807106597
G1 X28.350253807106597 Y19.395939086294415
G1 X30.753807106598984 Y17.421319796954315
G1 X30.786802030456855 Y17.45939086294416
G3 X31.96446700507614 Y16.413705583756347 I27.43654822335025 J29.761421319796955
G3 X33.18020304568528 Y15.416243654822335 I26.215736040609137 J30.758883248730964
G3 X34.444162436548226 Y14.461928934010153 I25.027918781725887 J31.791878172588834
G3 X35.746192893401016 Y13.555837563451776 I23.908629441624363 J32.94670050761421
G3 X37.04060913705584 Y12.725888324873097 I22.444162436548222 J33.565989847715734
G3 X38.36294416243655 Y11.946700507614214 I21.142131979695435 J34.38324873096447
G3 X39.70558375634518 Y11.223350253807107 I19.83248730964467 J35.19035532994924
G3 X41.076142131979694 Y10.548223350253807 I18.550761421319798 J36.03045685279188
G1 X41.05329949238579 Y10.50507614213198
G1 X44.17766497461929 Y8.829949238578681
G1 X44.203045685279186 Y8.873096446700508
G3 X45.52030456852792 Y8.111675126903554 I20.901015228426395 J34.64720812182741
G3 X46.86548223350254 Y7.401015228426396 I19.64720812182741 J35.525380710659896
G3 X48.243654822335024 Y6.736040609137056 I18.368020304568528 J36.370558375634516
G3 X49.65228426395939 Y6.121827411167513 I17.18274111675127 J37.45431472081218
G3 X51.05837563451777 Y5.568527918781726 I15.837563451776651 J38.243654822335024
G3 X52.47208121827411 Y5.073604060913706 I14.177664974619288 J38.11421319796955
G3 X53.9010152284264 Y4.629441624365482 I12.6751269035533 J38.34010152284264
G3 X55.337563451776646 Y4.241116751269035 I11.129441624365482 J38.38578680203045
G1 X55.324873096446694 Y4.195431472081218
G3 X56.2258883248731 Y3.903553299492386 I25.111675126903556 J76.23604060913705
G3 X57.13197969543147 Y3.6218274111675126 I24.37055837563452 J77.03045685279187
G3 X58.04822335025381 Y3.350253807106599 I23.317258883248734 J76.82994923857868
G3 X58.95431472081218 Y3.0939086294416245 I21.713197969543145 J74.73857868020305
G1 X58.96954314720812 Y3.1395939086294415
G3 X60.378172588832484 Y2.66497461928934 I13.47715736040609 J37.66497461928934
G3 X61.81472081218274 Y2.238578680203046 I12.246192893401016 J38.70812182741117
G3 X63.26395939086295 Y1.8680203045685277 I10.908629441624365 J39.49238578680203
G3 X64.74111675126903 Y1.5456852791878173 I9.66751269035533 J40.733502538071065
G3 X66.2284263959391 Y1.2791878172588833 I7.903553299492386 J39.73857868020305
G3 X67.72842639593908 Y1.0659898477157361 I6.454314720812183 J40.23096446700507
G3 X69.23096446700508 Y0.9111675126903553 I4.951776649746193 J40.42131979695432
G3 X70.73350253807106 Y0.8096446700507615 I3.4213197969543145 J40.253807106598984
G1 X70.7284263959391 Y0.7614213197969544
G3 X71.64467005076142 Y0.6548223350253807 I9.901015228426397 J81.70050761421321
G3 X72.55329949238579 Y0.5609137055837563 I8.829949238578681 J80.39340101522842
G3 X73.46700507614213 Y0.47461928934010156 I7.786802030456853 J79.10659898477158
G3 X74.36040609137055 Y0.4035532994923858 I6.525380710659898 J75.19035532994923
G1 X74.36548223350255 Y0.45431472081218277
G3 X75.86294416243655 Y0.2563451776649746 I5.956852791878172 J39.32233502538071
G3 X77.37817258883248 Y0.11421319796954314 I4.520304568527918 J40.06345177664975
G3 X78.8984771573604 Y0.027918781725888325 I3.0279187817258886 J40.52030456852792
G3 X80.43401015228426 Y0 I1.5355329949238579 J41.32233502538071
G3 X81.94416243654823 Y0.027918781725888325 I0 J41.28426395939086
G3 X83.44416243654821 Y0.10913705583756345 I-1.4923857868020305 J40.74111675126904
G3 X84.93401015228427 Y0.24873096446700507 I-2.9771573604060912 J40.45685279187818
G3 X86.41370558375634 Y0.4390862944162437 I-4.434010152284264 J40.02791878172589
G1 X86.41878172588832 Y0.3908629441624366
G1 X90.30964467005076 Y0.7690355329949239
G1 X90.30456852791879 Y0.8197969543147209
G3 X91.76649746192894 Y0.9213197969543147 I-2.1065989847715736 J40.494923857868024
G3 X93.2258883248731 Y1.0761421319796955 I-3.588832487309644 J40.62690355329949
G3 X94.68274111675127 Y1.2842639593908631 I-5.045685279187817 J40.45685279187818
G3 X96.1243654822335 Y1.5456852791878173 I-6.456852791878172 J39.96700507614213
G3 X97.50507614213198 Y1.8451776649746194 I-8.149746192893401 J40.88578680203046
G3 X98.86040609137055 Y2.1878172588832485 I-9.355329949238579 J39.84771573604061
G3 X100.20558375634519 Y2.5761421319796955 I-10.631979695431472 J39.203045685279186
G3 X101.5253807106599 Y3.0101522842639596 I-11.83248730964467 J38.3502538071066
G1 X101.54060913705584 Y2.9619289340101522
G3 X102.6497461928934 Y3.271573604060914 I-20.246192893401016 J74.73857868020305
G3 X103.76649746192894 Y3.6015228426395938 I-21.903553299492383 J76.34771573604061
G3 X104.88071065989848 Y3.946700507614213 I-23.119289340101524 J76.34771573604061
G3 X105.98730964467006 Y4.309644670050761 I-24.043147208121827 J75.40101522842639
G1 X105.9720812182741 Y4.3578680203045685
G3 X107.29695431472081 Y4.728426395939087 I-10.119289340101522 J38.64467005076142
G3 X108.61421319796955 Y5.147208121827411 I-11.548223350253808 J38.61675126903553
G3 X109.91878172588832 Y5.611675126903553 I-12.936548223350254 J38.41370558375635
G3 X111.21319796954316 Y6.121827411167513 I-14.428934010152282 J38.45177664974619
G3 X112.46192893401016 Y6.66497461928934 I-15.786802030456853 J38.04060913705584
G3 X113.69035532994923 Y7.246192893401016 I-16.941624365482234 J37.28934010152284
G3 X114.89086294416242 Y7.865482233502537 I-18.13959390862944 J36.6497461928934
G3 X116.06852791878171 Y8.522842639593907 I-19.3248730964467 J36
G1 X116.09390862944161 Y8.47969543147208
G3 X117.19543147208121 Y9.035532994923859 I-34.96954314720812 J70.61421319796955
G3 X118.29695431472081 Y9.616751269035532 I-36.77918781725889 J71.43401015228426
G3 X119.38832487309645 Y10.208121827411167 I-37.92893401015228 J70.94162436548223
G3 X120.45939086294416 Y10.814720812182742 I-38.441624365482234 J69.30710659898477
G1 X120.43654822335026 Y10.860406091370558
G3 X121.64213197969544 Y11.474619289340103 I-18.1243654822335 J36.941624365482234
G3 X122.81725888324873 Y12.124365482233504 I-19.083756345177665 J35.86294416243655
G3 X123.98223350253808 Y12.822335025380712 I-20.14213197969543 J35.01015228426396
G3 X125.11928934010152 Y13.555837563451776 I-21.098984771573605 J33.9746192893401
G3 X126.24365482233502 Y14.33502538071066 I-22.63959390862944 J33.88324873096447
G3 X127.33756345177666 Y15.147208121827411 I-23.70812182741117 J33.02791878172589
G3 X128.3984771573604 Y15.99238578680203 I-24.804568527918782 J32.213197969543145
G3 X129.43147208121826 Y16.873096446700508 I-25.91624365482233 J31.434010152284266
G1 X129.46192893401016 Y16.83502538071066
G3 X130.42131979695432 Y17.586294416243653 I-47.72842639593908 J61.97969543147208
G3 X131.38071065989848 Y18.360406091370557 I-50.15736040609137 J63.078680203045685
G3 X132.3248730964467 Y19.14720812182741 I-51.411167512690355 J62.65989847715736
G3 X133.25380710659897 Y19.946700507614214 I-51.982233502538065 J61.431472081218274
G1 X133.2233502538071 Y19.98477157360406
G3 X134.28680203045684 Y20.82741116751269 I-25.106598984771576 J32.85532994923858
G3 X135.31725888324874 Y21.69796954314721 I-25.908629441624367 J31.690355329949238
G3 X136.32994923857868 Y22.611675126903556 I-26.8248730964467 J30.68781725888325
G3 X137.30964467005077 Y23.558375634517766 I-27.65736040609137 J29.581218274111674
G3 X138.23350253807106 Y24.51522842639594 I-28.667512690355327 J28.667512690355327
G3 X139.12944162436548 Y25.50253807106599 I-29.703045685279186 J27.814720812182742
G3 X139.98477157360406 Y26.51015228426396 I-30.6751269035533 J26.893401015228427
G3 X140.80710659898477 Y27.54568527918782 I-31.710659898477157 J26.03553299492386
G1 X140.8477157360406 Y27.515228426395943
G3 X141.72081218274113 Y28.527918781725887 I-61.012690355329944 J53.568527918781726
G3 X142.58121827411168 Y29.555837563451774 I-62.162436548223354 J52.79187817258883
G3 X143.42131979695432 Y30.596446700507617 I-62.63451776649746 J51.444162436548226
G3 X144.23350253807106 Y31.63705583756345 I-61.64467005076142 J48.94923857868021
G1 X144.19543147208122 Y31.67005076142132
G3 X145.01776649746193 Y32.64720812182741 I-30.258883248730967 J26.3502538071066
G3 X145.81218274111674 Y33.65228426395939 I-31.213197969543145 J25.48223350253807
G3 X146.5761421319797 Y34.68527918781726 I-32.09137055837564 J24.54060913705584
G3 X147.31218274111677 Y35.746192893401016 I-33.06598984771574 J23.65736040609137
G3 X147.98730964467006 Y36.79187817258884 I-33.964467005076145 J22.71065989847716
G3 X148.62944162436548 Y37.85279187817259 I-34.51269035532995 J21.58375634517767
G3 X149.23350253807106 Y38.92893401015228 I-35.121827411167516 J20.50253807106599
G3 X149.80710659898477 Y40.02030456852792 I-35.7258883248731 J19.428934010152282
G1 X149.85279187817258 Y39.99746192893401
G3 X150.60913705583755 Y41.31979695431472 I-70.25126903553299 J41.03553299492386
G3 X151.33756345177665 Y42.65482233502538 I-70.94670050761421 J39.680203045685275
G3 X152.0507614213198 Y44.015228426395936 I-71.03045685279187 J38
G3 X152.7233502538071 Y45.36548223350253 I-69.29187817258884 J35.38578680203046
G1 X152.6776649746193 Y45.390862944162436
G3 X153.23857868020303 Y46.423857868020306 I-34.621827411167516 J19.3756345177665
G3 X153.7715736040609 Y47.48477157360406 I-35.79187817258883 J18.65736040609137
G3 X154.2715736040609 Y48.555837563451774 I-36.639593908629436 J17.751269035532996
G3 X154.74365482233503 Y49.65228426395939 I-37.78426395939086 J16.96954314720812
G3 X155.17258883248732 Y50.7258883248731 I-37.748730964467 J15.647208121827411
G3 X155.56598984771574 Y51.807106598984774 I-37.89593908629441 J14.467005076142133
G3 X155.9289340101523 Y52.89593908629442 I-38.17005076142132 J13.342639593908629
G3 X156.26142131979697 Y53.98984771573603 I-38.337563451776646 J12.192893401015228
G1 X156.30964467005077 Y53.974619289340104
G3 X156.84010152284264 Y55.545685279187815 I-74.51269035532995 J26.04060913705584
G3 X157.3451776649746 Y57.14720812182741 I-76.64213197969544 J24.98984771573604
G3 X157.81218274111674 Y58.748730964467 I-77.31218274111674 J23.441624365482234
G3 X158.24365482233503 Y60.35279187817259 I-76.79695431472081 J21.560913705583754
G1 X158.19543147208122 Y60.36548223350253
G3 X158.5203045685279 Y61.444162436548226 I-38.45939086294416 J12.225888324873095
G3 X158.8172588832487 Y62.53299492385786 I-38.944162436548226 J11.195431472081218
G3 X159.08375634517765 Y63.631979695431475 I-39.35279187817259 J10.134517766497462
G3 X159.3223350253807 Y64.74111675126903 I-39.90609137055837 J9.101522842639595
G3 X159.53299492385787 Y65.88324873096447 I-40.652284263959395 J8.081218274111675
G3 X159.70812182741116 Y67.0228426395939 I-40.20812182741117 J6.8299492385786795
G3 X159.85279187817258 Y68.16751269035534 I-40.08629441624365 J5.647208121827411
G3 X159.96446700507613 Y69.30710659898477 I-39.69543147208122 J4.444162436548224
G1 X160.01522842639594 Y69.30203045685279
G3 X160.2208121827411 Y70.89340101522842 I-78.89340101522842 J10.967005076142131
G3 X160.39593908629442 Y72.50507614213198 I-80.85532994923858 J9.583756345177665
G3 X160.53807106598984 Y74.12690355329948 I-81.21827411167513 J7.98984771573604
G3 X160.64720812182742 Y75.74365482233502 I-80.36294416243655 J6.289340101522843
G1 X160.5989847715736 Y75.74619289340102
G3 X160.71573604060913 Y76.91116751269035 I-40.40609137055838 J4.662436548223351
G3 X160.7994923857868 Y78.07868020304569 I-40.598984771573605 J3.50507614213198
G3 X160.8502538071066 Y79.25380710659898 I-40.796954314720814 J2.345177664974619
G3 X160.86548223350252 Y80.43401015228426 I-41.223350253807105 J1.1802030456852792
G0 Z5
G0 X0.10025380710659898 Y80.43324873096446
G1 Z-0.5 F800
G2 X0.10913705583756345 Y81.33502538071068 I40.79441624365482 J0 F1500
G2 X0.13959390862944163 Y82.23096446700508 I40.21319796954315 J-0.8883248730964467
G2 X0.1903553299492386 Y83.12182741116752 I39.92639593908629 J-1.7741116751269035
G2 X0.25888324873096447 Y84.00761421319797 I39.421319796954315 J-2.6345177664974617
G1 X0.1802030456852792 Y80.47461928934011
G1 X0.26649746192893403 Y76.77664974619289
G2 X0.19289340101522845 Y77.68527918781726 I40.23857868020305 J3.652284263959391
G2 X0.14213197969543148 Y78.59390862944163 I40.33248730964467 J2.7461928934010156
G2 X0.1116751269035533 Y79.51269035532995 I40.41370558375634 J1.8375634517766497
G2 X0.10152284263959391 Y80.43401015228426 I40.54314720812183 J0.9213197969543147
G0 Z5
G0 X0.618020304568528 Y73.08020304568528
G1 Z-0.5 F800
G1 X0.7131979695431472 Y72.58629441624366 F1500
G1 X0.7157360406091371 Y72.0761421319797
G1 X0.616751269035533 Y73.08121827411168
G0 Z5
G0 X0.7142131979695432 Y88.29010152284263
G1 Z-0.5 F800
G1 X0.6040609137055838 Y87.71319796954315 F1500
G1 X0.7182741116751269 Y88.88832487309644
G1 X0.7131979695431472 Y88.28934010152284
G0 Z5
G0 X157.86015228426396 Y95.21497461928934
G1 Z-0.5 F800
G1 X157.86294416243655 Y95.28680203045684 F1500
G2 X158.502538071066 Y93.57360406091371 I-36.743654822335024 J-14.713197969543149
G2 X159.06598984771574 Y91.82487309644671 I-37.789340101522846 J-13.142131979695431
G2 X159.5482233502538 Y90.0507614213198 I-38.34263959390863 J-11.388324873096447
G2 X159.9467005076142 Y88.26903553299493 I-38.36548223350254 J-9.50253807106599
G2 X159.90609137055839 Y86.43908629441624 I-39.421319796954315 J-0.015228426395939087
G2 X159.7766497461929 Y84.60152284263958 I-39.81725888324873 J1.8350253807106598
G2 X159.56598984771574 Y82.7766497461929 I-39.73096446700508 J3.6751269035532994
G2 X159.2715736040609 Y80.96700507614214 I-39.24111675126903 J5.464467005076142
G1 X159.23350253807106 Y81.13959390862945
G3 X159.1522842639594 Y84.12944162436548 I-79.67005076142132 J-0.6598984771573604
G3 X158.95939086294416 Y87.11928934010153 I-79.84010152284264 J-3.66243654822335
G3 X158.6548223350254 Y90.09644670050761 I-79.48223350253807 J-6.6395939086294415
G3 X158.23857868020303 Y93.04568527918782 I-78.26903553299492 J-9.50761421319797
G1 X157.92385786802032 Y94.8730964467005
G1 X157.86040609137055 Y95.21573604060913
G0 Z5
G0 X157.3236040609137 Y74.05736040609138
G1 Z-0.5 F800
G1 X157.46700507614213 Y76.1243654822335 F1500
G1 X157.4720812182741 Y76.24111675126903
G1 X157.494923857868 Y76.67005076142132
G1 X157.51015228426397 Y76.99492385786802
G1 X157.5203045685279 Y77.26649746192894
G1 X157.53553299492387 Y77.66751269035532
G1 X157.5482233502538 Y78.03045685279189
G1 X157.58121827411168 Y79.63197969543147
G1 X157.58629441624365 Y79.96954314720811
G1 X157.58629441624365 Y80.47461928934011
G1 X157.58629441624365 Y80.97969543147208
G1 X157.58121827411168 Y81.31725888324873
G1 X157.5482233502538 Y82.91878172588832
G1 X157.53553299492387 Y83.2741116751269
G1 X157.5203045685279 Y83.67005076142132
G1 X157.502538071066 Y84.11675126903553
G1 X157.48477157360406 Y84.47715736040608
G1 X157.46192893401016 Y84.87817258883248
G1 X157.43908629441623 Y85.2766497461929
G1 X157.41370558375635 Y85.67766497461929
G1 X157.38071065989848 Y86.16243654822335
G1 X157.33248730964468 Y86.76903553299493
G1 X157.33248730964468 Y86.7994923857868
G1 X157.3248730964467 Y86.87309644670052
G2 X157.87055837563452 Y85.36040609137055 I-37.045685279187815 J-14.210659898477157
G2 X158.35532994923858 Y83.81979695431471 I-37.84517766497462 J-12.781725888324873
G2 X158.7791878172589 Y82.26142131979697 I-38.253807106598984 J-11.220812182741117
G2 X159.13705583756345 Y80.69796954314722 I-38.11421319796955 J-9.522842639593907
G1 X159.13705583756345 Y80.59898477157361
G1 X159.13705583756345 Y80.47461928934011
G1 X159.13705583756345 Y80.36294416243655
G1 X159.13705583756345 Y80.2766497461929
G2 X158.7791878172589 Y78.70304568527919 I-38.79187817258883 J7.964467005076142
G2 X158.35532994923858 Y77.13197969543147 I-39.068527918781726 J9.695431472081218
G2 X157.87055837563452 Y75.58375634517766 I-38.75888324873097 J11.299492385786802
G2 X157.3223350253807 Y74.05837563451777 I-38.101522842639596 J12.791878172588833
G0 Z5
G0 X153.42918781725888 Y66.41522842639594
G1 Z-0.5 F800
G1 X153.50761421319797 Y66.83248730964466 F1500
G1 X153.58375634517768 Y67.24873096446701
G1 X153.65736040609139 Y67.66497461928934
G1 X153.7284263959391 Y68.08375634517766
G1 X153.7969543147208 Y68.49492385786802
G1 X153.87309644670052 Y68.98223350253807
G1 X153.9289340101523 Y69.34263959390863
G1 X153.98984771573603 Y69.76142131979695
G1 X154.03807106598984 Y70.1015228426396
G1 X154.06852791878174 Y70.31979695431473
G1 X154.10659898477155 Y70.60406091370558
G1 X154.16243654822335 Y71.0253807106599
G1 X154.26395939086294 Y71.87055837563452
G1 X154.31218274111674 Y72.29187817258884
G1 X154.39847715736042 Y73.13959390862945
G1 X154.4771573604061 Y73.98984771573603
G1 X154.49238578680203 Y74.16243654822335
G1 X154.5507614213198 Y74.90101522842639
G1 X154.57614213197968 Y75.26395939086294
G1 X154.59390862944164 Y75.49492385786803
G1 X154.61167512690355 Y75.78172588832487
G1 X154.63197969543148 Y76.11675126903553
G1 X154.64720812182742 Y76.41370558375635
G1 X154.65989847715736 Y76.66751269035532
G1 X154.68274111675126 Y77.10913705583756
G1 X154.7005076142132 Y77.53553299492386
G1 X154.7208121827411 Y78.07868020304569
G1 X154.7284263959391 Y78.41116751269035
G1 X154.73857868020306 Y78.70304568527919
G1 X154.746192893401 Y79.09644670050761
G1 X154.751269035533 Y79.39340101522842
G1 X154.75380710659897 Y79.76649746192894
G1 X154.75634517766497 Y79.95431472081219
G2 X155.4010152284264 Y78.23350253807106 I-37.31979695431472 J-14.97715736040609
G2 X155.9720812182741 Y76.47715736040608 I-38.299492385786806 J-13.373096446700508
G2 X156.45939086294416 Y74.69543147208122 I-38.85532994923858 J-11.611675126903553
G2 X156.86294416243655 Y72.90609137055837 I-38.93908629441624 J-9.730964467005077
G2 X156.11928934010152 Y71.23096446700508 I-37.08375634517766 J15.48984771573604
G2 X155.29441624365484 Y69.58375634517766 I-36.73857868020305 J17.35279187817259
G2 X154.39593908629442 Y67.9746192893401 I-35.93908629441624 J19.012690355329948
G2 X153.4289340101523 Y66.41624365482232 I-34.756345177664976 J20.454314720812185
G0 Z5
G0 X154.203807106599 Y58.16015228426396
G1 Z-0.5 F800
G1 X154.18781725888326 Y58.109137055837564 F1500
G1 X154.14720812182742 Y57.972081218274106
G1 X154.14720812182742 Y58.0736040609137
G1 X154.2030456852792 Y58.159898477157356
G0 Z5
G0 X148.16776649746194 Y44.24340101522843
G1 Z-0.5 F800
G2 X146.8223350253807 Y42.961928934010146 I-28.502538071065988 J28.601522842639593 F1500
G2 X145.41370558375635 Y41.74111675126903 I-27.373096446700508 J30.119289340101524
G2 X143.9517766497462 Y40.58375634517766 I-25.964467005076145 J31.340101522842637
G2 X142.44162436548223 Y39.5 I-24.30203045685279 J32.23096446700508
G1 X142.6776649746193 Y39.85532994923858
G1 X143.37055837563452 Y40.93908629441624
G1 X143.8248730964467 Y41.66751269035533
G1 X144.0456852791878 Y42.03045685279187
G1 X144.26903553299493 Y42.398477157360404
G1 X144.6548223350254 Y43.05329949238579
G1 X144.7030456852792 Y43.13705583756345
G1 X145.13197969543148 Y43.880710659898476
G1 X146.55837563451774 Y46.51776649746193
G1 X146.57868020304568 Y46.56091370558376
G1 X147.3248730964467 Y48.04822335025381
G1 X148.05329949238578 Y49.59644670050761
G1 X148.23096446700507 Y49.98477157360406
G1 X148.91624365482232 Y51.54822335025381
G2 X148.85279187817258 Y49.71065989847716 I-40.39340101522843 J0.4467005076142132
G2 X148.70812182741116 Y47.87563451776649 I-40.51015228426395 J2.291878172588832
G2 X148.4771573604061 Y46.04822335025381 I-40.2741116751269 J4.119289340101523
G2 X148.16751269035532 Y44.24365482233503 I-39.51015228426396 J5.868020304568527
G0 Z5
G0 X79.87157360406091 Y1.8258883248730964
G1 Z-0.5 F800
G1 X79.7741116751269 Y1.8274111675126903 F1500
G2 X78.24111675126903 Y2.1928934010152283 I8.360406091370558 J38.36294416243655
G2 X76.70812182741118 Y2.624365482233503 I10.081218274111674 J38.710659898477154
G2 X75.19796954314721 Y3.1167512690355332 I11.657360406091371 J38.423857868020306
G2 X73.71065989847716 Y3.66497461928934 I13.121827411167512 J37.7994923857868
G1 X73.80964467005076 Y3.6573604060913705
G1 X74.25380710659898 Y3.619289340101523
G1 X74.69796954314721 Y3.586294416243655
G1 X75.40101522842639 Y3.5380710659898478
G1 X75.61675126903553 Y3.5228426395939088
G1 X76.47715736040608 Y3.474619289340102
G1 X76.96192893401016 Y3.4517766497461926
G1 X77.3248730964467 Y3.4365482233502536
G1 X77.39340101522843 Y3.434010152284264
G1 X77.81472081218274 Y3.4187817258883246
G1 X78.23857868020305 Y3.4035532994923856
G1 X78.39086294416244 Y3.3984771573604062
G1 X79.1497461928934 Y3.383248730964467
G1 X79.28934010152284 Y3.380710659898477
G1 X79.59644670050761 Y3.3756345177664975
G1 X80.48223350253807 Y3.3705583756345177
G1 X81.00253807106598 Y3.3730964467005076
G1 X81.35532994923858 Y3.3756345177664975
G1 X82.69796954314721 Y3.4035532994923856
G1 X83.9796954314721 Y3.449238578680203
G1 X84.41370558375635 Y3.472081218274112
G1 X84.85532994923858 Y3.49492385786802
G1 X85.72842639593908 Y3.548223350253807
G1 X86.09137055837563 Y3.5710659898477157
G1 X87.03299492385787 Y3.6446700507614214
G1 X87.1243654822335 Y3.652284263959391
G2 X85.64213197969544 Y3.1065989847715736 I-14.517766497461928 J37.08629441624366
G2 X84.13705583756345 Y2.6192893401015227 I-13.104060913705585 J37.819796954314725
G2 X82.61421319796953 Y2.190355329949239 I-11.560913705583758 J38.18527918781726
G2 X81.08629441624366 Y1.8248730964467006 I-9.857868020304569 J37.931472081218274
G1 X80.93908629441626 Y1.8248730964467006
G1 X80.7258883248731 Y1.8248730964467006
G1 X79.87055837563452 Y1.8248730964467006
G0 Z5
G0 X80.59796954314722 Y1.7215736040609138
G1 Z-0.5 F800
G1 X80.43401015228426 Y1.6878172588832487 F1500
G1 X80.26903553299492 Y1.7233502538071066
G1 X80.48223350253807 Y1.720812182741117
G1 X80.52030456852792 Y1.720812182741117
G1 X80.59898477157361 Y1.720812182741117
G0 Z5
G0 X64.53223350253808 Y3.4428934010152283
G1 Z-0.5 F800
G2 X63.09390862944163 Y4.101522842639594 I15.715736040609137 J36.233502538071065 F1500
G2 X61.67005076142132 Y4.822335025380711 I17.446700507614214 J36.18274111675127
G2 X60.28172588832487 Y5.598984771573604 I18.939086294416242 J35.59137055837563
G2 X58.923857868020306 Y6.426395939086294 I20.274111675126903 J34.72081218274112
G1 X58.99238578680203 Y6.406091370558375
G1 X59.43908629441624 Y6.279187817258883
G1 X59.86294416243655 Y6.159898477157361
G1 X60.27157360406092 Y6.048223350253807
G1 X63.08375634517766 Y5.342639593908629
G1 X63.39340101522843 Y5.274111675126903
G1 X63.80203045685279 Y5.182741116751269
G1 X65.01776649746193 Y4.9238578680203045
G1 X66.68781725888324 Y4.604060913705584
G1 X66.75380710659898 Y4.591370558375635
G1 X67.46446700507614 Y4.467005076142132
G1 X69.18020304568527 Y4.195431472081218
G1 X69.58121827411168 Y4.137055837563452
G1 X70.01269035532995 Y4.0786802030456855
G1 X70.41370558375634 Y4.022842639593909
G1 X70.69035532994924 Y3.989847715736041
G1 X71.06091370558376 Y3.941624365482234
G1 X72.09898477157361 Y3.8223350253807107
G2 X70.5228426395939 Y3.5761421319796955 I-6.967005076142132 J39.15482233502538
G2 X68.9238578680203 Y3.3883248730964466 I-5.482233502538071 J40.09137055837564
G2 X67.31979695431473 Y3.266497461928934 I-3.8984771573604062 J40.42131979695432
G2 X65.71573604060914 Y3.2081218274111674 I-2.286802030456853 J40.41370558375634
G1 X65.41878172588832 Y3.2639593908629445
G1 X64.53299492385787 Y3.441624365482234
G0 Z5
G0 X65.21040609137056 Y3.2020304568527918
G1 Z-0.5 F800
G1 X65.09898477157361 Y3.2030456852791875 F1500
G1 X64.99492385786802 Y3.2436548223350252
G1 X65.21065989847716 Y3.2030456852791875
G0 Z5
G0 X49.81395939086294 Y8.026395939086294
G1 Z-0.5 F800
G2 X48.525380710659896 Y8.956852791878173 I22.50507614213198 J32.48477157360406 F1500
G2 X47.266497461928935 Y9.946700507614214 I24.200507614213194 J32.09644670050761
G2 X46.04822335025381 Y10.984771573604062 I25.538071065989847 J31.200507614213198
G2 X44.8756345177665 Y12.068527918781726 I26.621827411167512 J30.01269035532995
G1 X45.62182741116751 Y11.685279187817258
G1 X45.994923857868024 Y11.49746192893401
G1 X46.746192893401016 Y11.124365482233502
G1 X46.92893401015229 Y11.038071065989847
G1 X47.12436548223351 Y10.941624365482234
G1 X47.50253807106599 Y10.761421319796954
G1 X47.880710659898476 Y10.583756345177664
G1 X48.26142131979695 Y10.406091370558375
G1 X48.64467005076143 Y10.233502538071066
G1 X49.733502538071065 Y9.748730964467004
G1 X49.79441624365482 Y9.720812182741117
G1 X52.901015228426395 Y8.451776649746193
G1 X53.00253807106599 Y8.413705583756347
G1 X53.68527918781726 Y8.157360406091371
G1 X54.078680203045685 Y8.01269035532995
G1 X54.474619289340104 Y7.870558375634518
G1 X54.84010152284264 Y7.738578680203045
G1 X55.27918781725888 Y7.586294416243655
G1 X56.055837563451774 Y7.322335025380711
G1 X56.45431472081218 Y7.190355329949238
G1 X57.24873096446701 Y6.934010152284263
G2 X55.662436548223354 Y6.99746192893401 I0.7944162436548223 J39.9492385786802
G2 X54.07360406091371 Y7.124365482233502 I2.3984771573604062 J40.15482233502538
G2 X52.49238578680203 Y7.312182741116752 I3.9771573604060912 J39.92893401015229
G2 X50.931472081218274 Y7.563451776649747 I5.464467005076142 J39.076142131979694
G1 X49.81472081218274 Y8.025380710659899
G0 Z5
G0 X50.43984771573604 Y7.656091370558376
G1 Z-0.5 F800
G1 X50.324873096446694 Y7.677664974619289 F1500
G1 X50.2258883248731 Y7.743654822335025
G1 X50.43908629441624 Y7.65736040609137
G0 Z5
G0 X36.82106598984772 Y15.044416243654823
G1 Z-0.5 F800
G1 X36.558375634517766 Y15.220812182741117 F1500
G1 X36.47969543147208 Y15.274111675126905
G1 X36.36294416243655 Y15.352791878172589
G1 X36.213197969543145 Y15.456852791878173
G2 X35.13705583756345 Y16.61928934010152 I28.449238578680202 J27.380710659898476
G2 X34.101522842639596 Y17.83248730964467 I30.04568527918782 J26.682741116751266
G2 X33.11675126903553 Y19.083756345177665 I31.195431472081218 J25.563451776649746
G2 X32.18527918781726 Y20.37055837563452 I32.078680203045685 J24.233502538071065
G1 X32.26142131979695 Y20.30964467005076
G1 X32.76142131979695 Y19.913705583756347
G1 X32.95685279187817 Y19.758883248730964
G1 X33.48984771573604 Y19.34517766497462
G1 X33.535532994923855 Y19.309644670050762
G1 X34.192893401015226 Y18.809644670050762
G1 X34.733502538071065 Y18.408629441624363
G1 X34.77157360406091 Y18.38071065989848
G1 X34.964467005076145 Y18.236040609137056
G1 X35.558375634517766 Y17.807106598984774
G1 X36.17766497461929 Y17.36548223350254
G1 X36.32994923857868 Y17.261421319796955
G1 X37.64720812182741 Y16.35786802030457
G3 X38.80456852791878 Y15.596446700507613 I43.601522842639596 J65.14467005076142
G3 X39.96954314720812 Y14.862944162436548 I41.87309644670051 J65.0253807106599
G3 X41.15228426395939 Y14.144670050761421 I40.41878172588832 J65.28934010152284
G3 X42.34010152284264 Y13.451776649746192 I38.64720812182741 J65.02030456852792
G1 X42.68527918781726 Y13.256345177664974
G1 X43.05837563451776 Y13.048223350253807
G1 X43.42893401015228 Y12.842639593908629
G2 X41.901015228426395 Y13.205583756345177 I8.355329949238579 J38.55329949238579
G2 X40.378172588832484 Y13.631979695431474 I10.00253807106599 J38.64467005076142
G2 X38.878172588832484 Y14.116751269035532 I11.532994923857869 J38.25126903553299
G2 X37.40355329949239 Y14.657360406091371 I12.921319796954315 J37.441624365482234
G1 X37.223350253807105 Y14.776649746192893
G1 X37.11675126903553 Y14.847715736040609
G1 X36.96954314720812 Y14.944162436548222
G1 X36.81979695431472 Y15.043147208121827
G0 Z5
G0 X36.946446700507614 Y14.840862944162437
G1 Z-0.5 F800
G1 X36.73096446700508 Y14.928934010152284 F1500
G1 X36.56091370558376 Y15.096446700507615
G1 X36.61421319796955 Y15.063451776649746
G1 X36.67766497461929 Y15.020304568527918
G1 X36.94670050761421 Y14.84010152284264
G0 Z5
G0 X24.616497461928933 Y25.11218274111675
G1 Z-0.5 F800
G1 X24.360406091370557 Y25.373096446700508 F1500
G2 X23.53807106598985 Y26.71827411167513 I33.954314720812185 J21.66243654822335
G2 X22.766497461928935 Y28.098984771573605 I34.86548223350254 J20.365482233502537
G2 X22.048223350253807 Y29.51269035532995 I35.525380710659896 J18.928934010152286
G2 X21.390862944162436 Y30.94670050761421 I35.71827411167513 J17.258883248730964
G1 X21.893401015228427 Y30.35279187817259
G1 X22.03553299492386 Y30.190355329949238
G1 X22.49492385786802 Y29.65736040609137
G1 X23.012690355329948 Y29.073604060913706
G1 X23.568527918781726 Y28.461928934010153
G1 X23.758883248730967 Y28.253807106598984
G1 X24.22842639593909 Y27.746192893401016
G1 X24.733502538071065 Y27.215736040609137
G1 X24.85532994923858 Y27.088832487309645
G1 X25.230964467005073 Y26.700507614213194
G1 X25.35279187817259 Y26.573604060913706
G1 X25.64213197969543 Y26.281725888324875
G1 X25.97969543147208 Y25.939086294416246
G1 X27.007614213197968 Y24.934010152284266
G1 X27.258883248730964 Y24.692893401015226
G1 X27.66751269035533 Y24.30456852791878
G1 X27.895939086294415 Y24.088832487309645
G1 X28.236040609137056 Y23.774111675126903
G1 X28.9746192893401 Y23.101522842639596
G1 X29.203045685279186 Y22.898477157360407
G1 X29.571065989847718 Y22.573604060913706
G1 X29.817258883248734 Y22.35532994923858
G1 X30.236040609137053 Y21.994923857868017
G1 X30.46954314720812 Y21.794416243654823
G1 X30.908629441624367 Y21.421319796954315
G1 X30.98984771573604 Y21.35279187817259
G2 X29.553299492385786 Y22.01269035532995 I15.83248730964467 J36.378172588832484
G2 X28.13451776649746 Y22.733502538071065 I17.51522842639594 J36.22842639593909
G2 X26.748730964467008 Y23.50761421319797 I18.96954314720812 J35.5736040609137
G2 X25.395939086294415 Y24.33502538071066 I20.215736040609137 J34.555837563451774
G1 X24.616751269035536 Y25.111675126903556
G0 Z5
G0 X15.100507614213198 Y36.741878172588834
G1 Z-0.5 F800
G1 X14.903553299492385 Y37.035532994923855 F1500
G1 X14.713197969543149 Y37.32233502538071
G2 X14.17005076142132 Y38.799492385786806 I37.19796954314721 J14.558375634517766
G2 X13.68020304568528 Y40.30456852791878 I38.159898477157356 J13.225888324873097
G2 X13.248730964467006 Y41.829949238578685 I38.6751269035533 J11.728426395939087
G2 X12.880710659898478 Y43.36548223350253 I38.78426395939086 J10.121827411167512
G1 X12.918781725888325 Y43.299492385786806
G1 X13.147208121827411 Y42.888324873096444
G1 X13.50507614213198 Y42.256345177664976
G1 X13.715736040609137 Y41.88832487309645
G1 X13.972081218274113 Y41.44923857868021
G1 X14.147208121827411 Y41.154822335025386
G1 X14.604060913705583 Y40.39593908629442
G1 X14.807106598984772 Y40.06598984771574
G1 X15.030456852791879 Y39.703045685279186
G1 X16.418781725888326 Y37.56091370558376
G1 X16.921319796954315 Y36.81979695431472
G1 X17.35786802030457 Y36.19543147208122
G1 X17.434010152284266 Y36.08629441624365
G1 X17.81979695431472 Y35.545685279187815
G1 X18.48223350253807 Y34.63705583756345
G1 X18.81725888324873 Y34.18527918781726
G1 X18.97969543147208 Y33.96954314720812
G1 X19.01776649746193 Y33.91878172588832
G1 X19.365482233502537 Y33.464467005076145
G1 X19.45431472081218 Y33.3502538071066
G1 X19.83756345177665 Y32.85786802030457
G1 X19.936548223350254 Y32.733502538071065
G1 X20.393401015228427 Y32.15736040609137
G1 X20.449238578680205 Y32.09137055837564
G2 X19.16751269035533 Y33.015228426395936 I21.850253807106597 J31.67005076142132
G2 X17.908629441624367 Y34.00253807106599 I23.73350253807107 J31.54568527918782
G2 X16.692893401015226 Y35.03807106598985 I25.13197969543147 J30.728426395939085
G2 X15.522842639593907 Y36.11675126903553 I26.253807106598984 J29.588832487309645
G1 X15.49238578680203 Y36.16497461928934
G1 X15.33756345177665 Y36.390862944162436
G1 X15.20304568527919 Y36.59137055837563
G1 X15.101522842639595 Y36.74111675126903
G0 Z5
G0 X15.164720812182741 Y36.46700507614213
G1 Z-0.5 F800
G1 X14.98730964467005 Y36.642131979695435 F1500
G1 X14.895939086294415 Y36.86548223350254
G1 X15.164974619289339 Y36.46700507614214
G0 Z5
G0 X58.164213197969545 Y153.94187817258884
G1 Z-0.5 F800
G2 X60.01269035532995 Y153.89593908629442 I-0.09898477157360405 J-40.14720812182741 F1500
G2 X61.86548223350254 Y153.76142131979697 I-1.9619289340101522 J-40.42639593908629
G2 X63.70812182741116 Y153.5456852791878 I-3.8121827411167515 J-40.27664974619289
G2 X65.53045685279189 Y153.24365482233503 I-5.601522842639594 J-39.66497461928934
G1 X65.34517766497461 Y153.20558375634516
G1 X64.90862944162436 Y153.11421319796955
G1 X64.4746192893401 Y153.02030456852793
G1 X64.08629441624366 Y152.93401015228426
G1 X63.60659898477158 Y152.8248730964467
G1 X62.75888324873097 Y152.62182741116752
G1 X61.87817258883249 Y152.4010152284264
G1 X61.44923857868021 Y152.28680203045687
G1 X61.01776649746193 Y152.1725888324873
G1 X60.6497461928934 Y152.07106598984774
G1 X59.703045685279186 Y151.80203045685278
G1 X58.87817258883249 Y151.55837563451774
G1 X58.02791878172589 Y151.2944162436548
G1 X57.26142131979695 Y151.0456852791878
G1 X55.203045685279186 Y150.33502538071065
G1 X54.81218274111675 Y150.19289340101523
G1 X54.35279187817259 Y150.0228426395939
G1 X54.01015228426396 Y149.89340101522842
G1 X53.82994923857868 Y149.8248730964467
G1 X53.565989847715734 Y149.7233502538071
G1 X52.41624365482234 Y149.26395939086294
G2 X53.76903553299492 Y150.53045685279187 I28.203045685279186 J-28.789340101522846
G2 X55.18527918781726 Y151.73604060913706 I26.95939086294416 J-30.182741116751266
G2 X56.65228426395939 Y152.87817258883248 I25.48984771573604 J-31.31979695431472
G2 X58.16497461928934 Y153.94162436548223 I23.710659898477154 J-32.04314720812183
G0 Z5
G0 X57.99568527918782 Y154.14365482233504
G1 Z-0.5 F800
G1 X58.13197969543147 Y154.18527918781726 F1500
G1 X58.068527918781726 Y154.14467005076142
G1 X57.994923857868024 Y154.14467005076142
G0 Z5
G0 X72.92969543147208 Y156.88604060913707
G1 Z-0.5 F800
G2 X74.75380710659898 Y156.4771573604061 I-7.824873096446701 J-39.266497461928935 F1500
G2 X76.56345177664974 Y155.98477157360406 I-9.685279187817258 J-39.00253807106599
G2 X78.34517766497461 Y155.40609137055836 I-11.461928934010153 J-38.40355329949239
G2 X80.08883248730965 Y154.748730964467 I-13.055837563451778 J-37.28426395939086
G1 X79.74619289340102 Y154.746192893401
G1 X79.35786802030456 Y154.74365482233503
G1 X79.04314720812182 Y154.73604060913706
G1 X78.76649746192894 Y154.73096446700507
G1 X78.36040609137056 Y154.7208121827411
G1 X77.92893401015229 Y154.70812182741116
G1 X77.63451776649747 Y154.69543147208122
G1 X77.18781725888324 Y154.6776649746193
G1 X76.74111675126903 Y154.65736040609136
G1 X76.50507614213198 Y154.64467005076142
G1 X75.77157360406092 Y154.60406091370558
G1 X74.51015228426397 Y154.51269035532994
G1 X74.06598984771574 Y154.4746192893401
G1 X73.61928934010153 Y154.43654822335026
G1 X72.76142131979695 Y154.35279187817258
G1 X72.71319796954315 Y154.3477157360406
G1 X71.90355329949239 Y154.25888324873097
G1 X70.62182741116752 Y154.1015228426396
G1 X70.3274111675127 Y154.06091370558374
G1 X70.0761421319797 Y154.0253807106599
G1 X69.73857868020305 Y153.9771573604061
G1 X69.34263959390863 Y153.91878172588832
G1 X68.91878172588832 Y153.85532994923858
G1 X68.62182741116752 Y153.80710659898477
G1 X67.2258883248731 Y153.5685279187817
G1 X66.80203045685279 Y153.49238578680203
G1 X66.52791878172589 Y153.44162436548226
G1 X66.38071065989847 Y153.41370558375635
G2 X67.95685279187818 Y154.39340101522842 I22.050761421319795 J-33.680203045685275
G2 X69.57868020304568 Y155.3020304568528 I20.573604060913702 J-34.8248730964467
G2 X71.24111675126903 Y156.13451776649748 I18.911167512690355 J-35.662436548223354
G2 X72.92893401015229 Y156.88578680203045 I17.0253807106599 J-36.02030456852792
G0 Z5
G0 X87.93705583756345 Y156.88604060913707
G1 Z-0.5 F800
G2 X89.61421319796955 Y156.14213197969542 I-15.309644670050762 J-36.71065989847716 F1500
G2 X91.26649746192894 Y155.31472081218274 I-17.22842639593909 J-36.47969543147208
G2 X92.8781725888325 Y154.41370558375635 I-18.934010152284266 J-35.75126903553299
G2 X94.44162436548224 Y153.44162436548226 I-20.47715736040609 J-34.733502538071065
G1 X94.0253807106599 Y153.51776649746193
G1 X93.82233502538071 Y153.55583756345177
G1 X93.76649746192894 Y153.56598984771574
G1 X93.46954314720811 Y153.61928934010152
G1 X93.18274111675126 Y153.67005076142132
G1 X92.76142131979695 Y153.74111675126903
G1 X92.39593908629442 Y153.7994923857868
G1 X92.0761421319797 Y153.8502538071066
G1 X91.19796954314721 Y153.98223350253807
G1 X90.81725888324874 Y154.03807106598984
G1 X90.31725888324873 Y154.10406091370558
G1 X89.87817258883248 Y154.16243654822335
G1 X89.43654822335026 Y154.21573604060913
G1 X88.99492385786802 Y154.26649746192894
G1 X88.55076142131979 Y154.31725888324874
G1 X85.89340101522843 Y154.55583756345177
G1 X84.65482233502539 Y154.63451776649745
G1 X84.55837563451777 Y154.63959390862945
G1 X84.11421319796955 Y154.66243654822335
G1 X83.66751269035532 Y154.68274111675126
G1 X81.88578680203045 Y154.73857868020306
G1 X81.44162436548223 Y154.74365482233503
G1 X80.78172588832487 Y154.751269035533
G2 X82.5228426395939 Y155.40609137055836 I14.842639593908629 J-36.763959390862944
G2 X84.30456852791878 Y155.98477157360406 I13.256345177664974 J-37.86294416243655
G2 X86.11421319796955 Y156.4771573604061 I11.49238578680203 J-38.502538071065985
G2 X87.93654822335026 Y156.88578680203045 I9.637055837563452 J-38.799492385786806
G0 Z5
G0 X87.86878172588833 Y157.1279187817259
G1 Z-0.5 F800
G1 X88.06598984771574 Y157.10913705583755 F1500
G1 X87.96192893401015 Y157.08883248730965
G1 X87.93401015228426 Y157.10152284263958
G1 X87.86802030456853 Y157.12690355329948
G0 Z5
G0 X102.70253807106599 Y153.94187817258884
G1 Z-0.5 F800
G2 X104.19289340101523 Y152.89086294416245 I-22.30710659898477 J-33.243654822335024 F1500
G2 X105.64467005076142 Y151.76903553299493 I-24.05329949238579 J-32.54060913705584
G2 X107.04060913705584 Y150.58121827411168 I-25.527918781725887 J-31.446700507614214
G2 X108.37817258883248 Y149.33502538071065 I-26.743654822335024 J-30.055837563451778
G1 X106.93654822335026 Y149.9010152284264
G1 X106.63705583756345 Y150.01522842639594
G1 X106.12690355329948 Y150.2030456852792
G1 X105.74111675126903 Y150.3451776649746
G1 X105.32487309644671 Y150.49238578680203
G1 X104.91116751269035 Y150.63959390862945
G1 X104.49492385786803 Y150.78172588832487
G1 X104.07614213197971 Y150.9238578680203
G1 X103.23857868020305 Y151.1979695431472
G1 X102.38324873096447 Y151.46700507614213
G1 X101.56852791878173 Y151.71319796954316
G1 X101.12944162436548 Y151.84010152284264
G1 X99.5228426395939 Y152.28680203045687
G1 X97.40355329949239 Y152.81472081218274
G1 X97.09390862944163 Y152.88578680203045
G1 X96.59898477157361 Y152.997461928934
G1 X96.21827411167513 Y153.07868020304568
G1 X95.80456852791878 Y153.16751269035532
G1 X95.38832487309645 Y153.25380710659897
G2 X97.1979695431472 Y153.5507614213198 I7.370558375634517 J-39.3248730964467
G2 X99.0279187817259 Y153.76395939086294 I5.619289340101523 J-40.03299492385786
G2 X100.86802030456853 Y153.89593908629442 I3.7893401015228427 J-40.266497461928935
G2 X102.70304568527919 Y153.94162436548223 I1.934010152284264 J-40.04822335025381
G0 Z5
G0 X102.65329949238578 Y154.21269035532995
G1 Z-0.5 F800
G1 X102.97208121827411 Y154.12436548223351 F1500
G1 X102.81472081218274 Y154.10659898477155
G3 X102.76142131979695 Y154.16243654822335 I-0.18527918781725888 J-0.11928934010152284
G3 X102.7005076142132 Y154.19289340101523 I-0.10659898477157359 J-0.13959390862944163
G2 X102.67005076142132 Y154.2030456852792 I0.07106598984771574 J0.26649746192893403
G1 X102.65228426395939 Y154.21319796954316
G0 Z5
G0 X121.29416243654822 Y142.54390862944163
G1 Z-0.5 F800
G1 X120.94162436548224 Y142.7766497461929 F1500
G1 X120.2258883248731 Y143.23350253807106
G1 X119.86802030456852 Y143.45939086294416
G1 X119.45939086294416 Y143.71573604060913
G1 X119.14467005076142 Y143.90609137055839
G1 X118.7258883248731 Y144.16243654822335
G1 X118.41878172588834 Y144.3451776649746
G1 X117.76903553299492 Y144.7258883248731
G1 X117.68781725888324 Y144.7741116751269
G1 X117.31725888324873 Y144.98730964467006
G1 X116.9492385786802 Y145.19543147208122
G1 X114.71065989847716 Y146.41116751269035
G1 X114.68274111675127 Y146.4263959390863
G1 X113.95685279187818 Y146.7969543147208
G1 X113.19796954314722 Y147.1751269035533
G1 X110.90609137055837 Y148.25380710659897
G1 X110.51015228426395 Y148.43147208121826
G1 X109.73350253807106 Y148.7690355329949
G1 X109.34517766497463 Y148.93401015228426
G2 X111.18020304568529 Y148.87055837563452 I-0.4873096446700508 J-41.02030456852792
G2 X113.00253807106598 Y148.7258883248731 I-2.3071065989847717 J-40.736040609137056
G2 X114.81979695431471 Y148.5 I-4.101522842639594 J-40.31218274111676
G2 X116.6040609137056 Y148.19543147208122 I-5.789340101522843 J-39.20558375634518
G2 X117.86802030456853 Y146.86802030456852 I-28.296954314720814 J-28.21319796954315
G2 X119.07614213197971 Y145.4771573604061 I-29.931472081218274 J-27.225888324873097
G2 X120.21827411167513 Y144.03553299492384 I-31.215736040609137 J-25.898477157360404
G2 X121.29441624365482 Y142.5431472081218 I-32.26903553299493 J-24.388324873096447
G0 Z5
G0 X116.6223350253807 Y148.48959390862944
G1 Z-0.5 F800
G1 X116.84010152284264 Y148.37309644670052 F1500
G1 X116.91116751269035 Y148.33502538071065
G1 X116.74365482233503 Y148.36802030456855
G1 X116.62182741116752 Y148.48984771573606
G0 Z5
G0 X132.63274111675128 Y133.36395939086293
G1 Z-0.5 F800
G1 X132.5 Y133.494923857868 F1500
G1 X132.1522842639594 Y133.83248730964468
G1 X132.10406091370558 Y133.88071065989848
G1 X131.91116751269035 Y134.06598984771574
G1 X131.505076142132 Y134.4492385786802
G1 X131.28680203045684 Y134.65736040609136
G1 X130.74111675126903 Y135.16497461928932
G1 X130.251269035533 Y135.61167512690355
G1 X130.06345177664974 Y135.77918781725887
G1 X129.51776649746193 Y136.26395939086294
G1 X128.92385786802032 Y136.78172588832487
G1 X128.87817258883248 Y136.8223350253807
G1 X128.33248730964468 Y137.28426395939087
G1 X128.13959390862945 Y137.4467005076142
G1 X127.57360406091371 Y137.91624365482232
G1 X126.54060913705584 Y138.748730964467
G1 X125.90862944162437 Y139.24365482233503
G1 X125.57360406091371 Y139.502538071066
G1 X125.23350253807106 Y139.76142131979697
G1 X124.55329949238578 Y140.26903553299493
G1 X124.21065989847716 Y140.52030456852793
G1 X123.86548223350253 Y140.77157360406093
G1 X123.17512690355329 Y141.26395939086294
G1 X122.82487309644671 Y141.50761421319797
G1 X122.4771573604061 Y141.748730964467
G1 X122.12690355329948 Y141.98730964467006
G2 X123.91116751269035 Y141.56852791878174 I-8.210659898477157 J-39.04822335025381
G2 X125.68020304568527 Y141.0685279187817 I-10.063451776649746 J-38.898477157360404
G2 X127.42639593908629 Y140.48730964467006 I-11.8248730964467 J-38.3756345177665
G2 X129.13451776649745 Y139.82741116751268 I-13.446700507614214 J-37.4492385786802
G2 X130.11675126903552 Y138.27918781725887 I-33.30964467005076 J-22.16751269035533
G2 X131.03045685279187 Y136.6776649746193 I-34.756345177664976 J-20.898477157360404
G2 X131.87055837563452 Y135.03553299492387 I-35.74111675126903 J-19.33502538071066
G2 X132.63197969543148 Y133.36294416243655 I-36.378172588832484 J-17.596446700507617
G0 Z5
G0 X141.9510152284264 Y122.18477157360407
G1 Z-0.5 F800
G1 X141.9035532994924 Y122.25634517766497 F1500
G1 X140.9771573604061 Y123.58121827411168
G1 X140.73096446700507 Y123.92639593908629
G1 X140.45431472081216 Y124.30710659898477
G1 X140.2258883248731 Y124.61675126903555
G1 X139.96954314720813 Y124.95939086294416
G1 X139.71319796954316 Y125.2994923857868
G1 X139.4543147208122 Y125.63959390862945
G1 X139.19289340101523 Y125.9771573604061
G1 X138.9314720812183 Y126.31218274111674
G1 X138.66497461928932 Y126.64720812182742
G1 X137.86040609137055 Y127.64467005076142
G1 X136.75888324873097 Y128.9492385786802
G1 X136.4289340101523 Y129.33248730964468
G1 X136.31472081218274 Y129.46192893401016
G1 X136.13451776649748 Y129.66497461928935
G1 X135.69289340101523 Y130.15989847715736
G1 X135.21065989847716 Y130.69035532994923
G1 X134.96954314720813 Y130.9543147208122
G1 X134.63197969543148 Y131.31472081218274
G1 X134.34010152284264 Y131.62436548223351
G1 X134.03299492385787 Y131.94416243654823
G1 X133.7715736040609 Y132.21319796954316
G1 X133.7284263959391 Y132.26142131979697
G1 X133.41624365482235 Y132.57868020304568
G1 X133.28426395939087 Y132.71319796954313
G2 X134.96446700507613 Y131.9543147208122 I-15.527918781725889 J-36.58121827411168
G2 X136.61167512690355 Y131.11421319796955 I-17.32741116751269 J-36.07360406091371
G2 X138.21827411167513 Y130.2005076142132 I-18.961928934010153 J-35.21065989847716
G2 X139.7741116751269 Y129.21827411167513 I-20.3756345177665 J-33.9746192893401
G2 X140.43654822335026 Y127.50507614213198 I-37.08375634517766 J-15.31725888324873
G2 X141.0228426395939 Y125.75380710659898 I-38.11167512690355 J-13.733502538071065
G2 X141.5279187817259 Y123.9771573604061 I-38.72081218274112 J-11.989847715736042
G2 X141.9517766497462 Y122.18527918781726 I-38.93654822335026 J-10.137055837563452
G0 Z5
G0 X148.91395939086294 Y109.40659898477158
G1 Z-0.5 F800
G3 X147.53045685279187 Y112.4771573604061 I-68.01015228426395 J-28.789340101522846 F1500
G3 X146.00507614213197 Y115.48984771573603 I-67.08629441624366 J-32.078680203045685
G3 X144.34010152284264 Y118.43908629441626 I-65.497461928934 J-35.058375634517766
G3 X142.5507614213198 Y121.29187817258882 I-63.17258883248731 J-37.61421319796954
G2 X144.0279187817259 Y120.2258883248731 I-22.725888324873097 J-33.017766497461935
G2 X145.46446700507613 Y119.08375634517766 I-24.49746192893401 J-32.33756345177665
G2 X146.8451776649746 Y117.88324873096445 I-25.96700507614213 J-31.23350253807107
G2 X148.16751269035532 Y116.62436548223351 I-27.1497461928934 J-29.812182741116754
G2 X148.4746192893401 Y114.84010152284264 I-39.3502538071066 J-7.692893401015228
G2 X148.7030456852792 Y113.03299492385787 I-40.10659898477157 J-5.977157360406091
G2 X148.8502538071066 Y111.22081218274111 I-40.388324873096444 J-4.177664974619289
G2 X148.91370558375633 Y109.40609137055837 I-40.296954314720814 J-2.3477157360406093
G0 Z5
G0 X148.33223350253806 Y116.9223350253807
G1 Z-0.5 F800
G1 X148.41624365482235 Y116.76649746192894 F1500
G1 X148.5 Y116.60659898477157
G1 X148.37055837563452 Y116.74111675126903
G1 X148.33248730964468 Y116.92131979695432
G0 Z5
G0 X156.87106598984772 Y88.00431472081219
G1 Z-0.5 F800
G2 X156.46700507614213 Y86.20304568527919 I-39.266497461928935 J7.875634517766498 F1500
G2 X155.9771573604061 Y84.41370558375635 I-39.370558375634516 J9.804568527918782
G2 X155.40609137055836 Y82.64720812182742 I-38.95939086294416 J11.619289340101522
G2 X154.75634517766497 Y80.91370558375635 I-38.19796954314721 J13.31725888324873
G1 X154.75634517766497 Y80.94670050761421
G1 X154.75634517766497 Y81.15989847715737
G1 X154.75380710659897 Y81.34263959390863
G1 X154.746192893401 Y81.76395939086294
G1 X154.73857868020306 Y82.19543147208121
G1 X154.7284263959391 Y82.62182741116752
G1 X154.71573604060916 Y82.99746192893402
G1 X154.6751269035533 Y84.01269035532994
G1 X154.65989847715736 Y84.32994923857868
G1 X154.63705583756345 Y84.75634517766497
G1 X154.61167512690355 Y85.18274111675127
G1 X154.58375634517768 Y85.60659898477157
G1 X154.55329949238578 Y86.03299492385787
G1 X154.44670050761422 Y87.30964467005077
G1 X154.41624365482232 Y87.65228426395939
G1 X154.3197969543147 Y88.58121827411168
G1 X154.2741116751269 Y89.00507614213198
G1 X154.15482233502536 Y89.98477157360406
G1 X154.10406091370558 Y90.36802030456853
G1 X154.03807106598984 Y90.8477157360406
G1 X153.98223350253807 Y91.24111675126903
G1 X153.91116751269035 Y91.72842639593908
G1 X153.85279187817258 Y92.11421319796955
G1 X153.63451776649748 Y93.41624365482234
G1 X153.5456852791878 Y93.90609137055839
G1 X153.4771573604061 Y94.28172588832487
G1 X153.44416243654823 Y94.46446700507614
G2 X154.41116751269035 Y92.90355329949239 I-34.243654822335024 J-22.32741116751269
G2 X155.30710659898477 Y91.30203045685279 I-35.11675126903553 J-20.710659898477157
G2 X156.13197969543148 Y89.66243654822335 I-35.80203045685279 J-18.99746192893401
G2 X156.87055837563452 Y88.00507614213197 I-35.87309644670051 J-17
G0 Z5
G0 X154.14644670050762 Y102.79289340101523
G1 Z-0.5 F800
G1 X154.14720812182742 Y102.97969543147207 F1500
G1 X154.248730964467 Y102.63705583756345
G1 X154.14720812182742 Y102.79187817258884
G0 Z5
G0 X157.09289340101523 Y87.98223350253807
G1 Z-0.5 F800
G1 X157.11421319796955 Y88.09137055837564 F1500
G1 X157.13451776649745 Y87.8781725888325
G1 X157.09390862944164 Y87.98223350253807
G0 Z5
G0 X157.09568527918782 Y89.21700507614213
G1 Z-0.5 F800
G1 X156.9771573604061 Y90.20304568527919 F1500
G1 X156.93908629441626 Y90.51015228426395
G1 X156.7030456852792 Y92.17512690355329
G1 X156.63959390862945 Y92.58629441624365
G1 X156.5736040609137 Y93
G1 X156.505076142132 Y93.41116751269035
G1 X156.28680203045684 Y94.64467005076142
G1 X156.2791878172589 Y94.68781725888326
G1 X155.87817258883248 Y96.69035532994924
G1 X155.69796954314722 Y97.50507614213198
G1 X155.53045685279187 Y98.23096446700507
G1 X155.5 Y98.36548223350255
G1 X155.41370558375635 Y98.72081218274111
G1 X155.31472081218274 Y99.1269035532995
G1 X155.21319796954313 Y99.53045685279187
G1 X155.005076142132 Y100.32994923857869
G1 X154.89593908629442 Y100.73857868020305
G1 X154.81472081218274 Y101.03299492385787
G1 X154.78680203045687 Y101.13705583756345
G1 X154.6776649746193 Y101.5228426395939
G1 X154.65736040609136 Y101.59898477157361
G2 X155.48730964467006 Y100.20812182741118 I-33.934010152284266 J-21.18781725888325
G2 X156.26395939086294 Y98.7766497461929 I-35.03045685279188 J-19.946700507614214
G2 X156.98223350253807 Y97.31725888324873 I-35.76903553299492 J-18.49746192893401
G2 X157.63705583756345 Y95.83756345177665 I-36.055837563451774 J-16.83502538071066
G1 X157.6548223350254 Y95.74619289340103
G2 X157.61675126903552 Y94.11167512690355 I-39.67258883248731 J0.12690355329949238
G2 X157.51015228426397 Y92.47208121827411 I-40.109137055837564 J1.7817258883248732
G2 X157.33502538071068 Y90.83756345177665 I-40.030456852791886 J3.4238578680203045
G2 X157.0964467005076 Y89.21827411167513 I-39.5 J5.0152284263959395
G0 Z5
G0 X151.33071065989847 Y81.71040609137056
G1 Z-0.5 F800
G1 X151.3223350253807 Y82.06091370558376 F1500
G1 X151.31218274111674 Y82.53807106598984
G1 X151.2994923857868 Y82.93654822335026
G1 X151.28934010152284 Y83.17005076142132
G1 X151.28426395939087 Y83.36548223350255
G1 X151.2030456852792 Y84.91116751269035
G1 X151.1979695431472 Y85.01776649746192
G1 X151.1827411167513 Y85.23857868020303
G1 X151.15989847715736 Y85.55329949238578
G1 X151.0964467005076 Y86.3984771573604
G1 X151.06091370558377 Y86.81979695431473
G1 X151.03553299492387 Y87.0761421319797
G2 X152.03045685279187 Y85.48477157360406 I-33.43908629441624 J-21.967005076142133
G2 X152.9517766497462 Y83.84010152284263 I-34.81979695431472 J-20.60406091370558
G2 X153.7969543147208 Y82.15228426395939 I-35.78934010152284 J-18.982233502538072
G2 X154.56091370558374 Y80.43401015228426 I-36.40609137055838 J-17.18781725888325
G2 X153.7969543147208 Y78.71319796954315 I-37.078680203045685 J15.431472081218274
G2 X152.9492385786802 Y77.02030456852792 I-36.66497461928934 J17.317258883248734
G2 X152.0228426395939 Y75.37309644670052 I-35.8248730964467 J19.012690355329948
G2 X151.02791878172587 Y73.7766497461929 I-34.59137055837564 J20.47969543147208
G1 X151.05329949238578 Y74.06598984771574
G1 X151.09137055837562 Y74.49238578680203
G1 X151.1243654822335 Y74.91878172588832
G1 X151.1497461928934 Y75.26142131979695
G1 X151.16497461928932 Y75.44670050761422
G1 X151.21319796954316 Y76.19289340101523
G1 X151.2791878172589 Y77.54314720812182
G1 X151.2969543147208 Y77.98984771573603
G1 X151.30964467005077 Y78.38324873096447
G1 X151.32994923857868 Y79.22081218274113
G1 X151.34263959390861 Y80.47461928934011
G1 X151.32994923857868 Y81.71065989847716
G0 Z5
G0 X153.24568527918782 Y95.46167512690356
G1 Z-0.5 F800
G1 X153.20812182741116 Y95.63959390862945 F1500
G1 X153.0253807106599 Y96.49492385786802
G1 X152.99492385786803 Y96.63197969543147
G1 X152.5203045685279 Y98.64213197969542
G1 X152.41624365482232 Y99.05329949238579
G1 X152.30456852791878 Y99.47715736040608
G1 X152.19035532994926 Y99.90101522842639
G1 X152.07614213197968 Y100.32233502538071
G1 X151.82741116751268 Y101.19796954314721
G1 X151.58883248730965 Y102.00761421319797
G1 X151.32994923857868 Y102.84517766497461
G1 X150.9238578680203 Y104.09390862944163
G1 X150.78172588832487 Y104.51015228426397
G1 X150.63959390862945 Y104.9238578680203
G1 X150.49492385786803 Y105.33756345177665
G1 X150.3477157360406 Y105.75126903553299
G1 X150.19796954314722 Y106.16243654822335
G1 X149.9263959390863 Y106.88578680203045
G1 X149.89086294416242 Y106.98223350253807
G1 X149.34263959390864 Y108.37055837563452
G2 X150.58121827411168 Y107.04060913705584 I-28.888324873096444 J-28.121827411167516
G2 X151.76142131979697 Y105.64974619289339 I-30.40609137055838 J-27.04060913705584
G2 X152.88071065989845 Y104.21065989847716 I-31.578680203045685 J-25.64213197969543
G2 X153.9263959390863 Y102.7284263959391 I-32.357868020304565 J-23.951776649746193
G2 X153.87817258883248 Y100.90862944162437 I-40.152284263959395 J0.11675126903553298
G2 X153.748730964467 Y99.08121827411166 I-40.55837563451776 J1.9593908629441625
G2 X153.53807106598987 Y97.26142131979697 I-40.4746192893401 J3.7893401015228427
G2 X153.24619289340103 Y95.46192893401015 I-39.99238578680203 J5.571065989847716
G0 Z5
G0 X153.14137055837563 Y94.92106598984772
G1 Z-0.5 F800
G2 X152.7284263959391 Y93.08121827411168 I-39.54060913705584 J7.911167512690356 F1500
G2 X152.2284263959391 Y91.25634517766498 I-39.370558375634516 J9.812182741116752
G2 X151.64213197969542 Y89.45431472081218 I-38.81218274111675 J11.619289340101522
G2 X150.9771573604061 Y87.69543147208122 I-37.763959390862944 J13.258883248730964
G1 X150.93654822335026 Y88.10152284263958
G1 X150.88832487309645 Y88.5228426395939
G1 X150.87055837563452 Y88.68781725888326
G1 X150.83248730964468 Y89.00507614213198
G1 X150.63705583756345 Y90.49746192893402
G1 X150.56345177664974 Y91
G1 X150.5 Y91.41370558375634
G1 X150.3756345177665 Y92.19035532994924
G1 X150.36802030456852 Y92.23604060913706
G1 X150.14974619289342 Y93.46700507614214
G1 X149.994923857868 Y94.28426395939086
G1 X149.6522842639594 Y95.91624365482234
G1 X149.56091370558374 Y96.32233502538071
G1 X149.37055837563452 Y97.13197969543147
G1 X149.17258883248732 Y97.93908629441624
G1 X149.07868020304568 Y98.30456852791878
G1 X149.0279187817259 Y98.497461928934
G1 X148.9289340101523 Y98.86548223350253
G1 X148.7030456852792 Y99.69289340101524
G1 X148.5964467005076 Y100.07106598984771
G1 X148.3984771573604 Y100.74111675126903
G2 X149.6776649746193 Y99.38071065989847 I-28.411167512690355 J-27.931472081218274
G2 X150.9010152284264 Y97.94670050761422 I-30.243654822335024 J-27.063451776649746
G2 X152.05583756345177 Y96.45939086294416 I-31.606598984771573 J-25.746192893401016
G2 X153.14213197969542 Y94.92131979695431 I-32.736040609137056 J-24.238578680203045
G0 Z5
G0 X142.24289340101524 Y55.03730964467005
G1 Z-0.5 F800
G1 X142.2258883248731 Y55.111675126903556 F1500
G3 X142.66751269035532 Y56.210659898477154 I-61.3502538071066 J25.215736040609137
G3 X143.08629441624365 Y57.31218274111675 I-61.60659898477157 J24.048223350253807
G3 X143.48730964467006 Y58.42639593908629 I-61.86802030456853 J22.885786802030456
G3 X143.86548223350252 Y59.545685279187815 I-61.82741116751269 J21.616751269035532
G1 X143.98984771573603 Y59.92131979695431
G1 X144.3451776649746 Y61.05329949238579
G1 X145.12944162436548 Y63.857868020304565
G1 X145.46954314720813 Y65.24365482233503
G1 X145.88832487309645 Y67.16751269035532
G1 X145.93401015228426 Y67.21319796954315
G2 X146.61421319796955 Y65.43147208121827 I-36.79187817258884 J-15.040609137055839
G2 X147.21065989847716 Y63.60913705583756 I-37.934010152284266 J-13.423857868020303
G2 X147.71827411167513 Y61.76142131979695 I-38.58121827411168 J-11.616751269035532
G2 X148.13705583756345 Y59.89593908629441 I-38.8248730964467 J-9.700507614213198
G2 X146.75380710659897 Y58.578680203045685 I-28.21827411167513 J28.248730964467008
G2 X145.30456852791878 Y57.32233502538071 I-27.02284263959391 J29.77664974619289
G2 X143.7969543147208 Y56.13959390862944 I-25.543147208121827 J30.994923857868024
G2 X142.24365482233503 Y55.03807106598985 I-23.758883248730967 J31.80456852791878
G0 Z5
G0 X52.15228426395939 Y11.930710659898477
G1 Z-0.5 F800
G1 X52.04060913705583 Y11.974619289340101 F1500
G2 X50.736040609137056 Y13.347715736040609 I28.502538071065988 J28.35786802030457
G2 X49.49492385786802 Y14.786802030456855 I30.02030456852792 J27.17766497461929
G2 X48.32233502538071 Y16.281725888324875 I31.225888324873097 J25.710659898477157
G2 X47.2258883248731 Y17.81979695431472 I32.02284263959391 J23.936548223350258
G1 X47.28680203045685 Y17.82233502538071
G1 X47.35786802030457 Y17.82233502538071
G1 X47.71319796954315 Y17.63451776649746
G1 X48.02030456852792 Y17.47715736040609
G1 X51.13451776649746 Y15.964467005076141
G1 X51.81725888324873 Y15.65736040609137
G1 X52.753807106598984 Y15.251269035532996
G1 X53.34010152284264 Y15.00253807106599
G3 X54.68781725888324 Y14.459390862944161 I27.284263959390863 J65.78934010152284
G3 X56.04314720812183 Y13.946700507614214 I25.799492385786806 J65.98223350253807
G3 X57.411167512690355 Y13.459390862944163 I24.36294416243655 J66.2766497461929
G3 X58.78426395939086 Y13.00253807106599 I22.81218274111675 J66.2284263959391
G1 X59.558375634517766 Y12.758883248730966
G1 X59.626903553299485 Y12.690355329949238
G1 X59.65736040609137 Y12.657360406091371
G2 X57.809644670050766 Y12.347715736040609 I-7.530456852791878 J39.0507614213198
G2 X55.931472081218274 Y12.119289340101522 I-5.784263959390863 J40.08121827411167
G2 X54.04314720812182 Y11.98223350253807 I-3.9238578680203045 J40.49238578680203
G2 X52.15228426395939 Y11.931472081218274 I-2.0380710659898478 J40.63705583756345
G0 Z5
G0 X33.315989847715734 Y33.054060913705584
G1 Z-0.5 F800
G1 X33.477157360406096 Y33.02284263959391 F1500
G1 X33.58375634517766 Y33.00507614213198
G3 X34.82741116751269 Y31.80456852791878 I47.3756345177665 J47.961928934010146
G3 X36.101522842639596 Y30.64213197969543 I46.02030456852792 J49.04314720812182
G3 X37.40862944162436 Y29.50507614213198 I44.61421319796954 J50.06091370558376
G3 X38.74111675126903 Y28.408629441624367 I42.90862944162437 J50.723350253807105
G1 X39.94670050761422 Y27.464467005076145
G1 X41.99492385786802 Y25.95431472081218
G1 X43.0507614213198 Y25.22335025380711
G1 X43.154822335025386 Y24.96700507614213
G2 X41.28426395939086 Y25.017766497461928 I0.14720812182741116 J40.5507614213198
G2 X39.411167512690355 Y25.15228426395939 I2.0279187817258886 J40.713197969543145
G2 X37.54822335025381 Y25.3756345177665 I3.8908629441624365 J40.47969543147208
G2 X35.713197969543145 Y25.68274111675127 I5.66751269035533 J39.66243654822335
G1 X35.6243654822335 Y25.756345177664976
G1 X35.50507614213198 Y25.850253807106597
G2 X34.82994923857868 Y27.609137055837564 I36.974619289340104 J15.15482233502538
G2 X34.24111675126903 Y29.403553299492383 I37.901015228426395 J13.484771573604062
G2 X33.733502538071065 Y31.223350253807105 I38.46192893401015 J11.68274111675127
G2 X33.31472081218274 Y33.05329949238579 I38.58121827411168 J9.763959390862944
G0 Z5
G0 X25.791116751269037 Y35.30228426395939
G1 Z-0.5 F800
G1 X25.941624365482234 Y35.24111675126904 F1500
G1 X26.060913705583758 Y35.09644670050761
G1 X27 Y33.997461928934015
G1 X27.0989847715736 Y33.88578680203046
G1 X28.098984771573605 Y32.76142131979695
G1 X28.98730964467005 Y31.80710659898477
G1 X29.21827411167513 Y31.560913705583754
G3 X30.576142131979694 Y30.17766497461929 I52.101522842639596 J49.74873096446701
G3 X31.96446700507614 Y28.83502538071066 I50.27157360406092 J50.65736040609137
G3 X33.398477157360404 Y27.5253807106599 I48.57106598984772 J51.66751269035533
G3 X34.85279187817259 Y26.26649746192893 I46.39086294416244 J52.13451776649747
G1 X35.22842639593909 Y25.951776649746193
G1 X35.253807106598984 Y25.885786802030456
G1 X35.30456852791878 Y25.763959390862944
G2 X33.47969543147208 Y26.1751269035533 I7.870558375634518 J39.068527918781726
G2 X31.66751269035533 Y26.675126903553302 I9.776649746192893 J38.97969543147208
G2 X29.88578680203046 Y27.258883248730964 I11.581218274111675 J38.45685279187818
G2 X28.139593908629443 Y27.918781725888326 I13.220812182741117 J37.464467005076145
G1 X28 Y28.058375634517766
G2 X27.32233502538071 Y29.82741116751269 I37.26903553299493 J15.307106598984772
G2 X26.725888324873097 Y31.631979695431475 I38.27918781725889 J13.659898477157359
G2 X26.213197969543145 Y33.45939086294416 I38.87563451776649 J11.855329949238577
G2 X25.791878172588834 Y35.30203045685279 I39.03299492385787 J9.936548223350254
G0 Z5
G0 X12.784263959390863 Y59.840609137055836
G1 Z-0.5 F800
G1 X12.763959390862944 Y59.90609137055838 F1500
G1 X12.743654822335024 Y59.97208121827411
G2 X13.16243654822335 Y61.81725888324873 I39.12182741116751 J-7.880710659898477
G2 X13.66751269035533 Y63.647208121827404 I38.984771573604064 J-9.796954314720812
G2 X14.258883248730964 Y65.4517766497462 I38.423857868020306 J-11.609137055837564
G2 X14.931472081218274 Y67.21319796954315 I37.34263959390863 J-13.241116751269036
G1 X15.101522842639595 Y67.04314720812182
G1 X15.289340101522843 Y66.16497461928934
G1 X15.406091370558375 Y65.63451776649745
G3 X15.631979695431472 Y64.67766497461929 I63.75888324873096 J14.467005076142133
G3 X15.873096446700508 Y63.71827411167513 I63.82741116751269 J15.497461928934012
G3 X16.126903553299492 Y62.76395939086294 I63.710659898477154 J16.48984771573604
G3 X16.395939086294415 Y61.81472081218274 I63.659898477157356 J17.497461928934012
G1 X16.614213197969544 Y61.076142131979694
G1 X16.83756345177665 Y60.35786802030457
G1 X17.20304568527919 Y59.23604060913705
G1 X17.444162436548222 Y58.52791878172589
G1 X17.710659898477157 Y57.77918781725888
G1 X17.972081218274113 Y57.06345177664975
G1 X18.251269035532996 Y56.33248730964467
G1 X18.390862944162436 Y55.9746192893401
G1 X18.67258883248731 Y55.2741116751269
G1 X18.624365482233504 Y55.035532994923855
G2 X17.086294416243653 Y56.129441624365484 I22.281725888324875 J33.01015228426396
G2 X15.593908629441625 Y57.2994923857868 I24.048223350253807 J32.223350253807105
G2 X14.154822335025381 Y58.53807106598985 I25.55329949238579 J31.068527918781726
G2 X12.784263959390863 Y59.84010152284264 I26.784263959390863 J29.601522842639593
G0 Z5
G0 X7.730456852791878 Y65.97182741116751
G1 Z-0.5 F800
G2 X8.149746192893401 Y67.8274111675127 I39.5507614213198 J-7.944162436548224 F1500
G2 X8.654822335025381 Y69.66751269035532 I39.39340101522843 J-9.865482233502538
G2 X9.248730964467004 Y71.48223350253807 I38.8248730964467 J-11.687817258883248
G2 X9.923857868020304 Y73.25634517766497 I37.746192893401016 J-13.32994923857868
G1 X9.969543147208121 Y73.19035532994924
G1 X10 Y73.14213197969544
G1 X10.043147208121827 Y72.74111675126903
G1 X10.157360406091371 Y71.75888324873097
G1 X10.296954314720812 Y70.68781725888326
G1 X10.413705583756345 Y69.87055837563452
G1 X10.774111675126903 Y67.7005076142132
G1 X10.888324873096447 Y67.09137055837563
G1 X11.233502538071065 Y65.39340101522842
G1 X11.403553299492387 Y64.63959390862944
G1 X11.703045685279188 Y63.380710659898476
G1 X11.903553299492387 Y62.58629441624365
G1 X11.916243654822336 Y62.54060913705584
G1 X12.114213197969544 Y61.78934010152284
G1 X12.357868020304569 Y60.923857868020306
G1 X12.51522842639594 Y60.38578680203046
G1 X12.565989847715734 Y60.20812182741117
G1 X12.540609137055839 Y60.08375634517766
G2 X11.241116751269036 Y61.46446700507614 I28.464467005076145 J28.131979695431472
G2 X9.99746192893401 Y62.91370558375634 I30.14213197969543 J27.088832487309645
G2 X8.82741116751269 Y64.41878172588832 I31.434010152284266 J25.68020304568528
G2 X7.730964467005076 Y65.97208121827411 I32.39593908629442 J24.02030456852792
G0 Z5
G0 X9.934263959390863 Y73.83553299492385
G1 Z-0.5 F800
G1 X9.918781725888325 Y73.78934010152284 F1500
G1 X9.898477157360405 Y73.71827411167513
G2 X8.83248730964467 Y75.41116751269035 I38.30203045685279 J25.269035532994923
G2 X7.939086294416243 Y76.98730964467005 I32.28172588832487 J19.33248730964467
G2 X7.053299492385787 Y78.76903553299492 I30.02030456852792 J16.065989847715734
G2 X6.3502538071066 Y80.4263959390863 I25.304568527918782 J11.69543147208122
G2 X7.053299492385787 Y82.09137055837564 I25.85786802030457 J-9.928934010152284
G2 X7.939086294416243 Y83.87817258883248 I30.64213197969543 J-14.121827411167514
G2 X8.83248730964467 Y85.45431472081218 I32.88832487309645 J-17.583756345177665
G2 X9.898477157360405 Y87.14974619289339 I39.18781725888325 J-23.464467005076145
G1 X9.926395939086294 Y87.03807106598985
G3 X9.794416243654823 Y85.40609137055837 I71.06598984771574 J-6.525380710659898
G3 X9.700507614213198 Y83.75888324873097 I72.19543147208122 J-4.961928934010152
G3 X9.644670050761421 Y82.10913705583756 I72.21573604060913 J-3.3121827411167515
G3 X9.624365482233502 Y80.47461928934011 I70.98730964467005 J-1.634517766497462
G3 X9.644670050761421 Y78.82487309644671 I70.59644670050761 J0
G3 X9.703045685279188 Y77.15482233502539 I72.19035532994924 J1.6903553299492384
G3 X9.799492385786802 Y75.48984771573603 I72.3502538071066 J3.3705583756345177
G3 X9.934010152284264 Y73.83502538071066 I71.49238578680203 J4.982233502538071
G0 Z5
G0 X18.619543147208123 Y105.85355329949239
G1 Z-0.5 F800
G1 X18.66243654822335 Y105.64974619289339 F1500
G1 X18.373096446700508 Y104.93147208121827
G1 X18.098984771573605 Y104.22081218274113
G1 X17.560913705583758 Y102.75634517766498
G1 X17.309644670050762 Y102.03045685279187
G1 X17.185279187817258 Y101.66243654822335
G1 X17.101522842639593 Y101.41116751269035
G1 X17.04060913705584 Y101.2233502538071
G1 X16.375634517766496 Y99.06598984771574
G1 X16.269035532994923 Y98.69289340101523
G1 X16.060913705583758 Y97.94670050761422
G1 X15.82741116751269 Y97.05329949238578
G1 X15.6751269035533 Y96.44670050761421
G1 X15.081218274111674 Y93.80203045685279
G1 X14.931472081218274 Y93.65482233502539
G2 X14.253807106598986 Y95.43147208121826 I36.88324873096447 J15.076142131979696
G2 X13.659898477157359 Y97.246192893401 I37.91878172588832 J13.423857868020303
G2 X13.152284263959391 Y99.08883248730965 I38.502538071065985 J11.606598984771574
G2 X12.733502538071066 Y100.94670050761421 I38.61675126903553 J9.66497461928934
G1 X12.761421319796955 Y101.03807106598985
G2 X14.137055837563452 Y102.34517766497461 I28.01776649746193 J-28.12944162436548
G2 X15.578680203045685 Y103.58883248730965 I26.78680203045685 J-29.59390862944162
G2 X17.076142131979694 Y104.76142131979697 I25.304568527918782 J-30.789340101522843
G2 X18.619289340101524 Y105.85279187817258 I23.53045685279188 J-31.588832487309645
G0 Z5
G0 X80.25279187817259 Y147.25888324873097
G1 Z-0.5 F800
G1 X80.1751269035533 Y147.20558375634516 F1500
G3 X78.59390862944163 Y147.1802030456853 I0.32487309644670054 J-68.22335025380711
G3 X77.01776649746192 Y147.11928934010155 I1.8908629441624367 J-67.6015228426396
G3 X75.43908629441624 Y147.01776649746193 I3.446700507614213 J-67.16751269035532
G3 X73.87309644670052 Y146.88324873096445 I4.959390862944162 J-66.19543147208121
G1 X73.16243654822335 Y146.80964467005077
G1 X72.98730964467005 Y146.78934010152284
G1 X72.30710659898477 Y146.71065989847716
G1 X71.07868020304568 Y146.5482233502538
G1 X69.97208121827411 Y146.38324873096448
G1 X68.93147208121827 Y146.21065989847716
G1 X68.41370558375634 Y146.11928934010152
G1 X68.04060913705584 Y146.0482233502538
G1 X67.70812182741116 Y145.98477157360406
G1 X67.65736040609137 Y145.9746192893401
G1 X67.56091370558376 Y146.01522842639594
G2 X68.94670050761421 Y147.33248730964468 I28.012690355329948 J-28.088832487309645
G2 X70.40101522842639 Y148.58883248730965 I26.86294416243655 J-29.66751269035533
G2 X71.91370558375635 Y149.7715736040609 I25.403553299492387 J-30.918781725888323
G2 X73.4746192893401 Y150.87309644670052 I23.66497461928934 J-31.794416243654823
G2 X75.22842639593908 Y150.09390862944161 I-15.31725888324873 J-36.85532994923858
G2 X76.94923857868021 Y149.22842639593907 I-17.208121827411166 J-36.36294416243655
G2 X78.62944162436548 Y148.28172588832487 I-18.921319796954315 J-35.48223350253807
G2 X80.253807106599 Y147.25888324873097 I-20.40609137055838 J-34.20812182741117
G0 Z5
G0 X128.34822335025382 Y120.28477157360406
G1 Z-0.5 F800
G3 X126.4771573604061 Y122.43147208121827 I-47.91878172588832 J-39.90609137055837 F1500
G3 X124.49746192893402 Y124.5 I-46.51776649746193 J-42.482233502538065
G3 X122.42893401015229 Y126.4771573604061 I-44.54822335025381 J-44.56091370558376
G3 X120.28172588832489 Y128.35025380710658 I-42.08629441624366 J-46.10913705583756
G2 X122.11675126903555 Y128.29187817258884 I-0.3756345177664975 J-39.901015228426395
G2 X123.9517766497462 Y128.14720812182742 I-2.220812182741117 J-40.00253807106599
G2 X125.77918781725887 Y127.91878172588832 I-4.048223350253807 J-39.7741116751269
G2 X127.58375634517768 Y127.60659898477158 I-5.802030456852791 J-39.05329949238579
G2 X127.90355329949239 Y125.79441624365484 I-37.80964467005076 J-7.611675126903553
G2 X128.13959390862945 Y123.95685279187818 I-38.69543147208122 J-5.885786802030458
G2 X128.28680203045684 Y122.1243654822335 I-39.119289340101524 J-4.068527918781726
G2 X128.3477157360406 Y120.28426395939086 I-39.41878172588832 J-2.246192893401015
G0 Z5
G0 X148.14365482233504 Y101.001269035533
G1 Z-0.5 F800
G2 X147.7233502538071 Y99.12944162436548 I-39.203045685279186 J7.7944162436548226 F1500
G2 X147.21319796954316 Y97.2715736040609 I-39.06091370558376 J9.736040609137056
G2 X146.61675126903555 Y95.44162436548223 I-38.52030456852792 J11.583756345177665
G2 X145.93401015228426 Y93.65482233502539 I-37.53807106598985 J13.276649746192895
G1 X145.90862944162436 Y93.67766497461929
G3 X145.70812182741116 Y94.6472081218274 I-64.5761421319797 J-12.954314720812183
G3 X145.48984771573603 Y95.61421319796955 I-64.35786802030456 J-13.921319796954315
G3 X145.25888324873097 Y96.57868020304569 I-64.14720812182742 J-14.890862944162437
G3 X145.01269035532994 Y97.54060913705584 I-63.95685279187817 J-15.86548223350254
G1 X144.91116751269035 Y97.92131979695432
G1 X144.53807106598984 Y99.24365482233503
G1 X144.36294416243655 Y99.83248730964468
G1 X144.00761421319797 Y100.9720812182741
G1 X143.75888324873097 Y101.72842639593908
G1 X143.502538071066 Y102.48223350253808
G1 X143.25634517766497 Y103.17512690355329
G1 X143.0989847715736 Y103.60406091370558
G1 X142.8223350253807 Y104.33756345177665
G1 X142.23857868020306 Y105.80964467005076
G1 X142.246192893401 Y105.85279187817258
G2 X143.7994923857868 Y104.75380710659898 I-21.880710659898476 J-32.54568527918782
G2 X145.30964467005074 Y103.57106598984771 I-23.799492385786802 J-31.934010152284262
G2 X146.75888324873097 Y102.31979695431471 I-25.388324873096447 J-30.847715736040612
G2 X148.14467005076142 Y101 I-26.753807106598984 J-29.502538071065988
G0 Z5
G0 X80.35507614213198 Y13.843654822335026
G1 Z-0.5 F800
G1 X80.26142131979695 Y13.842639593908629 F1500
G2 X78.7715736040609 Y14.906091370558377 I22.48730964467005 J33.06345177664974
G2 X77.32994923857868 Y16.04060913705584 I24.13451776649746 J32.21573604060914
G2 X75.93908629441624 Y17.238578680203045 I25.558375634517766 J31.055837563451778
G2 X74.60913705583756 Y18.49492385786802 I26.68781725888325 J29.565989847715738
G1 X74.9746192893401 Y18.461928934010153
G1 X76.07360406091371 Y18.375634517766496
G1 X76.44162436548223 Y18.350253807106597
G1 X77.09898477157361 Y18.31218274111675
G1 X77.4746192893401 Y18.291878172588834
G1 X77.54568527918781 Y18.289340101522843
G1 X77.91370558375634 Y18.274111675126903
G1 X79.12182741116752 Y18.236040609137056
G1 X79.38324873096447 Y18.230964467005077
G1 X79.502538071066 Y18.228426395939085
G1 X80.07868020304569 Y18.220812182741117
G1 X80.48223350253807 Y18.220812182741117
G1 X81.31979695431471 Y18.225888324873097
G1 X81.58883248730965 Y18.230964467005077
G1 X81.72081218274113 Y18.23350253807107
G1 X82.28426395939087 Y18.246192893401016
G1 X83.00507614213197 Y18.27157360406091
G1 X83.36548223350255 Y18.28680203045685
G1 X84.80964467005077 Y18.370558375634516
G1 X86.13451776649747 Y18.4746192893401
G1 X86.24619289340102 Y18.48477157360406
G2 X84.91878172588832 Y17.230964467005077 I-28.078680203045685 J28.388324873096447
G2 X83.53045685279187 Y16.032994923857867 I-26.901015228426395 J29.814720812182742
G2 X82.08883248730965 Y14.901015228426395 I-25.46954314720812 J30.956852791878173
G2 X80.60406091370558 Y13.842639593908629 I-23.725888324873097 J31.68781725888325
G1 X80.48223350253807 Y13.842639593908629
G1 X80.35532994923858 Y13.842639593908629
G0 Z5
G0 X67.25685279187817 Y15.156852791878173
G1 Z-0.5 F800
G2 X66.01269035532995 Y16.48477157360406 I28.078680203045685 J27.591370558375633 F1500
G2 X64.81725888324873 Y17.880710659898476 I29.84771573604061 J26.733502538071065
G2 X63.69289340101523 Y19.3248730964467 I31.17005076142132 J25.444162436548226
G2 X62.63451776649746 Y20.819796954314718 I32.246192893401016 J23.96192893401015
G1 X63.44923857868021 Y20.581218274111674
G1 X63.5736040609137 Y20.54568527918782
G1 X65.17005076142132 Y20.119289340101524
G1 X65.44670050761422 Y20.050761421319798
G3 X66.51776649746193 Y19.794416243654823 I14.624365482233504 J58.82741116751269
G3 X67.59898477157361 Y19.558375634517766 I13.697969543147208 J59.71573604060914
G3 X68.67766497461929 Y19.340101522842637 I12.68527918781726 J60.27918781725888
G3 X69.76649746192894 Y19.14213197969543 I11.733502538071065 J61.159898477157356
G1 X70.45431472081218 Y19.0253807106599
G1 X70.81472081218274 Y18.96954314720812
G1 X71.17512690355329 Y18.913705583756347
G1 X72.26142131979695 Y18.758883248730964
G1 X72.98730964467005 Y18.67005076142132
G1 X73.0989847715736 Y18.65482233502538
G1 X74.0761421319797 Y18.548223350253807
G2 X72.52791878172589 Y17.573604060913706 I-21.80710659898477 J32.880710659898476
G2 X70.93147208121827 Y16.664974619289342 I-20.454314720812185 J34.18020304568528
G2 X69.29441624365482 Y15.83502538071066 I-18.86294416243655 J35.098984771573605
G2 X67.62944162436548 Y15.083756345177665 I-17.083756345177665 J35.629441624365484
G1 X67.25634517766497 Y15.157360406091371
G0 Z5
G0 X43.41675126903553 Y25.09695431472081
G1 Z-0.5 F800
G1 X43.29441624365482 Y25.180203045685282 F1500
G2 X42.64467005076142 Y26.890862944162436 I36.578680203045685 J14.86040609137056
G2 X42.07360406091371 Y28.639593908629443 I37.64720812182741 J13.296954314720812
G2 X41.58121827411168 Y30.413705583756343 I38.256345177664976 J11.558375634517766
G2 X41.17258883248731 Y32.2005076142132 I38.45685279187818 J9.713197969543147
G1 X41.34263959390863 Y32.065989847715734
G1 X41.71573604060914 Y31.763959390862944
G1 X42.256345177664976 Y31.337563451776653
G1 X42.62944162436548 Y31.048223350253807
G3 X43.42639593908629 Y30.446700507614214 I37.32994923857868 J48.63451776649746
G3 X44.23604060913705 Y29.85786802030457 I36.763959390862944 J49.54822335025381
G3 X45.05329949238579 Y29.28172588832487 I36.04822335025381 J50.266497461928935
G3 X45.880710659898476 Y28.718274111675125 I35.37309644670051 J51.04568527918782
G1 X46.48984771573603 Y28.314720812182742
G1 X47.10659898477157 Y27.918781725888326
G1 X47.13451776649747 Y27.898477157360407
G1 X47.72335025380711 Y27.527918781725887
G1 X48.289340101522846 Y27.18274111675127
G1 X49.05076142131979 Y26.72842639593909
G1 X49.51269035532995 Y26.46192893401015
G1 X49.700507614213194 Y26.35279187817259
G1 X50.07868020304569 Y26.139593908629443
G1 X50.324873096446694 Y26.002538071065988
G1 X50.67766497461929 Y25.80710659898477
G1 X50.88324873096447 Y25.69543147208122
G2 X49.09137055837563 Y25.388324873096447 I-7.469543147208122 J38.40862944162437
G2 X47.26903553299493 Y25.16497461928934 I-5.776649746192893 J39.401015228426395
G2 X45.441624365482234 Y25.0253807106599 I-3.972081218274112 J39.79441624365482
G2 X43.60913705583756 Y24.96954314720812 I-2.1421319796954315 J39.90609137055837
G1 X43.55329949238579 Y25.00761421319797
G1 X43.41624365482233 Y25.096446700507613
G0 Z5
G0 X33.22664974619289 Y33.5005076142132
G1 Z-0.5 F800
G2 X32.923857868020306 Y35.30456852791878 I38.91370558375635 J7.446700507614214 F1500
G2 X32.70558375634518 Y37.12690355329949 I39.61167512690355 J5.7005076142131985
G2 X32.568527918781726 Y38.95939086294416 I39.82741116751269 J3.8756345177664975
G2 X32.51776649746193 Y40.786802030456855 I39.54314720812183 J2.0228426395939088
G1 X33.63959390862944 Y39.474619289340104
G1 X34.078680203045685 Y38.97715736040609
G1 X34.098984771573605 Y38.954314720812185
G1 X34.43908629441624 Y38.578680203045685
G1 X34.84263959390863 Y38.13705583756345
G1 X35.09644670050761 Y37.86548223350253
G1 X35.3502538071066 Y37.59644670050761
G1 X35.51269035532995 Y37.42639593908629
G1 X35.807106598984774 Y37.121827411167516
G1 X35.868020304568525 Y37.06091370558376
G1 X36.129441624365484 Y36.79187817258884
G3 X37.253807106598984 Y35.67766497461929 I44.5253807106599 J43.81472081218274
G3 X38.40609137055837 Y34.59390862944162 I43.434010152284266 J44.96192893401015
G3 X39.58629441624366 Y33.535532994923855 I42.233502538071065 J45.997461928934015
G3 X40.789340101522846 Y32.51269035532995 I40.83756345177665 J46.80456852791878
G2 X38.96700507614214 Y32.56345177664975 I0.16243654822335027 J39.56091370558376
G2 X37.13705583756345 Y32.69796954314721 I2.0076142131979697 J39.901015228426395
G2 X35.31472081218274 Y32.91624365482234 I3.83756345177665 J39.79187817258883
G2 X33.51269035532995 Y33.21573604060914 I5.619289340101523 J39.286802030456855
G1 X33.2258883248731 Y33.5
G0 Z5
G0 X13.761421319796954 Y79.35
G1 Z-0.5 F800
G1 X13.784263959390863 Y78.35279187817258 F1500
G1 X13.802030456852792 Y77.87817258883248
G1 X13.80710659898477 Y77.72081218274111
G1 X13.824873096446701 Y77.34517766497463
G1 X14.073604060913706 Y73.8756345177665
G1 X14.144670050761421 Y73.18274111675126
G1 X14.390862944162437 Y71.19796954314721
G1 X14.558375634517766 Y70.06598984771574
G1 X14.68527918781726 Y69.27918781725889
G1 X14.794416243654823 Y68.66243654822335
G1 X14.951776649746193 Y67.80456852791878
G1 X14.857868020304569 Y67.58121827411168
G2 X13.565989847715736 Y68.94923857868021 I28.30203045685279 J28.032994923857867
