(Generated by PartKam Version 0.05)

G21 G90 G40

(follow path 1)
G0 Z5
T0 M6
G17
M3
G0 X41.18553299492386 Y1.1388324873096447
G1 Z-1 F800
G2 X41.11675126903553 Y0.7868020304568528 I-0.9187817258883249 J0 F1500
G2 X40.91624365482233 Y0.48984771573604063 I-0.850253807106599 J0.35279187817258884
G2 X40.61675126903553 Y0.2893401015228426 I-0.6497461928934011 J0.6497461928934011
G2 X40.266497461928935 Y0.22081218274111675 I-0.35279187817258884 J0.850253807106599
G1 X1.119289340101523 Y0.22081218274111675
G2 X0.766497461928934 Y0.2893401015228426 I0 J0.9187817258883249
G2 X0.46700507614213194 Y0.48984771573604063 I0.35279187817258884 J0.850253807106599
G2 X0.2690355329949239 Y0.7868020304568528 I0.6497461928934011 J0.6497461928934011
G2 X0.1979695431472081 Y1.1395939086294418 I0.850253807106599 J0.35279187817258884
G1 X0.1979695431472081 Y6.068527918781726
G2 X0.2690355329949239 Y6.4213197969543145 I0.9187817258883249 J0
G2 X0.46700507614213194 Y6.718274111675127 I0.8477157360406091 J-0.35025380710659904
G2 X0.766497461928934 Y6.918781725888325 I0.6497461928934011 J-0.6497461928934011
G2 X1.119289340101523 Y6.987309644670051 I0.35279187817258884 J-0.850253807106599
G1 X40.266497461928935 Y6.987309644670051
G2 X40.61928934010152 Y6.918781725888325 I0 J-0.9187817258883249
G2 X40.91624365482233 Y6.718274111675127 I-0.35279187817258884 J-0.850253807106599
G2 X41.11675126903553 Y6.4213197969543145 I-0.6497461928934011 J-0.6497461928934011
G2 X41.18527918781726 Y6.068527918781726 I-0.850253807106599 J-0.35279187817258884
G1 X41.18527918781726 Y1.1395939086294418
G0 Z5
G0 X4.831979695431472 Y2.8934010152284264
G1 Z-1 F800
G3 X4.812182741116751 Y3.1370558375634516 I-1.5939086294416245 J0 F1500
G3 X4.763959390862944 Y3.32994923857868 I-1.0583756345177666 J-0.1649746192893401
G3 X4.6725888324873095 Y3.517766497461929 I-0.8578680203045685 J-0.30456852791878175
G3 X4.550761421319797 Y3.66497461928934 I-0.6675126903553299 J-0.42639593908629436
G3 X4.4238578680203045 Y3.761421319796954 I-0.5786802030456852 J-0.6192893401015229
G3 X4.269035532994923 Y3.8426395939086295 I-0.5406091370558376 J-0.8578680203045685
G3 X4.096446700507615 Y3.901015228426396 I-0.48223350253807107 J-1.16751269035533
G3 X3.8553299492385786 Y3.946700507614213 I-0.5507614213197969 J-2.1928934010152283
G1 X3.4263959390862944 Y4.00761421319797
G2 X3.3197969543147208 Y4.030456852791878 I0.1116751269035533 J0.8071065989847716
G2 X3.228426395939086 Y4.063451776649746 I0.17766497461928935 J0.6497461928934011
G2 X3.1472081218274113 Y4.104060913705584 I0.23857868020304568 J0.5431472081218274
G2 X3.0888324873096447 Y4.152284263959391 I0.2233502538071066 J0.35025380710659904
G2 X3.0406091370558377 Y4.208121827411167 I0.22081218274111675 J0.23604060913705582
G2 X3.00507614213198 Y4.274111675126903 I0.27918781725888325 J0.18781725888324874
G2 X2.987309644670051 Y4.34010152284264 I0.3375634517766497 J0.12944162436548223
G2 X2.9822335025380706 Y4.411167512690356 I0.3984771573604061 J0.07106598984771574
G2 X3.017766497461929 Y4.593908629441624 I0.4619289340101523 J0
G2 X3.1192893401015227 Y4.736040609137056 I0.3730964467005076 J-0.1598984771573604
G2 X3.286802030456853 Y4.83248730964467 I0.30964467005076146 J-0.3451776649746193
G2 X3.5431472081218276 Y4.873096446700508 I0.2563451776649746 J-0.7969543147208122
G2 X3.7639593908629445 Y4.8604060913705585 I0 J-1.9441624365482233
G2 X3.9213197969543145 Y4.82994923857868 I-0.11675126903553298 J-1.0279187817258884
G2 X4.121827411167513 Y4.746192893401015 I-0.23604060913705582 J-0.8578680203045685
G2 X4.289340101522843 Y4.621827411167513 I-0.4137055837563452 J-0.7360406091370558
G1 X4.741116751269035 Y5.065989847715736
G3 X4.48984771573604 Y5.261421319796954 I-1.0634517766497462 J-1.098984771573604
G3 X4.223350253807107 Y5.3908629441624365 I-0.7233502538071066 J-1.1472081218274113
G3 X3.9390862944162435 Y5.461928934010151 I-0.5101522842639594 J-1.434010152284264
G3 X3.5634517766497464 Y5.48984771573604 I-0.3756345177664975 J-2.49492385786802
G3 X3.015228426395939 Y5.401015228426395 I0 J-1.7411167512690358
G3 X2.6345177664974617 Y5.182741116751269 I0.3426395939086294 J-1.0304568527918783
G3 X2.3883248730964466 Y4.837563451776649 I0.6446700507614213 J-0.7233502538071066
G3 X2.296954314720812 Y4.385786802030457 I1.0609137055837563 J-0.45177664974619286
G3 X2.314720812182741 Y4.159898477157361 I1.434010152284264 J0
G3 X2.3604060913705585 Y3.979695431472081 I0.967005076142132 J0.15482233502538073
G3 X2.4441624365482233 Y3.8121827411167515 I0.8121827411167513 J0.2969543147208122
G3 X2.5558375634517767 Y3.6700507614213196 I0.6979695431472082 J0.44416243654822335
G3 X2.687817258883249 Y3.565989847715736 I0.6040609137055838 J0.6243654822335025
G3 X2.8527918781725887 Y3.4771573604060912 I0.5913705583756345 J0.9111675126903553
G3 X3.030456852791878 Y3.416243654822335 I0.5152284263959391 J1.2081218274111676
G3 X3.2614213197969546 Y3.368020304568528 I0.5355329949238579 J2.010152284263959
G1 X3.7030456852791875 Y3.307106598984771
G2 X3.8248730964467006 Y3.284263959390863 I-0.20558375634517764 J-1.3553299492385786
G2 X3.8984771573604062 Y3.2588832487309642 I-0.1319796954314721 J-0.5329949238578681
G2 X3.964467005076142 Y3.2258883248730963 I-0.15482233502538073 J-0.3807106598984772
G2 X4.022842639593909 Y3.1802030456852792 I-0.2182741116751269 J-0.3426395939086294
G2 X4.073604060913706 Y3.1218274111675126 I-0.2081218274111675 J-0.2233502538071066
G2 X4.1091370558375635 Y3.048223350253807 I-0.3071065989847716 J-0.1979695431472081
G2 X4.129441624365483 Y2.969543147208122 I-0.40609137055837563 J-0.1446700507614213
G2 X4.137055837563452 Y2.8730964467005076 I-0.6142131979695432 J-0.09644670050761422
G2 X4.091370558375634 Y2.6776649746192893 I-0.4416243654822335 J0
G2 X3.972081218274112 Y2.5380710659898478 I-0.3299492385786802 J0.16243654822335027
G2 X3.7944162436548226 Y2.4593908629441623 I-0.29949238578680204 J0.42639593908629436
G2 X3.4923857868020303 Y2.4238578680203045 I-0.3020304568527919 J1.2538071065989849
G2 X3.223350253807107 Y2.4416243654822334 I0 J1.9390862944162437
G2 X3.0126903553299496 Y2.489847715736041 I0.17512690355329952 J1.2461928934010151
G2 X2.7918781725888326 Y2.5913705583756346 I0.32487309644670054 J1.0101522842639594
G2 X2.6116751269035534 Y2.7309644670050757 I0.47715736040609136 J0.7944162436548223
G1 X2.152284263959391 Y2.269035532994924
G3 X2.434010152284264 Y2.0431472081218276 I1.1421319796954315 J1.1243654822335025
G3 X2.7436548223350252 Y1.8934010152284264 I0.7817258883248732 J1.2309644670050761
G3 X3.0532994923857872 Y1.8197969543147208 I0.5456852791878173 J1.5939086294416245
G3 X3.4822335025380715 Y1.7893401015228427 I0.4289340101522843 J3.030456852791878
G3 X4.043147208121828 Y1.8705583756345179 I0 J1.9568527918781724
G3 X4.441624365482234 Y2.0761421319796955 I-0.35025380710659904 J1.1725888324873095
G3 X4.725888324873097 Y2.4289340101522843 I-0.6015228426395939 J0.7766497461928934
G3 X4.83248730964467 Y2.8934010152284264 I-0.9720812182741116 J0.46446700507614214
G0 Z5
G0 X8.114213197969542 Y4.324873096446701
G1 Z-1 F800
G3 X8.027918781725887 Y4.769035532994924 I-1.2005076142131978 J0 F1500
G3 X7.7944162436548226 Y5.124365482233503 I-0.9771573604060914 J-0.3908629441624366
G3 X7.4213197969543145 Y5.365482233502537 I-0.751269035532995 J-0.751269035532995
G3 X6.913705583756346 Y5.459390862944162 I-0.5076142131979695 J-1.3375634517766497
G1 X5.50253807106599 Y5.459390862944162
G1 X5.50253807106599 Y1.8197969543147208
G1 X6.213197969543147 Y1.8197969543147208
G1 X6.213197969543147 Y3.190355329949239
G1 X6.913705583756346 Y3.190355329949239
G3 X7.4213197969543145 Y3.284263959390863 I0 J1.4314720812182742
G3 X7.7944162436548226 Y3.525380710659898 I-0.3781725888324873 J0.9949238578680203
G3 X8.027918781725887 Y3.880710659898477 I-0.7436548223350253 J0.7436548223350253
G3 X8.114213197969542 Y4.324873096446701 I-1.116751269035533 J0.44416243654822335
G0 Z5
G0 X7.403553299492386 Y4.324873096446701
G1 Z-1 F800
G2 X7.3629441624365475 Y4.119289340101523 I-0.5609137055837563 J0 F1500
G2 X7.261421319796955 Y3.964467005076142 I-0.3984771573604061 J0.15736040609137056
G2 X7.101522842639594 Y3.868020304568528 I-0.30964467005076146 J0.32741116751269034
G2 X6.878172588832488 Y3.8299492385786804 I-0.22588832487309643 J0.6319796954314721
G1 X6.213197969543147 Y3.8299492385786804
G1 X6.213197969543147 Y4.824873096446701
G1 X6.878172588832488 Y4.824873096446701
G2 X7.101522842639594 Y4.786802030456853 I0 J-0.6573604060913706
G2 X7.261421319796955 Y4.687817258883249 I-0.15482233502538073 J-0.42639593908629436
G2 X7.3629441624365475 Y4.532994923857868 I-0.30456852791878175 J-0.3147208121827411
G2 X7.403553299492386 Y4.324873096446701 I-0.5279187817258884 J-0.2081218274111675
G0 Z5
G0 X11.278934010152284 Y3.6398477157360407
G1 Z-1 F800
G1 X11.279187817258883 Y3.6472081218274113 F1500
G1 X11.279187817258883 Y3.66497461928934
G3 X11.263959390862944 Y4.238578680203045 I-10.205583756345177 J0
G3 X11.233502538071065 Y4.472081218274112 I-1.7563451776649748 J-0.09898477157360405
G3 X11.114213197969542 Y4.819796954314721 I-1.2791878172588833 J-0.24873096446700507
G3 X10.916243654822335 Y5.091370558375634 I-0.9644670050761421 J-0.49492385786802034
G3 X10.705583756345177 Y5.2664974619289335 I-1.0532994923857868 J-1.0532994923857868
G3 X10.48477157360406 Y5.3883248730964475 I-0.6954314720812182 J-1.017766497461929
G3 X10.230964467005077 Y5.461928934010151 I-0.4847715736040609 J-1.1573604060913705
G3 X9.934010152284264 Y5.48984771573604 I-0.2969543147208122 J-1.5812182741116751
G3 X9.637055837563452 Y5.461928934010151 I0 J-1.619289340101523
G3 X9.380710659898476 Y5.3883248730964475 I0.23350253807106597 J-1.2538071065989849
G3 X9.159898477157359 Y5.2664974619289335 I0.47969543147208127 J-1.1522842639593909
G3 X8.946700507614214 Y5.091370558375634 I0.8223350253807106 J-1.2081218274111676
G3 X8.751269035532994 Y4.824873096446701 I0.7563451776649746 J-0.7563451776649746
G3 X8.634517766497462 Y4.482233502538071 I1.1395939086294418 J-0.5862944162436547
G3 X8.604060913705583 Y4.251269035532995 I1.6928934010152286 J-0.32741116751269034
G3 X8.588832487309645 Y3.690355329949239 I9.931472081218274 J-0.5558375634517766
G2 X8.588832487309645 Y3.6573604060913705 I-227.7055837563452 J-0.09644670050761422
G1 X8.588832487309645 Y3.6395939086294415
G1 X8.588832487309645 Y3.6243654822335025
G2 X8.588832487309645 Y3.5913705583756346 I-227.7055837563452 J0.06598984771573604
G3 X8.604060913705583 Y3.0279187817258886 I9.946700507614214 J-0.005076142131979696
G3 X8.634517766497462 Y2.796954314720812 I1.720812182741117 J0.09644670050761422
G3 X8.751269035532994 Y2.4543147208121825 I1.2588832487309645 J0.2436548223350254
G3 X8.946700507614214 Y2.1878172588832485 I0.9517766497461928 J0.48984771573604063
G3 X9.159898477157359 Y2.012690355329949 I1.032994923857868 J1.0304568527918783
G3 X9.380710659898476 Y1.8934010152284264 I0.7005076142131981 J1.0304568527918783
G3 X9.637055837563452 Y1.817258883248731 I0.48984771573604063 J1.1776649746192893
G3 X9.934010152284264 Y1.7893401015228427 I0.2969543147208122 J1.5913705583756346
G3 X10.230964467005077 Y1.817258883248731 I0 J1.6091370558375635
G3 X10.48477157360406 Y1.8934010152284264 I-0.23096446700507614 J1.233502538071066
G3 X10.705583756345177 Y2.012690355329949 I-0.47715736040609136 J1.1370558375634519
G3 X10.916243654822335 Y2.1878172588832485 I-0.8401015228426396 J1.2258883248730965
G3 X11.114213197969542 Y2.4593908629441623 I-0.766497461928934 J0.766497461928934
G3 X11.233502538071065 Y2.8071065989847717 I-1.1598984771573604 J0.5964467005076142
G3 X11.263959390862944 Y3.0431472081218276 I-1.7258883248730963 J0.3350253807106599
G3 X11.279187817258883 Y3.614213197969543 I-10.18781725888325 J0.5710659898477157
G1 X11.279187817258883 Y3.631979695431472
G1 X11.279187817258883 Y3.6395939086294415
G0 Z5
G0 X10.568274111675127 Y3.6398477157360407
G1 Z-1 F800
G2 X10.555837563451778 Y3.129441624365482 I-9.718274111675127 J0 F1500
G2 X10.530456852791879 Y2.923857868020305 I-1.5913705583756346 J0.08375634517766498
G2 X10.474619289340101 Y2.7461928934010156 I-0.7335025380710659 J0.13451776649746194
G2 X10.388324873096446 Y2.6167512690355332 I-0.46954314720812185 J0.21573604060913704
G2 X10.30203045685279 Y2.5380710659898478 I-0.4010152284263959 J0.3477157360406091
G2 X10.195431472081218 Y2.4771573604060917 I-0.3350253807106599 J0.45685279187817257
G2 X10.073604060913706 Y2.436548223350254 I-0.24111675126903553 J0.5482233502538071
G2 X9.934010152284264 Y2.4238578680203045 I-0.13959390862944163 J0.6878172588832487
G2 X9.794416243654823 Y2.436548223350254 I0 J0.7106598984771574
G2 X9.670050761421319 Y2.4771573604060917 I0.1218274111675127 J0.6065989847715736
G2 X9.560913705583756 Y2.5380710659898478 I0.23096446700507614 J0.5329949238578681
G2 X9.474619289340101 Y2.6167512690355332 I0.29949238578680204 J0.416243654822335
G2 X9.390862944162437 Y2.7461928934010156 I0.37055837563451777 J0.33248730964467005
G2 X9.33502538071066 Y2.923857868020305 I0.6776649746192893 J0.3071065989847716
G2 X9.312182741116752 Y3.1243654822335025 I1.5913705583756346 J0.27918781725888325
G2 X9.299492385786802 Y3.6395939086294415 I10.522842639593907 J0.5152284263959391
G2 X9.312182741116752 Y4.15482233502538 I10.535532994923857 J0
G2 X9.33502538071066 Y4.355329949238579 I1.614213197969543 J-0.07868020304568528
G2 X9.390862944162437 Y4.535532994923858 I0.7335025380710659 J-0.12944162436548223
G2 X9.474619289340101 Y4.662436548223351 I0.45431472081218277 J-0.20558375634517764
G2 X9.560913705583756 Y4.741116751269035 I0.3883248730964467 J-0.3375634517766497
G2 X9.670050761421319 Y4.804568527918781 I0.3401015228426396 J-0.47208121827411165
G2 X9.794416243654823 Y4.842639593908629 I0.24619289340101522 J-0.5685279187817259
G2 X9.934010152284264 Y4.8578680203045685 I0.13959390862944163 J-0.6979695431472082
G2 X10.073604060913706 Y4.842639593908629 I0 J-0.7005076142131981
G2 X10.195431472081218 Y4.804568527918781 I-0.11928934010152284 J-0.5862944162436547
G2 X10.30203045685279 Y4.743654822335025 I-0.22842639593908629 J-0.5203045685279188
G2 X10.388324873096446 Y4.662436548223351 I-0.3147208121827411 J-0.4289340101522843
G2 X10.474619289340101 Y4.532994923857868 I-0.383248730964467 J-0.3451776649746193
G2 X10.530456852791879 Y4.355329949238579 I-0.6776649746192893 J-0.31218274111675126
G2 X10.555837563451778 Y4.149746192893401 I-1.5685279187817258 J-0.2893401015228426
G2 X10.568527918781726 Y3.6395939086294415 I-9.705583756345177 J-0.5101522842639594
G0 Z5
G0 X13.646192893401015 Y3.015989847715736
G1 Z-1 F800
G1 X13.647208121827411 Y5.459390862944162 F1500
G1 X12.936548223350254 Y5.459390862944162
G1 X12.936548223350254 Y3.0456852791878175
G2 X12.888324873096446 Y2.7588832487309647 I-0.9137055837563451 J0
G2 X12.779187817258883 Y2.578680203045685 I-0.45431472081218277 J0.14974619289340102
G2 X12.611675126903554 Y2.467005076142132 I-0.32487309644670054 J0.31218274111675126
G2 X12.362944162436548 Y2.4238578680203045 I-0.24873096446700507 J0.6700507614213198
G2 X12.205583756345177 Y2.4390862944162435 I0 J0.766497461928934
G2 X12.086294416243655 Y2.482233502538071 I0.09898477157360405 J0.47715736040609136
G2 X12.00761421319797 Y2.530456852791878 I0.22081218274111675 J0.4365482233502538
G2 X11.898477157360405 Y2.626903553299492 I0.7106598984771574 J0.9137055837563451
G1 X11.426395939086294 Y2.1624365482233503
G3 X11.642131979695431 Y1.982233502538071 I1.0685279187817258 J1.0685279187817258
G3 X11.850253807106599 Y1.8730964467005076 I0.5862944162436547 J0.8604060913705585
G3 X12.068527918781726 Y1.8121827411167513 I0.3959390862944162 J1.0076142131979695
G3 X12.362944162436548 Y1.7893401015228427 I0.29441624365482233 J1.7766497461928934
G3 X12.868020304568528 Y1.8756345177664975 I0 J1.5304568527918783
G3 X13.256345177664974 Y2.101522842639594 I-0.3934010152284264 J1.1243654822335025
G3 X13.538071065989847 Y2.489847715736041 I-0.7030456852791878 J0.8071065989847716
G3 X13.647208121827411 Y3.015228426395939 I-1.2385786802030458 J0.5253807106598986
G0 Z5
G0 X16.846700507614212 Y1.8197969543147208
G1 Z-1 F800
G1 X16.84771573604061 Y2.4543147208121825 F1500
G1 X15.15989847715736 Y2.4543147208121825
G1 X15.15989847715736 Y3.3375634517766493
G1 X16.596446700507613 Y3.3375634517766493
G1 X16.596446700507613 Y3.972081218274112
G1 X15.15989847715736 Y3.972081218274112
G1 X15.15989847715736 Y4.824873096446701
G1 X16.84771573604061 Y4.824873096446701
G1 X16.84771573604061 Y5.459390862944162
G1 X14.449238578680204 Y5.459390862944162
G1 X14.449238578680204 Y1.8197969543147208
G1 X16.84771573604061 Y1.8197969543147208
G0 Z5
G0 X18.227157360406093 Y1.8197969543147208
G1 Z-1 F800
G1 X18.225888324873097 Y2.5761421319796955 F1500
G1 X17.464467005076145 Y2.5761421319796955
G1 X17.464467005076145 Y1.8197969543147208
G1 X18.225888324873097 Y1.8197969543147208
G0 Z5
G0 X21.78553299492386 Y1.8197969543147208
G1 Z-1 F800
G1 X21.784263959390863 Y5.459390862944162 F1500
G1 X21.073604060913706 Y5.459390862944162
G1 X21.073604060913706 Y3.2309644670050766
G1 X19.631979695431472 Y5.459390862944162
G1 X19 Y5.459390862944162
G1 X19 Y1.8197969543147208
G1 X19.710659898477157 Y1.8197969543147208
G1 X19.710659898477157 Y4.053299492385786
G1 X21.15228426395939 Y1.8197969543147208
G1 X21.784263959390863 Y1.8197969543147208
G0 Z5
G0 X25.03197969543147 Y1.8197969543147208
G1 Z-1 F800
G1 X25.03299492385787 Y2.4543147208121825 F1500
G1 X23.34517766497462 Y2.4543147208121825
G1 X23.34517766497462 Y3.3375634517766493
G1 X24.781725888324875 Y3.3375634517766493
G1 X24.781725888324875 Y3.972081218274112
G1 X23.34517766497462 Y3.972081218274112
G1 X23.34517766497462 Y4.824873096446701
G1 X25.03299492385787 Y4.824873096446701
G1 X25.03299492385787 Y5.459390862944162
G1 X22.63451776649746 Y5.459390862944162
G1 X22.63451776649746 Y1.8197969543147208
G1 X25.03299492385787 Y1.8197969543147208
G0 Z5
G0 X28.068781725888325 Y4.825888324873096
G1 Z-1 F800
G1 X28.068527918781726 Y5.459390862944162 F1500
G1 X25.45685279187817 Y5.459390862944162
G1 X25.45685279187817 Y4.824873096446701
G1 X26.40609137055838 Y4.824873096446701
G1 X26.40609137055838 Y1.8197969543147208
G1 X27.116751269035536 Y1.8197969543147208
G1 X27.116751269035536 Y4.824873096446701
G1 X28.068527918781726 Y4.824873096446701
G0 Z5
G0 X29.61776649746193 Y1.9916243654822334
G1 Z-1 F800
G1 X31.213197969543145 Y3.49492385786802 F1500
G1 X29.616751269035536 Y4.99746192893401
G1 X30.19796954314721 Y5.614213197969543
G1 X32.4492385786802 Y3.49492385786802
G1 X30.19796954314721 Y1.3756345177664975
G1 X29.616751269035536 Y1.9923857868020303
G0 Z5
G0 X32.97715736040609 Y1.9916243654822334
G1 Z-1 F800
G1 X34.57360406091371 Y3.49492385786802 F1500
G1 X32.97715736040609 Y4.99746192893401
G1 X33.558375634517766 Y5.614213197969543
G1 X35.807106598984774 Y3.49492385786802
G1 X33.558375634517766 Y1.3756345177664975
G1 X32.97715736040609 Y1.9923857868020303
G0 Z5
G0 X36.33680203045685 Y1.9913705583756345
G1 Z-1 F800
G1 X37.934010152284266 Y3.49492385786802 F1500
G1 X36.33756345177665 Y4.99746192893401
G1 X36.91624365482233 Y5.614213197969543
G1 X39.16751269035533 Y3.49492385786802
G1 X36.91624365482233 Y1.3756345177664975
G1 X36.33756345177665 Y1.9923857868020303
G0 Z5
M5
M30
