(www.thuijzer.nl/image2gcode)
(2018-02-21 01:43:55)
(bit size: 1mm)
(x size: 100mm)
(max z: 3mm)

G21 (Programming in millimeters)
G90 (Absolute programming)
G92 X0 Y0 Z6 (Tell the machine it is at 0, 0, 6)
G00 X0 Y-0.5 Z3 (Starting position)

G01 X0.63587 Y-0.5 Z0 F1000
G01 X43.978261 Y-0.5 Z0 F1000
G01 X44.11413 Y-0.5 Z0.011765 F1000
G01 X45.065217 Y-0.5 Z0.011765 F1000
G01 X45.201087 Y-0.5 Z0.023529 F1000
G01 X46.152174 Y-0.5 Z0.023529 F1000
G01 X46.288043 Y-0.5 Z0.035294 F1000
G01 X48.190217 Y-0.5 Z0.035294 F1000
G01 X48.326087 Y-0.5 Z0.011765 F1000
G01 X50.36413 Y-0.5 Z0.011765 F1000
G01 X50.5 Y-0.5 Z0 F1000
G01 X51.586957 Y-0.5 Z0 F1000
G01 X51.722826 Y-0.5 Z0.011765 F1000
G01 X54.711957 Y-0.5 Z0.011765 F1000
G01 X54.847826 Y-0.5 Z0 F1000
G01 X54.983696 Y-0.5 Z0.011765 F1000
G01 X56.88587 Y-0.5 Z0.011765 F1000
G01 X57.021739 Y-0.5 Z0 F1000
G01 X99.548913 Y-0.5 Z0 F1000
G01 X99.548913 Y-0.63587 Z0 F1000
G01 X99.548913 Y-0.771739 Z0 F1000
G01 X99.548913 Y-0.907609 Z0 F1000
G01 X99.548913 Y-1.043478 Z0 F1000
G01 X60.282609 Y-1.043478 Z0 F1000
G01 X60.146739 Y-1.043478 Z0.058824 F1000
G01 X59.195652 Y-1.043478 Z0.058824 F1000
G01 X59.059783 Y-1.043478 Z0.047059 F1000
G01 X58.923913 Y-1.043478 Z0.035294 F1000
G01 X58.108696 Y-1.043478 Z0.035294 F1000
G01 X57.972826 Y-1.043478 Z0.082353 F1000
G01 X55.934783 Y-1.043478 Z0.082353 F1000
G01 X55.798913 Y-1.043478 Z0.070588 F1000
G01 X55.255435 Y-1.043478 Z0.070588 F1000
G01 X55.119565 Y-1.043478 Z0.164706 F1000
G01 X54.983696 Y-1.043478 Z0.329412 F1000
G01 X54.847826 Y-1.043478 Z0.458824 F1000
G01 X54.711957 Y-1.043478 Z0.482353 F1000
G01 X54.576087 Y-1.043478 Z0.552941 F1000
G01 X54.440217 Y-1.043478 Z0.705882 F1000
G01 X54.304348 Y-1.043478 Z0.882353 F1000
G01 X54.168478 Y-1.043478 Z0.976471 F1000
G01 X53.353261 Y-1.043478 Z0.976471 F1000
G01 X53.217391 Y-1.043478 Z1.129412 F1000
G01 X52.266304 Y-1.043478 Z1.129412 F1000
G01 X52.130435 Y-1.043478 Z1.094118 F1000
G01 X51.994565 Y-1.043478 Z1.023529 F1000
G01 X51.722826 Y-1.043478 Z1.023529 F1000
G01 X51.586957 Y-1.043478 Z0.964706 F1000
G01 X50.5 Y-1.043478 Z0.964706 F1000
G01 X50.36413 Y-1.043478 Z1.035294 F1000
G01 X49.413043 Y-1.043478 Z1.035294 F1000
G01 X49.277174 Y-1.043478 Z1.023529 F1000
G01 X49.141304 Y-1.043478 Z1.011765 F1000
G01 X48.597826 Y-1.043478 Z1.011765 F1000
G01 X48.461957 Y-1.043478 Z0.976471 F1000
G01 X48.326087 Y-1.043478 Z0.976471 F1000
G01 X48.190217 Y-1.043478 Z0.988235 F1000
G01 X48.054348 Y-1.043478 Z1 F1000
G01 X47.23913 Y-1.043478 Z1 F1000
G01 X47.103261 Y-1.043478 Z1.070588 F1000
G01 X46.152174 Y-1.043478 Z1.070588 F1000
G01 X46.016304 Y-1.043478 Z1.035294 F1000
G01 X45.065217 Y-1.043478 Z1.035294 F1000
G01 X44.929348 Y-1.043478 Z1 F1000
G01 X44.521739 Y-1.043478 Z1 F1000
G01 X44.38587 Y-1.043478 Z0.941176 F1000
G01 X43.842391 Y-1.043478 Z0.941176 F1000
G01 X43.706522 Y-1.043478 Z0.929412 F1000
G01 X43.570652 Y-1.043478 Z0.929412 F1000
G01 X43.434783 Y-1.043478 Z0.917647 F1000
G01 X42.891304 Y-1.043478 Z0.917647 F1000
G01 X42.755435 Y-1.043478 Z0.905882 F1000
G01 X42.619565 Y-1.043478 Z0.894118 F1000
G01 X42.347826 Y-1.043478 Z0.894118 F1000
G01 X42.211957 Y-1.043478 Z0.882353 F1000
G01 X42.076087 Y-1.043478 Z0.858824 F1000
G01 X41.940217 Y-1.043478 Z0.835294 F1000
G01 X41.804348 Y-1.043478 Z0.517647 F1000
G01 X41.668478 Y-1.043478 Z0.388235 F1000
G01 X41.532609 Y-1.043478 Z0.223529 F1000
G01 X41.396739 Y-1.043478 Z0.105882 F1000
G01 X41.26087 Y-1.043478 Z0.070588 F1000
G01 X41.125 Y-1.043478 Z0.070588 F1000
G01 X40.98913 Y-1.043478 Z0.082353 F1000
G01 X40.038043 Y-1.043478 Z0.082353 F1000
G01 X39.902174 Y-1.043478 Z0.058824 F1000
G01 X39.630435 Y-1.043478 Z0.058824 F1000
G01 X39.494565 Y-1.043478 Z0.047059 F1000
G01 X39.358696 Y-1.043478 Z0.035294 F1000
G01 X39.222826 Y-1.043478 Z0.047059 F1000
G01 X38.271739 Y-1.043478 Z0.047059 F1000
G01 X38.13587 Y-1.043478 Z0.035294 F1000
G01 X38 Y-1.043478 Z0.023529 F1000
G01 X37.592391 Y-1.043478 Z0.023529 F1000
G01 X37.456522 Y-1.043478 Z0.011765 F1000
G01 X36.505435 Y-1.043478 Z0.011765 F1000
G01 X36.369565 Y-1.043478 Z0 F1000
G01 X0.36413 Y-1.043478 Z0 F1000
G01 X0.36413 Y-1.179348 Z0 F1000
G01 X0.36413 Y-1.315217 Z0 F1000
G01 X0.36413 Y-1.451087 Z0 F1000
G01 X0.36413 Y-1.586957 Z0 F1000
G01 X35.282609 Y-1.586957 Z0 F1000
G01 X35.418478 Y-1.586957 Z0.011765 F1000
G01 X36.369565 Y-1.586957 Z0.011765 F1000
G01 X36.505435 Y-1.586957 Z0.023529 F1000
G01 X37.456522 Y-1.586957 Z0.023529 F1000
G01 X37.592391 Y-1.586957 Z0.341176 F1000
G01 X37.86413 Y-1.586957 Z0.341176 F1000
G01 X38 Y-1.586957 Z0.388235 F1000
G01 X38.13587 Y-1.586957 Z0.623529 F1000
G01 X38.271739 Y-1.586957 Z0.8 F1000
G01 X38.407609 Y-1.586957 Z0.858824 F1000
G01 X39.494565 Y-1.586957 Z0.858824 F1000
G01 X39.630435 Y-1.586957 Z0.882353 F1000
G01 X39.766304 Y-1.586957 Z0.917647 F1000
G01 X39.902174 Y-1.586957 Z0.917647 F1000
G01 X40.038043 Y-1.586957 Z0.929412 F1000
G01 X40.173913 Y-1.586957 Z0.941176 F1000
G01 X40.309783 Y-1.586957 Z0.941176 F1000
G01 X40.445652 Y-1.586957 Z0.952941 F1000
G01 X40.717391 Y-1.586957 Z0.952941 F1000
G01 X40.853261 Y-1.586957 Z0.976471 F1000
G01 X40.98913 Y-1.586957 Z0.988235 F1000
G01 X41.940217 Y-1.586957 Z0.988235 F1000
G01 X42.076087 Y-1.586957 Z1 F1000
G01 X42.211957 Y-1.586957 Z1.011765 F1000
G01 X43.298913 Y-1.586957 Z1.011765 F1000
G01 X43.434783 Y-1.586957 Z1.023529 F1000
G01 X43.570652 Y-1.586957 Z1.023529 F1000
G01 X43.706522 Y-1.586957 Z1.035294 F1000
G01 X43.842391 Y-1.586957 Z1.035294 F1000
G01 X43.978261 Y-1.586957 Z1.047059 F1000
G01 X44.11413 Y-1.586957 Z1.047059 F1000
G01 X44.25 Y-1.586957 Z1.058824 F1000
G01 X44.521739 Y-1.586957 Z1.058824 F1000
G01 X44.657609 Y-1.586957 Z1.082353 F1000
G01 X45.065217 Y-1.586957 Z1.082353 F1000
G01 X45.201087 Y-1.586957 Z1.105882 F1000
G01 X45.744565 Y-1.586957 Z1.105882 F1000
G01 X45.880435 Y-1.586957 Z1.117647 F1000
G01 X46.016304 Y-1.586957 Z1.152941 F1000
G01 X46.152174 Y-1.586957 Z1.164706 F1000
G01 X47.103261 Y-1.586957 Z1.164706 F1000
G01 X47.23913 Y-1.586957 Z1.105882 F1000
G01 X47.375 Y-1.586957 Z1.117647 F1000
G01 X48.326087 Y-1.586957 Z1.117647 F1000
G01 X48.461957 Y-1.586957 Z1.152941 F1000
G01 X50.36413 Y-1.586957 Z1.152941 F1000
G01 X50.5 Y-1.586957 Z1.105882 F1000
G01 X51.451087 Y-1.586957 Z1.105882 F1000
G01 X51.586957 Y-1.586957 Z1.082353 F1000
G01 X51.722826 Y-1.586957 Z1.152941 F1000
G01 X52.673913 Y-1.586957 Z1.152941 F1000
G01 X52.809783 Y-1.586957 Z1.141176 F1000
G01 X52.945652 Y-1.586957 Z1.129412 F1000
G01 X53.217391 Y-1.586957 Z1.129412 F1000
G01 X53.353261 Y-1.586957 Z1.105882 F1000
G01 X53.625 Y-1.586957 Z1.105882 F1000
G01 X53.76087 Y-1.586957 Z1.070588 F1000
G01 X54.711957 Y-1.586957 Z1.070588 F1000
G01 X54.847826 Y-1.586957 Z1.035294 F1000
G01 X54.983696 Y-1.586957 Z1 F1000
G01 X55.255435 Y-1.586957 Z1 F1000
G01 X55.391304 Y-1.586957 Z0.988235 F1000
G01 X55.527174 Y-1.586957 Z0.976471 F1000
G01 X56.206522 Y-1.586957 Z0.976471 F1000
G01 X56.342391 Y-1.586957 Z0.964706 F1000
G01 X57.021739 Y-1.586957 Z0.964706 F1000
G01 X57.157609 Y-1.586957 Z0.952941 F1000
G01 X57.565217 Y-1.586957 Z0.952941 F1000
G01 X57.701087 Y-1.586957 Z0.929412 F1000
G01 X57.836957 Y-1.586957 Z0.905882 F1000
G01 X58.380435 Y-1.586957 Z0.905882 F1000
G01 X58.516304 Y-1.586957 Z0.882353 F1000
G01 X59.059783 Y-1.586957 Z0.882353 F1000
G01 X59.195652 Y-1.586957 Z0.847059 F1000
G01 X59.331522 Y-1.586957 Z0.811765 F1000
G01 X59.467391 Y-1.586957 Z0.717647 F1000
G01 X59.603261 Y-1.586957 Z0.541176 F1000
G01 X59.73913 Y-1.586957 Z0.329412 F1000
G01 X59.875 Y-1.586957 Z0.164706 F1000
G01 X60.01087 Y-1.586957 Z0.082353 F1000
G01 X60.146739 Y-1.586957 Z0.058824 F1000
G01 X60.282609 Y-1.586957 Z0.011765 F1000
G01 X62.320652 Y-1.586957 Z0.011765 F1000
G01 X62.456522 Y-1.586957 Z0 F1000
G01 X99.548913 Y-1.586957 Z0 F1000
G01 X99.548913 Y-1.722826 Z0 F1000
G01 X99.548913 Y-1.858696 Z0 F1000
G01 X99.548913 Y-1.994565 Z0 F1000
G01 X99.548913 Y-2.130435 Z0 F1000
G01 X64.494565 Y-2.130435 Z0 F1000
G01 X64.358696 Y-2.130435 Z0.035294 F1000
G01 X63.543478 Y-2.130435 Z0.035294 F1000
G01 X63.407609 Y-2.130435 Z0.094118 F1000
G01 X62.592391 Y-2.130435 Z0.094118 F1000
G01 X62.456522 Y-2.130435 Z0.152941 F1000
G01 X62.320652 Y-2.130435 Z0.294118 F1000
G01 X62.184783 Y-2.130435 Z0.294118 F1000
G01 X62.048913 Y-2.130435 Z0.388235 F1000
G01 X61.913043 Y-2.130435 Z0.611765 F1000
G01 X61.777174 Y-2.130435 Z0.729412 F1000
G01 X61.641304 Y-2.130435 Z0.729412 F1000
G01 X61.505435 Y-2.130435 Z0.752941 F1000
G01 X61.369565 Y-2.130435 Z0.858824 F1000
G01 X61.233696 Y-2.130435 Z0.870588 F1000
G01 X60.418478 Y-2.130435 Z0.870588 F1000
G01 X60.282609 Y-2.130435 Z0.917647 F1000
G01 X59.73913 Y-2.130435 Z0.917647 F1000
G01 X59.603261 Y-2.130435 Z0.941176 F1000
G01 X59.467391 Y-2.130435 Z0.976471 F1000
G01 X58.244565 Y-2.130435 Z0.976471 F1000
G01 X58.108696 Y-2.130435 Z0.988235 F1000
G01 X57.972826 Y-2.130435 Z1 F1000
G01 X57.836957 Y-2.130435 Z1 F1000
G01 X57.701087 Y-2.130435 Z1.011765 F1000
G01 X57.021739 Y-2.130435 Z1.011765 F1000
G01 X56.88587 Y-2.130435 Z1.023529 F1000
G01 X56.75 Y-2.130435 Z1.035294 F1000
G01 X56.61413 Y-2.130435 Z1.035294 F1000
G01 X56.478261 Y-2.130435 Z1.047059 F1000
G01 X56.342391 Y-2.130435 Z1.047059 F1000
G01 X56.206522 Y-2.130435 Z1.058824 F1000
G01 X55.934783 Y-2.130435 Z1.058824 F1000
G01 X55.798913 Y-2.130435 Z1.070588 F1000
G01 X55.527174 Y-2.130435 Z1.070588 F1000
G01 X55.391304 Y-2.130435 Z1.082353 F1000
G01 X55.255435 Y-2.130435 Z1.082353 F1000
G01 X55.119565 Y-2.130435 Z1.094118 F1000
G01 X54.847826 Y-2.130435 Z1.094118 F1000
G01 X54.711957 Y-2.130435 Z1.105882 F1000
G01 X54.440217 Y-2.130435 Z1.105882 F1000
G01 X54.304348 Y-2.130435 Z1.117647 F1000
G01 X54.168478 Y-2.130435 Z1.117647 F1000
G01 X54.032609 Y-2.130435 Z1.129412 F1000
G01 X53.896739 Y-2.130435 Z1.129412 F1000
G01 X53.76087 Y-2.130435 Z1.141176 F1000
G01 X53.625 Y-2.130435 Z1.164706 F1000
G01 X52.266304 Y-2.130435 Z1.164706 F1000
G01 X52.130435 Y-2.130435 Z1.176471 F1000
G01 X51.722826 Y-2.130435 Z1.176471 F1000
G01 X51.586957 Y-2.130435 Z1.188235 F1000
G01 X50.63587 Y-2.130435 Z1.188235 F1000
G01 X50.5 Y-2.130435 Z1.176471 F1000
G01 X50.36413 Y-2.130435 Z1.188235 F1000
G01 X46.695652 Y-2.130435 Z1.188235 F1000
G01 X46.559783 Y-2.130435 Z1.176471 F1000
G01 X45.201087 Y-2.130435 Z1.176471 F1000
G01 X45.065217 Y-2.130435 Z1.152941 F1000
G01 X44.657609 Y-2.130435 Z1.152941 F1000
G01 X44.521739 Y-2.130435 Z1.141176 F1000
G01 X43.978261 Y-2.130435 Z1.141176 F1000
G01 X43.842391 Y-2.130435 Z1.129412 F1000
G01 X43.434783 Y-2.130435 Z1.129412 F1000
G01 X43.298913 Y-2.130435 Z1.117647 F1000
G01 X43.027174 Y-2.130435 Z1.117647 F1000
G01 X42.891304 Y-2.130435 Z1.105882 F1000
G01 X42.483696 Y-2.130435 Z1.105882 F1000
G01 X42.347826 Y-2.130435 Z1.094118 F1000
G01 X41.26087 Y-2.130435 Z1.094118 F1000
G01 X41.125 Y-2.130435 Z1.082353 F1000
G01 X40.445652 Y-2.130435 Z1.082353 F1000
G01 X40.309783 Y-2.130435 Z1.070588 F1000
G01 X40.173913 Y-2.130435 Z1.058824 F1000
G01 X39.902174 Y-2.130435 Z1.058824 F1000
G01 X39.766304 Y-2.130435 Z1.047059 F1000
G01 X39.630435 Y-2.130435 Z1.035294 F1000
G01 X39.222826 Y-2.130435 Z1.035294 F1000
G01 X39.086957 Y-2.130435 Z1.023529 F1000
G01 X38.951087 Y-2.130435 Z1.011765 F1000
G01 X38.815217 Y-2.130435 Z0.988235 F1000
G01 X38.679348 Y-2.130435 Z0.988235 F1000
G01 X38.543478 Y-2.130435 Z0.976471 F1000
G01 X38.407609 Y-2.130435 Z0.964706 F1000
G01 X38.271739 Y-2.130435 Z0.952941 F1000
G01 X38.13587 Y-2.130435 Z0.941176 F1000
G01 X38 Y-2.130435 Z0.941176 F1000
G01 X37.86413 Y-2.130435 Z0.929412 F1000
G01 X37.048913 Y-2.130435 Z0.929412 F1000
G01 X36.913043 Y-2.130435 Z0.905882 F1000
G01 X36.777174 Y-2.130435 Z0.847059 F1000
G01 X36.641304 Y-2.130435 Z0.835294 F1000
G01 X36.505435 Y-2.130435 Z0.835294 F1000
G01 X36.369565 Y-2.130435 Z0.811765 F1000
G01 X36.233696 Y-2.130435 Z0.8 F1000
G01 X36.097826 Y-2.130435 Z0.788235 F1000
G01 X35.961957 Y-2.130435 Z0.788235 F1000
G01 X35.826087 Y-2.130435 Z0.717647 F1000
G01 X35.690217 Y-2.130435 Z0.541176 F1000
G01 X35.554348 Y-2.130435 Z0.294118 F1000
G01 X35.418478 Y-2.130435 Z0.105882 F1000
G01 X35.282609 Y-2.130435 Z0.070588 F1000
G01 X34.331522 Y-2.130435 Z0.070588 F1000
G01 X34.195652 Y-2.130435 Z0.035294 F1000
G01 X33.244565 Y-2.130435 Z0.035294 F1000
G01 X33.108696 Y-2.130435 Z0.011765 F1000
G01 X32.701087 Y-2.130435 Z0.011765 F1000
G01 X32.565217 Y-2.130435 Z0 F1000
G01 X0.36413 Y-2.130435 Z0 F1000
G01 X0.36413 Y-2.266304 Z0 F1000
G01 X0.36413 Y-2.402174 Z0 F1000
G01 X0.36413 Y-2.538043 Z0 F1000
G01 X0.36413 Y-2.673913 Z0 F1000
G01 X32.565217 Y-2.673913 Z0 F1000
G01 X32.701087 Y-2.673913 Z0.011765 F1000
G01 X33.108696 Y-2.673913 Z0.011765 F1000
G01 X33.244565 Y-2.673913 Z0.047059 F1000
G01 X33.380435 Y-2.673913 Z0.105882 F1000
G01 X33.516304 Y-2.673913 Z0.305882 F1000
G01 X33.652174 Y-2.673913 Z0.494118 F1000
G01 X33.788043 Y-2.673913 Z0.635294 F1000
G01 X33.923913 Y-2.673913 Z0.694118 F1000
G01 X34.195652 Y-2.673913 Z0.694118 F1000
G01 X34.331522 Y-2.673913 Z0.717647 F1000
G01 X34.603261 Y-2.673913 Z0.717647 F1000
G01 X34.73913 Y-2.673913 Z0.764706 F1000
G01 X34.875 Y-2.673913 Z0.764706 F1000
G01 X35.01087 Y-2.673913 Z0.776471 F1000
G01 X35.146739 Y-2.673913 Z0.835294 F1000
G01 X35.282609 Y-2.673913 Z0.870588 F1000
G01 X35.418478 Y-2.673913 Z0.894118 F1000
G01 X35.554348 Y-2.673913 Z0.894118 F1000
G01 X35.690217 Y-2.673913 Z0.941176 F1000
G01 X35.826087 Y-2.673913 Z0.964706 F1000
G01 X36.233696 Y-2.673913 Z0.964706 F1000
G01 X36.369565 Y-2.673913 Z0.988235 F1000
G01 X36.913043 Y-2.673913 Z0.988235 F1000
G01 X37.048913 Y-2.673913 Z1.035294 F1000
G01 X37.184783 Y-2.673913 Z1.082353 F1000
G01 X37.456522 Y-2.673913 Z1.082353 F1000
G01 X37.592391 Y-2.673913 Z1.105882 F1000
G01 X38 Y-2.673913 Z1.105882 F1000
G01 X38.13587 Y-2.673913 Z1.117647 F1000
G01 X38.271739 Y-2.673913 Z1.129412 F1000
G01 X39.222826 Y-2.673913 Z1.129412 F1000
G01 X39.358696 Y-2.673913 Z1.117647 F1000
G01 X39.494565 Y-2.673913 Z1.117647 F1000
G01 X39.630435 Y-2.673913 Z1.129412 F1000
G01 X40.173913 Y-2.673913 Z1.129412 F1000
G01 X40.309783 Y-2.673913 Z1.141176 F1000
G01 X40.445652 Y-2.673913 Z1.141176 F1000
G01 X40.581522 Y-2.673913 Z1.152941 F1000
G01 X40.717391 Y-2.673913 Z1.152941 F1000
G01 X40.853261 Y-2.673913 Z1.176471 F1000
G01 X41.26087 Y-2.673913 Z1.176471 F1000
G01 X41.396739 Y-2.673913 Z1.188235 F1000
G01 X42.076087 Y-2.673913 Z1.188235 F1000
G01 X42.211957 Y-2.673913 Z1.2 F1000
G01 X42.619565 Y-2.673913 Z1.2 F1000
G01 X42.755435 Y-2.673913 Z1.211765 F1000
G01 X43.434783 Y-2.673913 Z1.211765 F1000
G01 X43.570652 Y-2.673913 Z1.223529 F1000
G01 X44.38587 Y-2.673913 Z1.223529 F1000
G01 X44.521739 Y-2.673913 Z1.235294 F1000
G01 X44.929348 Y-2.673913 Z1.235294 F1000
G01 X45.065217 Y-2.673913 Z1.247059 F1000
G01 X46.831522 Y-2.673913 Z1.247059 F1000
G01 X46.967391 Y-2.673913 Z1.258824 F1000
G01 X48.190217 Y-2.673913 Z1.258824 F1000
G01 X48.326087 Y-2.673913 Z1.247059 F1000
G01 X48.461957 Y-2.673913 Z1.270588 F1000
G01 X50.36413 Y-2.673913 Z1.270588 F1000
G01 X50.5 Y-2.673913 Z1.247059 F1000
G01 X50.63587 Y-2.673913 Z1.258824 F1000
G01 X51.858696 Y-2.673913 Z1.258824 F1000
G01 X51.994565 Y-2.673913 Z1.247059 F1000
G01 X52.538043 Y-2.673913 Z1.247059 F1000
G01 X52.673913 Y-2.673913 Z1.223529 F1000
G01 X53.896739 Y-2.673913 Z1.223529 F1000
G01 X54.032609 Y-2.673913 Z1.211765 F1000
G01 X54.168478 Y-2.673913 Z1.211765 F1000
G01 X54.304348 Y-2.673913 Z1.2 F1000
G01 X54.983696 Y-2.673913 Z1.2 F1000
G01 X55.119565 Y-2.673913 Z1.188235 F1000
G01 X55.255435 Y-2.673913 Z1.188235 F1000
G01 X55.391304 Y-2.673913 Z1.176471 F1000
G01 X56.070652 Y-2.673913 Z1.176471 F1000
G01 X56.206522 Y-2.673913 Z1.164706 F1000
G01 X56.342391 Y-2.673913 Z1.164706 F1000
G01 X56.478261 Y-2.673913 Z1.152941 F1000
G01 X56.61413 Y-2.673913 Z1.152941 F1000
G01 X56.75 Y-2.673913 Z1.141176 F1000
G01 X57.293478 Y-2.673913 Z1.141176 F1000
G01 X57.429348 Y-2.673913 Z1.129412 F1000
G01 X57.565217 Y-2.673913 Z1.117647 F1000
G01 X57.701087 Y-2.673913 Z1.105882 F1000
G01 X57.972826 Y-2.673913 Z1.105882 F1000
G01 X58.108696 Y-2.673913 Z1.082353 F1000
G01 X59.059783 Y-2.673913 Z1.082353 F1000
G01 X59.195652 Y-2.673913 Z1.105882 F1000
G01 X60.146739 Y-2.673913 Z1.105882 F1000
G01 X60.282609 Y-2.673913 Z1.082353 F1000
G01 X60.418478 Y-2.673913 Z1.035294 F1000
G01 X60.554348 Y-2.673913 Z1 F1000
G01 X60.826087 Y-2.673913 Z1 F1000
G01 X60.961957 Y-2.673913 Z0.988235 F1000
G01 X61.097826 Y-2.673913 Z0.964706 F1000
G01 X61.369565 Y-2.673913 Z0.964706 F1000
G01 X61.505435 Y-2.673913 Z0.952941 F1000
G01 X61.777174 Y-2.673913 Z0.952941 F1000
G01 X61.913043 Y-2.673913 Z0.917647 F1000
G01 X62.048913 Y-2.673913 Z0.882353 F1000
G01 X62.184783 Y-2.673913 Z0.882353 F1000
G01 X62.320652 Y-2.673913 Z0.858824 F1000
G01 X62.456522 Y-2.673913 Z0.8 F1000
G01 X63.13587 Y-2.673913 Z0.8 F1000
G01 X63.271739 Y-2.673913 Z0.717647 F1000
G01 X63.407609 Y-2.673913 Z0.576471 F1000
G01 X63.543478 Y-2.673913 Z0.388235 F1000
G01 X63.679348 Y-2.673913 Z0.247059 F1000
G01 X63.815217 Y-2.673913 Z0.141176 F1000
G01 X64.086957 Y-2.673913 Z0.141176 F1000
G01 X64.222826 Y-2.673913 Z0.105882 F1000
G01 X64.358696 Y-2.673913 Z0.047059 F1000
G01 X64.494565 Y-2.673913 Z0.035294 F1000
G01 X64.630435 Y-2.673913 Z0.011765 F1000
G01 X65.581522 Y-2.673913 Z0.011765 F1000
G01 X65.717391 Y-2.673913 Z0 F1000
G01 X99.548913 Y-2.673913 Z0 F1000
G01 X99.548913 Y-2.809783 Z0 F1000
G01 X99.548913 Y-2.945652 Z0 F1000
G01 X99.548913 Y-3.081522 Z0 F1000
G01 X99.548913 Y-3.217391 Z0 F1000
G01 X67.891304 Y-3.217391 Z0 F1000
G01 X67.755435 Y-3.217391 Z0.011765 F1000
G01 X67.619565 Y-3.217391 Z0.011765 F1000
G01 X67.483696 Y-3.217391 Z0.023529 F1000
G01 X67.347826 Y-3.217391 Z0.023529 F1000
G01 X67.211957 Y-3.217391 Z0.035294 F1000
G01 X67.076087 Y-3.217391 Z0.047059 F1000
G01 X66.396739 Y-3.217391 Z0.047059 F1000
G01 X66.26087 Y-3.217391 Z0.082353 F1000
G01 X66.125 Y-3.217391 Z0.094118 F1000
G01 X65.98913 Y-3.217391 Z0.164706 F1000
G01 X65.853261 Y-3.217391 Z0.235294 F1000
G01 X65.717391 Y-3.217391 Z0.294118 F1000
G01 X65.581522 Y-3.217391 Z0.576471 F1000
G01 X65.445652 Y-3.217391 Z0.588235 F1000
G01 X65.309783 Y-3.217391 Z0.6 F1000
G01 X65.173913 Y-3.217391 Z0.623529 F1000
G01 X65.038043 Y-3.217391 Z0.647059 F1000
G01 X64.902174 Y-3.217391 Z0.658824 F1000
G01 X64.766304 Y-3.217391 Z0.670588 F1000
G01 X64.630435 Y-3.217391 Z0.670588 F1000
G01 X64.494565 Y-3.217391 Z0.694118 F1000
G01 X64.358696 Y-3.217391 Z0.705882 F1000
G01 X64.222826 Y-3.217391 Z0.717647 F1000
G01 X64.086957 Y-3.217391 Z0.752941 F1000
G01 X63.951087 Y-3.217391 Z0.811765 F1000
G01 X63.815217 Y-3.217391 Z0.847059 F1000
G01 X63.679348 Y-3.217391 Z0.858824 F1000
G01 X63.543478 Y-3.217391 Z0.858824 F1000
G01 X63.407609 Y-3.217391 Z0.882353 F1000
G01 X63.271739 Y-3.217391 Z0.894118 F1000
G01 X63.13587 Y-3.217391 Z0.917647 F1000
G01 X62.86413 Y-3.217391 Z0.917647 F1000
G01 X62.728261 Y-3.217391 Z0.929412 F1000
G01 X62.592391 Y-3.217391 Z0.964706 F1000
G01 X62.456522 Y-3.217391 Z0.976471 F1000
G01 X62.320652 Y-3.217391 Z1 F1000
G01 X62.184783 Y-3.217391 Z1.011765 F1000
G01 X61.913043 Y-3.217391 Z1.011765 F1000
G01 X61.777174 Y-3.217391 Z1.023529 F1000
G01 X61.641304 Y-3.217391 Z1.035294 F1000
G01 X61.369565 Y-3.217391 Z1.035294 F1000
G01 X61.233696 Y-3.217391 Z1.047059 F1000
G01 X61.097826 Y-3.217391 Z1.058824 F1000
G01 X60.961957 Y-3.217391 Z1.058824 F1000
G01 X60.826087 Y-3.217391 Z1.082353 F1000
G01 X60.690217 Y-3.217391 Z1.094118 F1000
G01 X60.554348 Y-3.217391 Z1.105882 F1000
G01 X60.418478 Y-3.217391 Z1.117647 F1000
G01 X60.282609 Y-3.217391 Z1.129412 F1000
G01 X59.331522 Y-3.217391 Z1.129412 F1000
G01 X59.195652 Y-3.217391 Z1.141176 F1000
G01 X58.788043 Y-3.217391 Z1.141176 F1000
G01 X58.652174 Y-3.217391 Z1.152941 F1000
G01 X58.516304 Y-3.217391 Z1.164706 F1000
G01 X58.380435 Y-3.217391 Z1.164706 F1000
G01 X58.244565 Y-3.217391 Z1.176471 F1000
G01 X57.836957 Y-3.217391 Z1.176471 F1000
G01 X57.701087 Y-3.217391 Z1.188235 F1000
G01 X57.565217 Y-3.217391 Z1.188235 F1000
G01 X57.429348 Y-3.217391 Z1.2 F1000
G01 X57.293478 Y-3.217391 Z1.2 F1000
G01 X57.157609 Y-3.217391 Z1.211765 F1000
G01 X57.021739 Y-3.217391 Z1.211765 F1000
G01 X56.88587 Y-3.217391 Z1.223529 F1000
G01 X56.478261 Y-3.217391 Z1.223529 F1000
G01 X56.342391 Y-3.217391 Z1.235294 F1000
G01 X55.934783 Y-3.217391 Z1.235294 F1000
G01 X55.798913 Y-3.217391 Z1.247059 F1000
G01 X55.527174 Y-3.217391 Z1.247059 F1000
G01 X55.391304 Y-3.217391 Z1.258824 F1000
G01 X54.847826 Y-3.217391 Z1.258824 F1000
G01 X54.711957 Y-3.217391 Z1.270588 F1000
G01 X54.576087 Y-3.217391 Z1.270588 F1000
G01 X54.440217 Y-3.217391 Z1.282353 F1000
G01 X54.168478 Y-3.217391 Z1.282353 F1000
G01 X54.032609 Y-3.217391 Z1.294118 F1000
G01 X52.809783 Y-3.217391 Z1.294118 F1000
G01 X52.673913 Y-3.217391 Z1.305882 F1000
G01 X50.5 Y-3.217391 Z1.305882 F1000
G01 X50.36413 Y-3.217391 Z1.317647 F1000
G01 X47.23913 Y-3.217391 Z1.317647 F1000
G01 X47.103261 Y-3.217391 Z1.329412 F1000
G01 X45.880435 Y-3.217391 Z1.329412 F1000
G01 X45.744565 Y-3.217391 Z1.317647 F1000
G01 X45.065217 Y-3.217391 Z1.317647 F1000
G01 X44.929348 Y-3.217391 Z1.305882 F1000
G01 X44.521739 Y-3.217391 Z1.305882 F1000
G01 X44.38587 Y-3.217391 Z1.294118 F1000
G01 X42.755435 Y-3.217391 Z1.294118 F1000
G01 X42.619565 Y-3.217391 Z1.282353 F1000
G01 X42.211957 Y-3.217391 Z1.282353 F1000
G01 X42.076087 Y-3.217391 Z1.270588 F1000
G01 X41.940217 Y-3.217391 Z1.270588 F1000
G01 X41.804348 Y-3.217391 Z1.258824 F1000
G01 X41.26087 Y-3.217391 Z1.258824 F1000
G01 X41.125 Y-3.217391 Z1.247059 F1000
G01 X40.853261 Y-3.217391 Z1.247059 F1000
G01 X40.717391 Y-3.217391 Z1.235294 F1000
G01 X40.309783 Y-3.217391 Z1.235294 F1000
G01 X40.173913 Y-3.217391 Z1.223529 F1000
G01 X39.494565 Y-3.217391 Z1.223529 F1000
G01 X39.358696 Y-3.217391 Z1.211765 F1000
G01 X39.222826 Y-3.217391 Z1.211765 F1000
G01 X39.086957 Y-3.217391 Z1.2 F1000
G01 X38.951087 Y-3.217391 Z1.2 F1000
G01 X38.815217 Y-3.217391 Z1.188235 F1000
G01 X38.271739 Y-3.217391 Z1.188235 F1000
G01 X38.13587 Y-3.217391 Z1.176471 F1000
G01 X38 Y-3.217391 Z1.164706 F1000
G01 X37.86413 Y-3.217391 Z1.164706 F1000
G01 X37.728261 Y-3.217391 Z1.152941 F1000
G01 X37.592391 Y-3.217391 Z1.152941 F1000
G01 X37.456522 Y-3.217391 Z1.129412 F1000
G01 X36.369565 Y-3.217391 Z1.129412 F1000
G01 X36.233696 Y-3.217391 Z1.117647 F1000
G01 X36.097826 Y-3.217391 Z1.117647 F1000
G01 X35.961957 Y-3.217391 Z1.094118 F1000
G01 X35.826087 Y-3.217391 Z1.082353 F1000
G01 X35.690217 Y-3.217391 Z1.070588 F1000
G01 X35.554348 Y-3.217391 Z1.058824 F1000
G01 X35.418478 Y-3.217391 Z1.058824 F1000
G01 X35.282609 Y-3.217391 Z1.035294 F1000
G01 X35.146739 Y-3.217391 Z1.035294 F1000
G01 X35.01087 Y-3.217391 Z1.023529 F1000
G01 X34.875 Y-3.217391 Z1 F1000
G01 X34.73913 Y-3.217391 Z0.988235 F1000
G01 X34.603261 Y-3.217391 Z0.976471 F1000
G01 X34.467391 Y-3.217391 Z0.964706 F1000
G01 X34.331522 Y-3.217391 Z0.952941 F1000
G01 X34.195652 Y-3.217391 Z0.941176 F1000
G01 X34.059783 Y-3.217391 Z0.905882 F1000
G01 X33.923913 Y-3.217391 Z0.870588 F1000
G01 X33.788043 Y-3.217391 Z0.847059 F1000
G01 X33.652174 Y-3.217391 Z0.835294 F1000
G01 X33.516304 Y-3.217391 Z0.8 F1000
G01 X33.380435 Y-3.217391 Z0.764706 F1000
G01 X32.565217 Y-3.217391 Z0.764706 F1000
G01 X32.429348 Y-3.217391 Z0.705882 F1000
G01 X32.293478 Y-3.217391 Z0.588235 F1000
G01 X32.157609 Y-3.217391 Z0.494118 F1000
G01 X32.021739 Y-3.217391 Z0.129412 F1000
G01 X31.88587 Y-3.217391 Z0.082353 F1000
G01 X31.75 Y-3.217391 Z0.070588 F1000
G01 X30.798913 Y-3.217391 Z0.070588 F1000
G01 X30.663043 Y-3.217391 Z0.047059 F1000
G01 X30.527174 Y-3.217391 Z0.035294 F1000
G01 X30.255435 Y-3.217391 Z0.035294 F1000
G01 X30.119565 Y-3.217391 Z0.023529 F1000
G01 X29.983696 Y-3.217391 Z0 F1000
G01 X0.36413 Y-3.217391 Z0 F1000
G01 X0.36413 Y-3.353261 Z0 F1000
G01 X0.36413 Y-3.48913 Z0 F1000
G01 X0.36413 Y-3.625 Z0 F1000
G01 X0.36413 Y-3.76087 Z0 F1000
G01 X29.847826 Y-3.76087 Z0 F1000
G01 X29.983696 Y-3.76087 Z0.047059 F1000
G01 X30.255435 Y-3.76087 Z0.047059 F1000
G01 X30.391304 Y-3.76087 Z0.058824 F1000
G01 X30.527174 Y-3.76087 Z0.070588 F1000
G01 X30.663043 Y-3.76087 Z0.070588 F1000
G01 X30.798913 Y-3.76087 Z0.270588 F1000
G01 X30.934783 Y-3.76087 Z0.494118 F1000
G01 X31.070652 Y-3.76087 Z0.717647 F1000
G01 X31.206522 Y-3.76087 Z0.752941 F1000
G01 X31.342391 Y-3.76087 Z0.788235 F1000
G01 X31.75 Y-3.76087 Z0.788235 F1000
G01 X31.88587 Y-3.76087 Z0.847059 F1000
G01 X32.021739 Y-3.76087 Z0.905882 F1000
G01 X32.157609 Y-3.76087 Z0.917647 F1000
G01 X32.429348 Y-3.76087 Z0.917647 F1000
G01 X32.565217 Y-3.76087 Z0.941176 F1000
G01 X32.701087 Y-3.76087 Z0.952941 F1000
G01 X32.836957 Y-3.76087 Z0.976471 F1000
G01 X32.972826 Y-3.76087 Z1.011765 F1000
G01 X33.108696 Y-3.76087 Z1.035294 F1000
G01 X33.380435 Y-3.76087 Z1.035294 F1000
G01 X33.516304 Y-3.76087 Z1.047059 F1000
G01 X33.652174 Y-3.76087 Z1.058824 F1000
G01 X33.788043 Y-3.76087 Z1.082353 F1000
G01 X34.467391 Y-3.76087 Z1.082353 F1000
G01 X34.603261 Y-3.76087 Z1.094118 F1000
G01 X34.73913 Y-3.76087 Z1.105882 F1000
G01 X34.875 Y-3.76087 Z1.117647 F1000
G01 X35.01087 Y-3.76087 Z1.129412 F1000
G01 X35.146739 Y-3.76087 Z1.141176 F1000
G01 X35.282609 Y-3.76087 Z1.152941 F1000
G01 X35.418478 Y-3.76087 Z1.164706 F1000
G01 X35.554348 Y-3.76087 Z1.164706 F1000
G01 X35.690217 Y-3.76087 Z1.176471 F1000
G01 X35.826087 Y-3.76087 Z1.176471 F1000
G01 X35.961957 Y-3.76087 Z1.188235 F1000
G01 X36.097826 Y-3.76087 Z1.188235 F1000
G01 X36.233696 Y-3.76087 Z1.2 F1000
G01 X36.913043 Y-3.76087 Z1.2 F1000
G01 X37.048913 Y-3.76087 Z1.211765 F1000
G01 X37.184783 Y-3.76087 Z1.223529 F1000
G01 X37.320652 Y-3.76087 Z1.235294 F1000
G01 X37.456522 Y-3.76087 Z1.235294 F1000
G01 X37.592391 Y-3.76087 Z1.247059 F1000
G01 X38.407609 Y-3.76087 Z1.247059 F1000
G01 X38.543478 Y-3.76087 Z1.258824 F1000
G01 X38.679348 Y-3.76087 Z1.282353 F1000
G01 X38.951087 Y-3.76087 Z1.282353 F1000
G01 X39.086957 Y-3.76087 Z1.294118 F1000
G01 X39.222826 Y-3.76087 Z1.294118 F1000
G01 X39.358696 Y-3.76087 Z1.305882 F1000
G01 X39.494565 Y-3.76087 Z1.305882 F1000
G01 X39.630435 Y-3.76087 Z1.317647 F1000
G01 X40.581522 Y-3.76087 Z1.317647 F1000
G01 X40.717391 Y-3.76087 Z1.305882 F1000
G01 X40.853261 Y-3.76087 Z1.317647 F1000
G01 X41.396739 Y-3.76087 Z1.317647 F1000
G01 X41.532609 Y-3.76087 Z1.329412 F1000
G01 X41.804348 Y-3.76087 Z1.329412 F1000
G01 X41.940217 Y-3.76087 Z1.341176 F1000
G01 X42.347826 Y-3.76087 Z1.341176 F1000
G01 X42.483696 Y-3.76087 Z1.352941 F1000
G01 X44.793478 Y-3.76087 Z1.352941 F1000
G01 X44.929348 Y-3.76087 Z1.364706 F1000
G01 X45.065217 Y-3.76087 Z1.364706 F1000
G01 X45.201087 Y-3.76087 Z1.388235 F1000
G01 X46.288043 Y-3.76087 Z1.388235 F1000
G01 X46.423913 Y-3.76087 Z1.376471 F1000
G01 X51.451087 Y-3.76087 Z1.376471 F1000
G01 X51.586957 Y-3.76087 Z1.352941 F1000
G01 X52.945652 Y-3.76087 Z1.352941 F1000
G01 X53.081522 Y-3.76087 Z1.341176 F1000
G01 X54.711957 Y-3.76087 Z1.341176 F1000
G01 X54.847826 Y-3.76087 Z1.329412 F1000
G01 X55.119565 Y-3.76087 Z1.329412 F1000
G01 X55.255435 Y-3.76087 Z1.317647 F1000
G01 X55.798913 Y-3.76087 Z1.317647 F1000
G01 X55.934783 Y-3.76087 Z1.305882 F1000
G01 X56.070652 Y-3.76087 Z1.305882 F1000
G01 X56.206522 Y-3.76087 Z1.294118 F1000
G01 X56.61413 Y-3.76087 Z1.294118 F1000
G01 X56.75 Y-3.76087 Z1.282353 F1000
G01 X56.88587 Y-3.76087 Z1.282353 F1000
G01 X57.021739 Y-3.76087 Z1.270588 F1000
G01 X57.293478 Y-3.76087 Z1.270588 F1000
G01 X57.429348 Y-3.76087 Z1.258824 F1000
G01 X57.565217 Y-3.76087 Z1.258824 F1000
G01 X57.701087 Y-3.76087 Z1.247059 F1000
G01 X58.652174 Y-3.76087 Z1.247059 F1000
G01 X58.788043 Y-3.76087 Z1.235294 F1000
G01 X59.059783 Y-3.76087 Z1.235294 F1000
G01 X59.195652 Y-3.76087 Z1.223529 F1000
G01 X59.331522 Y-3.76087 Z1.223529 F1000
G01 X59.467391 Y-3.76087 Z1.211765 F1000
G01 X59.603261 Y-3.76087 Z1.211765 F1000
G01 X59.73913 Y-3.76087 Z1.2 F1000
G01 X60.01087 Y-3.76087 Z1.2 F1000
G01 X60.146739 Y-3.76087 Z1.188235 F1000
G01 X60.282609 Y-3.76087 Z1.176471 F1000
G01 X60.418478 Y-3.76087 Z1.176471 F1000
G01 X60.554348 Y-3.76087 Z1.164706 F1000
G01 X60.826087 Y-3.76087 Z1.164706 F1000
G01 X60.961957 Y-3.76087 Z1.152941 F1000
G01 X61.233696 Y-3.76087 Z1.152941 F1000
G01 X61.369565 Y-3.76087 Z1.117647 F1000
G01 X61.777174 Y-3.76087 Z1.117647 F1000
G01 X61.913043 Y-3.76087 Z1.105882 F1000
G01 X62.320652 Y-3.76087 Z1.105882 F1000
G01 X62.456522 Y-3.76087 Z1.094118 F1000
G01 X62.592391 Y-3.76087 Z1.082353 F1000
G01 X62.86413 Y-3.76087 Z1.082353 F1000
G01 X63 Y-3.76087 Z1.070588 F1000
G01 X63.13587 Y-3.76087 Z1.047059 F1000
G01 X63.271739 Y-3.76087 Z1.023529 F1000
G01 X63.543478 Y-3.76087 Z1.023529 F1000
G01 X63.679348 Y-3.76087 Z0.988235 F1000
G01 X64.086957 Y-3.76087 Z0.988235 F1000
G01 X64.222826 Y-3.76087 Z0.976471 F1000
G01 X64.358696 Y-3.76087 Z0.941176 F1000
G01 X64.494565 Y-3.76087 Z0.917647 F1000
G01 X64.630435 Y-3.76087 Z0.917647 F1000
G01 X64.766304 Y-3.76087 Z0.905882 F1000
G01 X64.902174 Y-3.76087 Z0.882353 F1000
G01 X65.038043 Y-3.76087 Z0.847059 F1000
G01 X65.173913 Y-3.76087 Z0.823529 F1000
G01 X65.309783 Y-3.76087 Z0.811765 F1000
G01 X65.445652 Y-3.76087 Z0.8 F1000
G01 X65.581522 Y-3.76087 Z0.8 F1000
G01 X65.717391 Y-3.76087 Z0.752941 F1000
G01 X65.853261 Y-3.76087 Z0.752941 F1000
G01 X65.98913 Y-3.76087 Z0.741176 F1000
G01 X66.125 Y-3.76087 Z0.729412 F1000
G01 X66.26087 Y-3.76087 Z0.705882 F1000
G01 X66.396739 Y-3.76087 Z0.670588 F1000
G01 X66.940217 Y-3.76087 Z0.670588 F1000
G01 X67.076087 Y-3.76087 Z0.588235 F1000
G01 X67.211957 Y-3.76087 Z0.376471 F1000
G01 X67.347826 Y-3.76087 Z0.117647 F1000
G01 X67.483696 Y-3.76087 Z0.082353 F1000
G01 X67.755435 Y-3.76087 Z0.082353 F1000
G01 X67.891304 Y-3.76087 Z0 F1000
G01 X99.548913 Y-3.76087 Z0 F1000
G01 X99.548913 Y-3.896739 Z0 F1000
G01 X99.548913 Y-4.032609 Z0 F1000
G01 X99.548913 Y-4.168478 Z0 F1000
G01 X99.548913 Y-4.304348 Z0 F1000
G01 X71.152174 Y-4.304348 Z0 F1000
G01 X71.016304 Y-4.304348 Z0.011765 F1000
G01 X70.065217 Y-4.304348 Z0.011765 F1000
G01 X69.929348 Y-4.304348 Z0.082353 F1000
G01 X68.978261 Y-4.304348 Z0.082353 F1000
G01 X68.842391 Y-4.304348 Z0.058824 F1000
G01 X68.706522 Y-4.304348 Z0.058824 F1000
G01 X68.570652 Y-4.304348 Z0.141176 F1000
G01 X68.434783 Y-4.304348 Z0.317647 F1000
G01 X68.298913 Y-4.304348 Z0.494118 F1000
G01 X68.163043 Y-4.304348 Z0.635294 F1000
G01 X68.027174 Y-4.304348 Z0.705882 F1000
G01 X67.891304 Y-4.304348 Z0.729412 F1000
G01 X67.619565 Y-4.304348 Z0.729412 F1000
G01 X67.483696 Y-4.304348 Z0.776471 F1000
G01 X67.347826 Y-4.304348 Z0.788235 F1000
G01 X67.211957 Y-4.304348 Z0.8 F1000
G01 X67.076087 Y-4.304348 Z0.811765 F1000
G01 X66.940217 Y-4.304348 Z0.847059 F1000
G01 X66.804348 Y-4.304348 Z0.870588 F1000
G01 X66.396739 Y-4.304348 Z0.870588 F1000
G01 X66.26087 Y-4.304348 Z0.894118 F1000
G01 X66.125 Y-4.304348 Z0.905882 F1000
G01 X65.98913 Y-4.304348 Z0.917647 F1000
G01 X65.853261 Y-4.304348 Z0.929412 F1000
G01 X65.717391 Y-4.304348 Z0.929412 F1000
G01 X65.581522 Y-4.304348 Z0.988235 F1000
G01 X65.445652 Y-4.304348 Z0.988235 F1000
G01 X65.309783 Y-4.304348 Z1 F1000
G01 X65.173913 Y-4.304348 Z1.011765 F1000
G01 X65.038043 Y-4.304348 Z1.023529 F1000
G01 X64.902174 Y-4.304348 Z1.035294 F1000
G01 X64.766304 Y-4.304348 Z1.047059 F1000
G01 X64.630435 Y-4.304348 Z1.058824 F1000
G01 X63.951087 Y-4.304348 Z1.058824 F1000
G01 X63.815217 Y-4.304348 Z1.070588 F1000
G01 X63.679348 Y-4.304348 Z1.082353 F1000
G01 X63.543478 Y-4.304348 Z1.082353 F1000
G01 X63.407609 Y-4.304348 Z1.105882 F1000
G01 X63.271739 Y-4.304348 Z1.105882 F1000
G01 X63.13587 Y-4.304348 Z1.117647 F1000
G01 X63 Y-4.304348 Z1.129412 F1000
G01 X62.86413 Y-4.304348 Z1.141176 F1000
G01 X62.728261 Y-4.304348 Z1.152941 F1000
G01 X62.592391 Y-4.304348 Z1.152941 F1000
G01 X62.456522 Y-4.304348 Z1.164706 F1000
G01 X61.913043 Y-4.304348 Z1.164706 F1000
G01 X61.777174 Y-4.304348 Z1.176471 F1000
G01 X61.641304 Y-4.304348 Z1.176471 F1000
G01 X61.505435 Y-4.304348 Z1.188235 F1000
G01 X61.369565 Y-4.304348 Z1.188235 F1000
G01 X61.233696 Y-4.304348 Z1.2 F1000
G01 X61.097826 Y-4.304348 Z1.211765 F1000
G01 X60.826087 Y-4.304348 Z1.211765 F1000
G01 X60.690217 Y-4.304348 Z1.223529 F1000
G01 X60.554348 Y-4.304348 Z1.235294 F1000
G01 X60.282609 Y-4.304348 Z1.235294 F1000
G01 X60.146739 Y-4.304348 Z1.258824 F1000
G01 X59.875 Y-4.304348 Z1.258824 F1000
G01 X59.73913 Y-4.304348 Z1.270588 F1000
G01 X59.603261 Y-4.304348 Z1.270588 F1000
G01 X59.467391 Y-4.304348 Z1.282353 F1000
G01 X59.195652 Y-4.304348 Z1.282353 F1000
G01 X59.059783 Y-4.304348 Z1.305882 F1000
G01 X57.836957 Y-4.304348 Z1.305882 F1000
G01 X57.701087 Y-4.304348 Z1.317647 F1000
G01 X57.293478 Y-4.304348 Z1.317647 F1000
G01 X57.157609 Y-4.304348 Z1.329412 F1000
G01 X56.61413 Y-4.304348 Z1.329412 F1000
G01 X56.478261 Y-4.304348 Z1.341176 F1000
G01 X56.070652 Y-4.304348 Z1.341176 F1000
G01 X55.934783 Y-4.304348 Z1.352941 F1000
G01 X55.255435 Y-4.304348 Z1.352941 F1000
G01 X55.119565 Y-4.304348 Z1.364706 F1000
G01 X54.440217 Y-4.304348 Z1.364706 F1000
G01 X54.304348 Y-4.304348 Z1.376471 F1000
G01 X53.896739 Y-4.304348 Z1.376471 F1000
G01 X53.76087 Y-4.304348 Z1.388235 F1000
G01 X53.081522 Y-4.304348 Z1.388235 F1000
G01 X52.945652 Y-4.304348 Z1.4 F1000
G01 X51.858696 Y-4.304348 Z1.4 F1000
G01 X51.722826 Y-4.304348 Z1.411765 F1000
G01 X49.413043 Y-4.304348 Z1.411765 F1000
G01 X49.277174 Y-4.304348 Z1.423529 F1000
G01 X46.288043 Y-4.304348 Z1.423529 F1000
G01 X46.152174 Y-4.304348 Z1.411765 F1000
G01 X43.842391 Y-4.304348 Z1.411765 F1000
G01 X43.706522 Y-4.304348 Z1.4 F1000
G01 X43.298913 Y-4.304348 Z1.4 F1000
G01 X43.163043 Y-4.304348 Z1.388235 F1000
G01 X41.804348 Y-4.304348 Z1.388235 F1000
G01 X41.668478 Y-4.304348 Z1.376471 F1000
G01 X41.26087 Y-4.304348 Z1.376471 F1000
G01 X41.125 Y-4.304348 Z1.364706 F1000
G01 X40.853261 Y-4.304348 Z1.364706 F1000
G01 X40.717391 Y-4.304348 Z1.352941 F1000
G01 X39.494565 Y-4.304348 Z1.352941 F1000
G01 X39.358696 Y-4.304348 Z1.341176 F1000
G01 X38.951087 Y-4.304348 Z1.341176 F1000
G01 X38.815217 Y-4.304348 Z1.329412 F1000
G01 X38.271739 Y-4.304348 Z1.329412 F1000
G01 X38.13587 Y-4.304348 Z1.317647 F1000
G01 X38 Y-4.304348 Z1.305882 F1000
G01 X37.86413 Y-4.304348 Z1.305882 F1000
G01 X37.728261 Y-4.304348 Z1.294118 F1000
G01 X37.592391 Y-4.304348 Z1.294118 F1000
G01 X37.456522 Y-4.304348 Z1.282353 F1000
G01 X37.320652 Y-4.304348 Z1.282353 F1000
G01 X37.184783 Y-4.304348 Z1.270588 F1000
G01 X37.048913 Y-4.304348 Z1.270588 F1000
G01 X36.913043 Y-4.304348 Z1.258824 F1000
G01 X36.641304 Y-4.304348 Z1.258824 F1000
G01 X36.505435 Y-4.304348 Z1.247059 F1000
G01 X36.233696 Y-4.304348 Z1.247059 F1000
G01 X36.097826 Y-4.304348 Z1.235294 F1000
G01 X35.282609 Y-4.304348 Z1.235294 F1000
G01 X35.146739 Y-4.304348 Z1.223529 F1000
G01 X35.01087 Y-4.304348 Z1.223529 F1000
G01 X34.875 Y-4.304348 Z1.211765 F1000
G01 X34.73913 Y-4.304348 Z1.211765 F1000
G01 X34.603261 Y-4.304348 Z1.2 F1000
G01 X34.331522 Y-4.304348 Z1.2 F1000
G01 X34.195652 Y-4.304348 Z1.188235 F1000
G01 X34.059783 Y-4.304348 Z1.176471 F1000
G01 X33.923913 Y-4.304348 Z1.176471 F1000
G01 X33.788043 Y-4.304348 Z1.164706 F1000
G01 X33.652174 Y-4.304348 Z1.141176 F1000
G01 X33.516304 Y-4.304348 Z1.117647 F1000
G01 X33.380435 Y-4.304348 Z1.105882 F1000
G01 X32.972826 Y-4.304348 Z1.105882 F1000
G01 X32.836957 Y-4.304348 Z1.094118 F1000
G01 X32.701087 Y-4.304348 Z1.094118 F1000
G01 X32.565217 Y-4.304348 Z1.082353 F1000
G01 X32.429348 Y-4.304348 Z1.070588 F1000
G01 X32.157609 Y-4.304348 Z1.070588 F1000
G01 X32.021739 Y-4.304348 Z1.035294 F1000
G01 X31.88587 Y-4.304348 Z1.023529 F1000
G01 X31.75 Y-4.304348 Z1.011765 F1000
G01 X31.61413 Y-4.304348 Z1 F1000
G01 X31.478261 Y-4.304348 Z0.976471 F1000
G01 X31.342391 Y-4.304348 Z0.952941 F1000
G01 X31.206522 Y-4.304348 Z0.941176 F1000
G01 X30.934783 Y-4.304348 Z0.941176 F1000
G01 X30.798913 Y-4.304348 Z0.917647 F1000
G01 X30.663043 Y-4.304348 Z0.917647 F1000
G01 X30.527174 Y-4.304348 Z0.847059 F1000
G01 X30.391304 Y-4.304348 Z0.776471 F1000
G01 X30.255435 Y-4.304348 Z0.776471 F1000
G01 X30.119565 Y-4.304348 Z0.6 F1000
G01 X29.983696 Y-4.304348 Z0.364706 F1000
G01 X29.847826 Y-4.304348 Z0.094118 F1000
G01 X29.440217 Y-4.304348 Z0.094118 F1000
G01 X29.304348 Y-4.304348 Z0.058824 F1000
G01 X29.168478 Y-4.304348 Z0.058824 F1000
G01 X29.032609 Y-4.304348 Z0.047059 F1000
G01 X28.896739 Y-4.304348 Z0.047059 F1000
G01 X28.76087 Y-4.304348 Z0.011765 F1000
G01 X28.48913 Y-4.304348 Z0.011765 F1000
G01 X28.353261 Y-4.304348 Z0 F1000
G01 X0.36413 Y-4.304348 Z0 F1000
G01 X0.36413 Y-4.440217 Z0 F1000
G01 X0.36413 Y-4.576087 Z0 F1000
G01 X0.36413 Y-4.711957 Z0 F1000
G01 X0.36413 Y-4.847826 Z0 F1000
G01 X28.081522 Y-4.847826 Z0 F1000
G01 X28.217391 Y-4.847826 Z0.011765 F1000
G01 X28.353261 Y-4.847826 Z0.023529 F1000
G01 X28.48913 Y-4.847826 Z0.023529 F1000
G01 X28.625 Y-4.847826 Z0.035294 F1000
G01 X28.76087 Y-4.847826 Z0.035294 F1000
G01 X28.896739 Y-4.847826 Z0.352941 F1000
G01 X29.032609 Y-4.847826 Z0.529412 F1000
G01 X29.168478 Y-4.847826 Z0.741176 F1000
G01 X29.304348 Y-4.847826 Z0.847059 F1000
G01 X29.440217 Y-4.847826 Z0.847059 F1000
G01 X29.576087 Y-4.847826 Z0.905882 F1000
G01 X29.711957 Y-4.847826 Z0.905882 F1000
G01 X29.847826 Y-4.847826 Z0.929412 F1000
G01 X29.983696 Y-4.847826 Z0.952941 F1000
G01 X30.119565 Y-4.847826 Z0.988235 F1000
G01 X30.255435 Y-4.847826 Z1.011765 F1000
G01 X30.391304 Y-4.847826 Z1.011765 F1000
G01 X30.527174 Y-4.847826 Z1.023529 F1000
G01 X30.798913 Y-4.847826 Z1.023529 F1000
G01 X30.934783 Y-4.847826 Z1.117647 F1000
G01 X32.157609 Y-4.847826 Z1.117647 F1000
G01 X32.293478 Y-4.847826 Z1.129412 F1000
G01 X32.429348 Y-4.847826 Z1.129412 F1000
G01 X32.565217 Y-4.847826 Z1.141176 F1000
G01 X32.701087 Y-4.847826 Z1.164706 F1000
G01 X32.836957 Y-4.847826 Z1.164706 F1000
G01 X32.972826 Y-4.847826 Z1.176471 F1000
G01 X33.108696 Y-4.847826 Z1.188235 F1000
G01 X33.244565 Y-4.847826 Z1.223529 F1000
G01 X33.380435 Y-4.847826 Z1.223529 F1000
G01 X33.516304 Y-4.847826 Z1.235294 F1000
G01 X33.652174 Y-4.847826 Z1.247059 F1000
G01 X33.788043 Y-4.847826 Z1.258824 F1000
G01 X34.875 Y-4.847826 Z1.258824 F1000
G01 X35.01087 Y-4.847826 Z1.270588 F1000
G01 X35.418478 Y-4.847826 Z1.270588 F1000
G01 X35.554348 Y-4.847826 Z1.282353 F1000
G01 X35.690217 Y-4.847826 Z1.282353 F1000
G01 X35.826087 Y-4.847826 Z1.294118 F1000
G01 X35.961957 Y-4.847826 Z1.294118 F1000
G01 X36.097826 Y-4.847826 Z1.305882 F1000
G01 X36.777174 Y-4.847826 Z1.305882 F1000
G01 X36.913043 Y-4.847826 Z1.317647 F1000
G01 X37.048913 Y-4.847826 Z1.329412 F1000
G01 X37.184783 Y-4.847826 Z1.341176 F1000
G01 X37.320652 Y-4.847826 Z1.352941 F1000
G01 X38.543478 Y-4.847826 Z1.352941 F1000
G01 X38.679348 Y-4.847826 Z1.364706 F1000
G01 X38.815217 Y-4.847826 Z1.376471 F1000
G01 X39.358696 Y-4.847826 Z1.376471 F1000
G01 X39.494565 Y-4.847826 Z1.388235 F1000
G01 X39.630435 Y-4.847826 Z1.388235 F1000
G01 X39.766304 Y-4.847826 Z1.4 F1000
G01 X40.717391 Y-4.847826 Z1.4 F1000
G01 X40.853261 Y-4.847826 Z1.411765 F1000
G01 X40.98913 Y-4.847826 Z1.411765 F1000
G01 X41.125 Y-4.847826 Z1.423529 F1000
G01 X41.532609 Y-4.847826 Z1.423529 F1000
G01 X41.668478 Y-4.847826 Z1.435294 F1000
G01 X42.891304 Y-4.847826 Z1.435294 F1000
G01 X43.027174 Y-4.847826 Z1.447059 F1000
G01 X43.570652 Y-4.847826 Z1.447059 F1000
G01 X43.706522 Y-4.847826 Z1.458824 F1000
G01 X46.152174 Y-4.847826 Z1.458824 F1000
G01 X46.288043 Y-4.847826 Z1.470588 F1000
G01 X49.277174 Y-4.847826 Z1.470588 F1000
G01 X49.413043 Y-4.847826 Z1.458824 F1000
G01 X51.858696 Y-4.847826 Z1.458824 F1000
G01 X51.994565 Y-4.847826 Z1.447059 F1000
G01 X53.081522 Y-4.847826 Z1.447059 F1000
G01 X53.217391 Y-4.847826 Z1.435294 F1000
G01 X53.896739 Y-4.847826 Z1.435294 F1000
G01 X54.032609 Y-4.847826 Z1.423529 F1000
G01 X54.440217 Y-4.847826 Z1.423529 F1000
G01 X54.576087 Y-4.847826 Z1.411765 F1000
G01 X55.255435 Y-4.847826 Z1.411765 F1000
G01 X55.391304 Y-4.847826 Z1.4 F1000
G01 X56.070652 Y-4.847826 Z1.4 F1000
G01 X56.206522 Y-4.847826 Z1.388235 F1000
G01 X57.429348 Y-4.847826 Z1.388235 F1000
G01 X57.565217 Y-4.847826 Z1.376471 F1000
G01 X57.972826 Y-4.847826 Z1.376471 F1000
G01 X58.108696 Y-4.847826 Z1.341176 F1000
G01 X58.380435 Y-4.847826 Z1.341176 F1000
G01 X58.516304 Y-4.847826 Z1.329412 F1000
G01 X58.923913 Y-4.847826 Z1.329412 F1000
G01 X59.059783 Y-4.847826 Z1.317647 F1000
G01 X59.195652 Y-4.847826 Z1.317647 F1000
G01 X59.331522 Y-4.847826 Z1.305882 F1000
G01 X60.282609 Y-4.847826 Z1.305882 F1000
G01 X60.418478 Y-4.847826 Z1.294118 F1000
G01 X60.554348 Y-4.847826 Z1.294118 F1000
G01 X60.690217 Y-4.847826 Z1.282353 F1000
G01 X60.826087 Y-4.847826 Z1.282353 F1000
G01 X60.961957 Y-4.847826 Z1.270588 F1000
G01 X61.233696 Y-4.847826 Z1.270588 F1000
G01 X61.369565 Y-4.847826 Z1.235294 F1000
G01 X61.641304 Y-4.847826 Z1.235294 F1000
G01 X61.777174 Y-4.847826 Z1.223529 F1000
G01 X61.913043 Y-4.847826 Z1.211765 F1000
G01 X62.456522 Y-4.847826 Z1.211765 F1000
G01 X62.592391 Y-4.847826 Z1.2 F1000
G01 X63 Y-4.847826 Z1.2 F1000
G01 X63.13587 Y-4.847826 Z1.188235 F1000
G01 X63.407609 Y-4.847826 Z1.188235 F1000
G01 X63.543478 Y-4.847826 Z1.176471 F1000
G01 X63.679348 Y-4.847826 Z1.164706 F1000
G01 X63.815217 Y-4.847826 Z1.164706 F1000
G01 X63.951087 Y-4.847826 Z1.152941 F1000
G01 X64.086957 Y-4.847826 Z1.141176 F1000
G01 X64.222826 Y-4.847826 Z1.129412 F1000
G01 X64.358696 Y-4.847826 Z1.129412 F1000
G01 X64.494565 Y-4.847826 Z1.117647 F1000
G01 X64.630435 Y-4.847826 Z1.082353 F1000
G01 X64.766304 Y-4.847826 Z1.082353 F1000
G01 X64.902174 Y-4.847826 Z1.070588 F1000
G01 X65.038043 Y-4.847826 Z1.070588 F1000
G01 X65.173913 Y-4.847826 Z1.058824 F1000
G01 X65.309783 Y-4.847826 Z1.047059 F1000
G01 X65.581522 Y-4.847826 Z1.047059 F1000
G01 X65.717391 Y-4.847826 Z1.011765 F1000
G01 X65.853261 Y-4.847826 Z1 F1000
G01 X65.98913 Y-4.847826 Z1 F1000
G01 X66.125 Y-4.847826 Z0.988235 F1000
G01 X66.26087 Y-4.847826 Z0.988235 F1000
G01 X66.396739 Y-4.847826 Z0.976471 F1000
G01 X66.532609 Y-4.847826 Z0.976471 F1000
G01 X66.668478 Y-4.847826 Z0.964706 F1000
G01 X66.804348 Y-4.847826 Z0.929412 F1000
G01 X66.940217 Y-4.847826 Z0.929412 F1000
G01 X67.076087 Y-4.847826 Z0.917647 F1000
G01 X67.211957 Y-4.847826 Z0.894118 F1000
G01 X67.755435 Y-4.847826 Z0.894118 F1000
G01 X67.891304 Y-4.847826 Z0.882353 F1000
G01 X68.163043 Y-4.847826 Z0.882353 F1000
G01 X68.298913 Y-4.847826 Z0.847059 F1000
G01 X68.434783 Y-4.847826 Z0.776471 F1000
G01 X68.570652 Y-4.847826 Z0.717647 F1000
G01 X68.706522 Y-4.847826 Z0.705882 F1000
G01 X68.842391 Y-4.847826 Z0.705882 F1000
G01 X68.978261 Y-4.847826 Z0.682353 F1000
G01 X69.11413 Y-4.847826 Z0.611765 F1000
G01 X69.25 Y-4.847826 Z0.588235 F1000
G01 X69.38587 Y-4.847826 Z0.588235 F1000
G01 X69.521739 Y-4.847826 Z0.447059 F1000
G01 X69.657609 Y-4.847826 Z0.2 F1000
G01 X69.793478 Y-4.847826 Z0.105882 F1000
G01 X69.929348 Y-4.847826 Z0.105882 F1000
G01 X70.065217 Y-4.847826 Z0.011765 F1000
G01 X71.016304 Y-4.847826 Z0.011765 F1000
G01 X71.152174 Y-4.847826 Z0 F1000
G01 X99.548913 Y-4.847826 Z0 F1000
G01 X99.548913 Y-4.983696 Z0 F1000
G01 X99.548913 Y-5.119565 Z0 F1000
G01 X99.548913 Y-5.255435 Z0 F1000
G01 X99.548913 Y-5.391304 Z0 F1000
G01 X72.23913 Y-5.391304 Z0 F1000
G01 X72.103261 Y-5.391304 Z0.011765 F1000
G01 X71.967391 Y-5.391304 Z0.011765 F1000
G01 X71.831522 Y-5.391304 Z0.035294 F1000
G01 X71.695652 Y-5.391304 Z0.035294 F1000
G01 X71.559783 Y-5.391304 Z0.058824 F1000
G01 X70.880435 Y-5.391304 Z0.058824 F1000
G01 X70.744565 Y-5.391304 Z0.152941 F1000
G01 X70.608696 Y-5.391304 Z0.294118 F1000
G01 X70.472826 Y-5.391304 Z0.423529 F1000
G01 X70.336957 Y-5.391304 Z0.552941 F1000
G01 X70.201087 Y-5.391304 Z0.658824 F1000
G01 X70.065217 Y-5.391304 Z0.729412 F1000
G01 X69.793478 Y-5.391304 Z0.729412 F1000
G01 X69.657609 Y-5.391304 Z0.741176 F1000
G01 X69.521739 Y-5.391304 Z0.741176 F1000
G01 X69.38587 Y-5.391304 Z0.752941 F1000
G01 X69.25 Y-5.391304 Z0.823529 F1000
G01 X69.11413 Y-5.391304 Z0.858824 F1000
G01 X68.978261 Y-5.391304 Z0.870588 F1000
G01 X68.706522 Y-5.391304 Z0.870588 F1000
G01 X68.570652 Y-5.391304 Z0.894118 F1000
G01 X68.298913 Y-5.391304 Z0.894118 F1000
G01 X68.163043 Y-5.391304 Z0.905882 F1000
G01 X68.027174 Y-5.391304 Z0.929412 F1000
G01 X67.891304 Y-5.391304 Z0.941176 F1000
G01 X67.755435 Y-5.391304 Z0.976471 F1000
G01 X67.619565 Y-5.391304 Z0.976471 F1000
G01 X67.483696 Y-5.391304 Z0.988235 F1000
G01 X67.211957 Y-5.391304 Z0.988235 F1000
G01 X67.076087 Y-5.391304 Z1 F1000
G01 X66.804348 Y-5.391304 Z1 F1000
G01 X66.668478 Y-5.391304 Z1.035294 F1000
G01 X66.532609 Y-5.391304 Z1.035294 F1000
G01 X66.396739 Y-5.391304 Z1.047059 F1000
G01 X66.26087 Y-5.391304 Z1.058824 F1000
G01 X66.125 Y-5.391304 Z1.070588 F1000
G01 X65.98913 Y-5.391304 Z1.082353 F1000
G01 X65.853261 Y-5.391304 Z1.094118 F1000
G01 X65.717391 Y-5.391304 Z1.094118 F1000
G01 X65.581522 Y-5.391304 Z1.105882 F1000
G01 X65.445652 Y-5.391304 Z1.117647 F1000
G01 X65.309783 Y-5.391304 Z1.117647 F1000
G01 X65.173913 Y-5.391304 Z1.129412 F1000
G01 X65.038043 Y-5.391304 Z1.152941 F1000
G01 X64.902174 Y-5.391304 Z1.164706 F1000
G01 X64.766304 Y-5.391304 Z1.164706 F1000
G01 X64.630435 Y-5.391304 Z1.176471 F1000
G01 X64.222826 Y-5.391304 Z1.176471 F1000
G01 X64.086957 Y-5.391304 Z1.188235 F1000
G01 X63.951087 Y-5.391304 Z1.188235 F1000
G01 X63.815217 Y-5.391304 Z1.2 F1000
G01 X63.543478 Y-5.391304 Z1.2 F1000
G01 X63.407609 Y-5.391304 Z1.211765 F1000
G01 X63.13587 Y-5.391304 Z1.211765 F1000
G01 X63 Y-5.391304 Z1.223529 F1000
G01 X62.86413 Y-5.391304 Z1.223529 F1000
G01 X62.728261 Y-5.391304 Z1.235294 F1000
G01 X62.456522 Y-5.391304 Z1.235294 F1000
G01 X62.320652 Y-5.391304 Z1.247059 F1000
G01 X62.184783 Y-5.391304 Z1.258824 F1000
G01 X62.048913 Y-5.391304 Z1.258824 F1000
G01 X61.913043 Y-5.391304 Z1.270588 F1000
G01 X61.777174 Y-5.391304 Z1.282353 F1000
G01 X61.641304 Y-5.391304 Z1.294118 F1000
G01 X61.505435 Y-5.391304 Z1.294118 F1000
G01 X61.369565 Y-5.391304 Z1.305882 F1000
G01 X60.961957 Y-5.391304 Z1.305882 F1000
G01 X60.826087 Y-5.391304 Z1.317647 F1000
G01 X60.282609 Y-5.391304 Z1.317647 F1000
G01 X60.146739 Y-5.391304 Z1.329412 F1000
G01 X59.875 Y-5.391304 Z1.329412 F1000
G01 X59.73913 Y-5.391304 Z1.341176 F1000
G01 X59.603261 Y-5.391304 Z1.341176 F1000
G01 X59.467391 Y-5.391304 Z1.352941 F1000
G01 X59.195652 Y-5.391304 Z1.352941 F1000
G01 X59.059783 Y-5.391304 Z1.364706 F1000
G01 X58.923913 Y-5.391304 Z1.376471 F1000
G01 X58.652174 Y-5.391304 Z1.376471 F1000
G01 X58.516304 Y-5.391304 Z1.388235 F1000
G01 X58.380435 Y-5.391304 Z1.4 F1000
G01 X57.836957 Y-5.391304 Z1.4 F1000
G01 X57.701087 Y-5.391304 Z1.411765 F1000
G01 X57.293478 Y-5.391304 Z1.411765 F1000
G01 X57.157609 Y-5.391304 Z1.423529 F1000
G01 X56.478261 Y-5.391304 Z1.423529 F1000
G01 X56.342391 Y-5.391304 Z1.435294 F1000
G01 X55.934783 Y-5.391304 Z1.435294 F1000
G01 X55.798913 Y-5.391304 Z1.447059 F1000
G01 X55.527174 Y-5.391304 Z1.447059 F1000
G01 X55.391304 Y-5.391304 Z1.458824 F1000
G01 X54.304348 Y-5.391304 Z1.458824 F1000
G01 X54.168478 Y-5.391304 Z1.470588 F1000
G01 X53.48913 Y-5.391304 Z1.470588 F1000
G01 X53.353261 Y-5.391304 Z1.482353 F1000
G01 X52.945652 Y-5.391304 Z1.482353 F1000
G01 X52.809783 Y-5.391304 Z1.494118 F1000
G01 X50.5 Y-5.391304 Z1.494118 F1000
G01 X50.36413 Y-5.391304 Z1.505882 F1000
G01 X48.326087 Y-5.391304 Z1.505882 F1000
G01 X48.190217 Y-5.391304 Z1.517647 F1000
G01 X46.288043 Y-5.391304 Z1.517647 F1000
G01 X46.152174 Y-5.391304 Z1.505882 F1000
G01 X43.706522 Y-5.391304 Z1.505882 F1000
G01 X43.570652 Y-5.391304 Z1.494118 F1000
G01 X42.755435 Y-5.391304 Z1.494118 F1000
G01 X42.619565 Y-5.391304 Z1.482353 F1000
G01 X42.211957 Y-5.391304 Z1.482353 F1000
G01 X42.076087 Y-5.391304 Z1.470588 F1000
G01 X40.581522 Y-5.391304 Z1.470588 F1000
G01 X40.445652 Y-5.391304 Z1.458824 F1000
G01 X40.309783 Y-5.391304 Z1.458824 F1000
G01 X40.173913 Y-5.391304 Z1.447059 F1000
G01 X39.494565 Y-5.391304 Z1.447059 F1000
G01 X39.358696 Y-5.391304 Z1.435294 F1000
G01 X38.951087 Y-5.391304 Z1.435294 F1000
G01 X38.815217 Y-5.391304 Z1.423529 F1000
G01 X38.543478 Y-5.391304 Z1.423529 F1000
G01 X38.407609 Y-5.391304 Z1.411765 F1000
G01 X38 Y-5.391304 Z1.411765 F1000
G01 X37.86413 Y-5.391304 Z1.4 F1000
G01 X37.320652 Y-5.391304 Z1.4 F1000
G01 X37.184783 Y-5.391304 Z1.388235 F1000
G01 X37.048913 Y-5.391304 Z1.388235 F1000
G01 X36.913043 Y-5.391304 Z1.376471 F1000
G01 X36.777174 Y-5.391304 Z1.376471 F1000
G01 X36.641304 Y-5.391304 Z1.364706 F1000
G01 X36.097826 Y-5.391304 Z1.364706 F1000
G01 X35.961957 Y-5.391304 Z1.352941 F1000
G01 X35.554348 Y-5.391304 Z1.352941 F1000
G01 X35.418478 Y-5.391304 Z1.341176 F1000
G01 X35.282609 Y-5.391304 Z1.329412 F1000
G01 X35.01087 Y-5.391304 Z1.329412 F1000
G01 X34.875 Y-5.391304 Z1.317647 F1000
G01 X34.467391 Y-5.391304 Z1.317647 F1000
G01 X34.331522 Y-5.391304 Z1.305882 F1000
G01 X34.195652 Y-5.391304 Z1.305882 F1000
G01 X34.059783 Y-5.391304 Z1.294118 F1000
G01 X33.923913 Y-5.391304 Z1.294118 F1000
G01 X33.788043 Y-5.391304 Z1.282353 F1000
G01 X33.652174 Y-5.391304 Z1.282353 F1000
G01 X33.516304 Y-5.391304 Z1.270588 F1000
G01 X33.244565 Y-5.391304 Z1.270588 F1000
G01 X33.108696 Y-5.391304 Z1.247059 F1000
G01 X32.972826 Y-5.391304 Z1.247059 F1000
G01 X32.836957 Y-5.391304 Z1.235294 F1000
G01 X32.701087 Y-5.391304 Z1.223529 F1000
G01 X32.565217 Y-5.391304 Z1.211765 F1000
G01 X32.429348 Y-5.391304 Z1.211765 F1000
G01 X32.293478 Y-5.391304 Z1.2 F1000
G01 X32.157609 Y-5.391304 Z1.2 F1000
G01 X32.021739 Y-5.391304 Z1.188235 F1000
G01 X31.88587 Y-5.391304 Z1.188235 F1000
G01 X31.75 Y-5.391304 Z1.176471 F1000
G01 X31.61413 Y-5.391304 Z1.164706 F1000
G01 X31.478261 Y-5.391304 Z1.164706 F1000
G01 X31.342391 Y-5.391304 Z1.152941 F1000
G01 X31.206522 Y-5.391304 Z1.141176 F1000
G01 X31.070652 Y-5.391304 Z1.141176 F1000
G01 X30.934783 Y-5.391304 Z1.129412 F1000
G01 X30.798913 Y-5.391304 Z1.129412 F1000
G01 X30.663043 Y-5.391304 Z1.117647 F1000
G01 X30.527174 Y-5.391304 Z1.105882 F1000
G01 X30.391304 Y-5.391304 Z1.105882 F1000
G01 X30.255435 Y-5.391304 Z1.094118 F1000
G01 X30.119565 Y-5.391304 Z1.082353 F1000
G01 X29.983696 Y-5.391304 Z1.082353 F1000
G01 X29.847826 Y-5.391304 Z1.070588 F1000
G01 X29.711957 Y-5.391304 Z1.058824 F1000
G01 X29.576087 Y-5.391304 Z1.035294 F1000
G01 X29.440217 Y-5.391304 Z1 F1000
G01 X29.304348 Y-5.391304 Z0.964706 F1000
G01 X29.168478 Y-5.391304 Z0.941176 F1000
G01 X29.032609 Y-5.391304 Z0.917647 F1000
G01 X28.896739 Y-5.391304 Z0.905882 F1000
G01 X28.76087 Y-5.391304 Z0.835294 F1000
G01 X28.625 Y-5.391304 Z0.811765 F1000
G01 X28.48913 Y-5.391304 Z0.788235 F1000
G01 X28.353261 Y-5.391304 Z0.764706 F1000
G01 X28.217391 Y-5.391304 Z0.670588 F1000
G01 X28.081522 Y-5.391304 Z0.458824 F1000
G01 X27.945652 Y-5.391304 Z0.176471 F1000
G01 X27.809783 Y-5.391304 Z0.094118 F1000
G01 X27.673913 Y-5.391304 Z0.070588 F1000
G01 X27.266304 Y-5.391304 Z0.070588 F1000
G01 X27.130435 Y-5.391304 Z0.047059 F1000
G01 X26.722826 Y-5.391304 Z0.047059 F1000
G01 X26.586957 Y-5.391304 Z0.011765 F1000
G01 X25.63587 Y-5.391304 Z0.011765 F1000
G01 X25.5 Y-5.391304 Z0 F1000
G01 X0.36413 Y-5.391304 Z0 F1000
G01 X0.36413 Y-5.527174 Z0 F1000
G01 X0.36413 Y-5.663043 Z0 F1000
G01 X0.36413 Y-5.798913 Z0 F1000
G01 X0.36413 Y-5.934783 Z0 F1000
G01 X25.5 Y-5.934783 Z0 F1000
G01 X25.63587 Y-5.934783 Z0.011765 F1000
G01 X26.586957 Y-5.934783 Z0.011765 F1000
G01 X26.722826 Y-5.934783 Z0.058824 F1000
G01 X26.994565 Y-5.934783 Z0.058824 F1000
G01 X27.130435 Y-5.934783 Z0.094118 F1000
G01 X27.266304 Y-5.934783 Z0.4 F1000
G01 X27.402174 Y-5.934783 Z0.8 F1000
G01 X27.538043 Y-5.934783 Z0.917647 F1000
G01 X28.217391 Y-5.934783 Z0.917647 F1000
G01 X28.353261 Y-5.934783 Z0.964706 F1000
G01 X28.48913 Y-5.934783 Z0.988235 F1000
G01 X28.625 Y-5.934783 Z1 F1000
G01 X28.76087 Y-5.934783 Z1.035294 F1000
G01 X29.032609 Y-5.934783 Z1.035294 F1000
G01 X29.168478 Y-5.934783 Z1.058824 F1000
G01 X29.304348 Y-5.934783 Z1.070588 F1000
G01 X29.440217 Y-5.934783 Z1.094118 F1000
G01 X29.576087 Y-5.934783 Z1.117647 F1000
G01 X29.711957 Y-5.934783 Z1.129412 F1000
G01 X29.847826 Y-5.934783 Z1.141176 F1000
G01 X29.983696 Y-5.934783 Z1.152941 F1000
G01 X30.391304 Y-5.934783 Z1.152941 F1000
G01 X30.527174 Y-5.934783 Z1.164706 F1000
G01 X30.934783 Y-5.934783 Z1.164706 F1000
G01 X31.070652 Y-5.934783 Z1.223529 F1000
G01 X31.342391 Y-5.934783 Z1.223529 F1000
G01 X31.478261 Y-5.934783 Z1.235294 F1000
G01 X31.61413 Y-5.934783 Z1.247059 F1000
G01 X31.75 Y-5.934783 Z1.258824 F1000
G01 X31.88587 Y-5.934783 Z1.258824 F1000
G01 X32.021739 Y-5.934783 Z1.270588 F1000
G01 X32.429348 Y-5.934783 Z1.270588 F1000
G01 X32.565217 Y-5.934783 Z1.282353 F1000
G01 X32.701087 Y-5.934783 Z1.294118 F1000
G01 X32.836957 Y-5.934783 Z1.294118 F1000
G01 X32.972826 Y-5.934783 Z1.305882 F1000
G01 X33.108696 Y-5.934783 Z1.305882 F1000
G01 X33.244565 Y-5.934783 Z1.329412 F1000
G01 X33.380435 Y-5.934783 Z1.329412 F1000
G01 X33.516304 Y-5.934783 Z1.341176 F1000
G01 X33.652174 Y-5.934783 Z1.341176 F1000
G01 X33.788043 Y-5.934783 Z1.352941 F1000
G01 X33.923913 Y-5.934783 Z1.352941 F1000
G01 X34.059783 Y-5.934783 Z1.364706 F1000
G01 X34.195652 Y-5.934783 Z1.364706 F1000
G01 X34.331522 Y-5.934783 Z1.376471 F1000
G01 X34.875 Y-5.934783 Z1.376471 F1000
G01 X35.01087 Y-5.934783 Z1.388235 F1000
G01 X35.282609 Y-5.934783 Z1.388235 F1000
G01 X35.418478 Y-5.934783 Z1.411765 F1000
G01 X35.961957 Y-5.934783 Z1.411765 F1000
G01 X36.097826 Y-5.934783 Z1.423529 F1000
G01 X36.913043 Y-5.934783 Z1.423529 F1000
G01 X37.048913 Y-5.934783 Z1.435294 F1000
G01 X37.184783 Y-5.934783 Z1.447059 F1000
G01 X37.728261 Y-5.934783 Z1.447059 F1000
G01 X37.86413 Y-5.934783 Z1.458824 F1000
G01 X38.271739 Y-5.934783 Z1.458824 F1000
G01 X38.407609 Y-5.934783 Z1.470588 F1000
G01 X38.543478 Y-5.934783 Z1.470588 F1000
G01 X38.679348 Y-5.934783 Z1.482353 F1000
G01 X39.222826 Y-5.934783 Z1.482353 F1000
G01 X39.358696 Y-5.934783 Z1.494118 F1000
G01 X40.173913 Y-5.934783 Z1.494118 F1000
G01 X40.309783 Y-5.934783 Z1.505882 F1000
G01 X40.445652 Y-5.934783 Z1.517647 F1000
G01 X42.619565 Y-5.934783 Z1.517647 F1000
G01 X42.755435 Y-5.934783 Z1.529412 F1000
G01 X42.891304 Y-5.934783 Z1.529412 F1000
G01 X43.027174 Y-5.934783 Z1.541176 F1000
G01 X43.434783 Y-5.934783 Z1.541176 F1000
G01 X43.570652 Y-5.934783 Z1.552941 F1000
G01 X46.152174 Y-5.934783 Z1.552941 F1000
G01 X46.288043 Y-5.934783 Z1.564706 F1000
G01 X48.190217 Y-5.934783 Z1.564706 F1000
G01 X48.326087 Y-5.934783 Z1.552941 F1000
G01 X50.36413 Y-5.934783 Z1.552941 F1000
G01 X50.5 Y-5.934783 Z1.541176 F1000
G01 X52.538043 Y-5.934783 Z1.541176 F1000
G01 X52.673913 Y-5.934783 Z1.529412 F1000
G01 X52.809783 Y-5.934783 Z1.529412 F1000
G01 X52.945652 Y-5.934783 Z1.517647 F1000
G01 X53.48913 Y-5.934783 Z1.517647 F1000
G01 X53.625 Y-5.934783 Z1.505882 F1000
G01 X54.847826 Y-5.934783 Z1.505882 F1000
G01 X54.983696 Y-5.934783 Z1.494118 F1000
G01 X55.391304 Y-5.934783 Z1.494118 F1000
G01 X55.527174 Y-5.934783 Z1.482353 F1000
G01 X55.798913 Y-5.934783 Z1.482353 F1000
G01 X55.934783 Y-5.934783 Z1.470588 F1000
G01 X56.342391 Y-5.934783 Z1.470588 F1000
G01 X56.478261 Y-5.934783 Z1.458824 F1000
G01 X57.157609 Y-5.934783 Z1.458824 F1000
G01 X57.293478 Y-5.934783 Z1.447059 F1000
G01 X57.836957 Y-5.934783 Z1.447059 F1000
G01 X57.972826 Y-5.934783 Z1.435294 F1000
G01 X58.380435 Y-5.934783 Z1.435294 F1000
G01 X58.516304 Y-5.934783 Z1.423529 F1000
G01 X58.652174 Y-5.934783 Z1.423529 F1000
G01 X58.788043 Y-5.934783 Z1.411765 F1000
G01 X58.923913 Y-5.934783 Z1.411765 F1000
G01 X59.059783 Y-5.934783 Z1.4 F1000
G01 X59.195652 Y-5.934783 Z1.388235 F1000
G01 X59.467391 Y-5.934783 Z1.388235 F1000
G01 X59.603261 Y-5.934783 Z1.376471 F1000
G01 X59.73913 Y-5.934783 Z1.376471 F1000
G01 X59.875 Y-5.934783 Z1.364706 F1000
G01 X60.282609 Y-5.934783 Z1.364706 F1000
G01 X60.418478 Y-5.934783 Z1.352941 F1000
G01 X61.369565 Y-5.934783 Z1.352941 F1000
G01 X61.505435 Y-5.934783 Z1.341176 F1000
G01 X61.641304 Y-5.934783 Z1.341176 F1000
G01 X61.777174 Y-5.934783 Z1.329412 F1000
G01 X61.913043 Y-5.934783 Z1.317647 F1000
G01 X62.048913 Y-5.934783 Z1.317647 F1000
G01 X62.184783 Y-5.934783 Z1.305882 F1000
G01 X62.320652 Y-5.934783 Z1.305882 F1000
G01 X62.456522 Y-5.934783 Z1.294118 F1000
G01 X62.592391 Y-5.934783 Z1.282353 F1000
G01 X62.728261 Y-5.934783 Z1.282353 F1000
G01 X62.86413 Y-5.934783 Z1.270588 F1000
G01 X63 Y-5.934783 Z1.270588 F1000
G01 X63.13587 Y-5.934783 Z1.258824 F1000
G01 X63.543478 Y-5.934783 Z1.258824 F1000
G01 X63.679348 Y-5.934783 Z1.247059 F1000
G01 X63.815217 Y-5.934783 Z1.247059 F1000
G01 X63.951087 Y-5.934783 Z1.235294 F1000
G01 X64.766304 Y-5.934783 Z1.235294 F1000
G01 X64.902174 Y-5.934783 Z1.223529 F1000
G01 X65.038043 Y-5.934783 Z1.211765 F1000
G01 X65.173913 Y-5.934783 Z1.2 F1000
G01 X65.309783 Y-5.934783 Z1.188235 F1000
G01 X65.445652 Y-5.934783 Z1.176471 F1000
G01 X65.581522 Y-5.934783 Z1.176471 F1000
G01 X65.717391 Y-5.934783 Z1.152941 F1000
G01 X65.853261 Y-5.934783 Z1.152941 F1000
G01 X65.98913 Y-5.934783 Z1.141176 F1000
G01 X66.125 Y-5.934783 Z1.129412 F1000
G01 X66.26087 Y-5.934783 Z1.117647 F1000
G01 X66.396739 Y-5.934783 Z1.105882 F1000
G01 X66.532609 Y-5.934783 Z1.094118 F1000
G01 X66.668478 Y-5.934783 Z1.094118 F1000
G01 X66.804348 Y-5.934783 Z1.082353 F1000
G01 X67.076087 Y-5.934783 Z1.082353 F1000
G01 X67.211957 Y-5.934783 Z1.070588 F1000
G01 X67.347826 Y-5.934783 Z1.058824 F1000
G01 X67.483696 Y-5.934783 Z1.047059 F1000
G01 X67.619565 Y-5.934783 Z1.047059 F1000
G01 X67.755435 Y-5.934783 Z1.035294 F1000
G01 X67.891304 Y-5.934783 Z1.023529 F1000
G01 X68.027174 Y-5.934783 Z1.011765 F1000
G01 X68.163043 Y-5.934783 Z1 F1000
G01 X68.570652 Y-5.934783 Z1 F1000
G01 X68.706522 Y-5.934783 Z0.988235 F1000
G01 X68.842391 Y-5.934783 Z0.964706 F1000
G01 X68.978261 Y-5.934783 Z0.952941 F1000
G01 X69.11413 Y-5.934783 Z0.905882 F1000
G01 X69.521739 Y-5.934783 Z0.905882 F1000
G01 X69.657609 Y-5.934783 Z0.870588 F1000
G01 X69.929348 Y-5.934783 Z0.870588 F1000
G01 X70.065217 Y-5.934783 Z0.8 F1000
G01 X70.201087 Y-5.934783 Z0.776471 F1000
G01 X70.336957 Y-5.934783 Z0.752941 F1000
G01 X70.472826 Y-5.934783 Z0.752941 F1000
G01 X70.608696 Y-5.934783 Z0.741176 F1000
G01 X70.744565 Y-5.934783 Z0.717647 F1000
G01 X70.880435 Y-5.934783 Z0.694118 F1000
G01 X71.016304 Y-5.934783 Z0.670588 F1000
G01 X71.152174 Y-5.934783 Z0.658824 F1000
G01 X71.288043 Y-5.934783 Z0.611765 F1000
G01 X71.423913 Y-5.934783 Z0.494118 F1000
G01 X71.559783 Y-5.934783 Z0.329412 F1000
G01 X71.695652 Y-5.934783 Z0.164706 F1000
G01 X71.831522 Y-5.934783 Z0.047059 F1000
G01 X72.103261 Y-5.934783 Z0.047059 F1000
G01 X72.23913 Y-5.934783 Z0 F1000
G01 X99.548913 Y-5.934783 Z0 F1000
G01 X99.548913 Y-6.070652 Z0 F1000
G01 X99.548913 Y-6.206522 Z0 F1000
G01 X99.548913 Y-6.342391 Z0 F1000
G01 X99.548913 Y-6.478261 Z0 F1000
G01 X74.413043 Y-6.478261 Z0 F1000
G01 X74.277174 Y-6.478261 Z0.011765 F1000
G01 X74.005435 Y-6.478261 Z0.011765 F1000
G01 X73.869565 Y-6.478261 Z0.023529 F1000
G01 X73.597826 Y-6.478261 Z0.023529 F1000
G01 X73.461957 Y-6.478261 Z0.035294 F1000
G01 X73.054348 Y-6.478261 Z0.035294 F1000
G01 X72.918478 Y-6.478261 Z0.047059 F1000
G01 X72.782609 Y-6.478261 Z0.141176 F1000
G01 X72.646739 Y-6.478261 Z0.282353 F1000
G01 X72.51087 Y-6.478261 Z0.4 F1000
G01 X72.375 Y-6.478261 Z0.482353 F1000
G01 X72.23913 Y-6.478261 Z0.517647 F1000
G01 X72.103261 Y-6.478261 Z0.564706 F1000
G01 X71.967391 Y-6.478261 Z0.6 F1000
G01 X71.831522 Y-6.478261 Z0.647059 F1000
G01 X71.695652 Y-6.478261 Z0.670588 F1000
G01 X71.559783 Y-6.478261 Z0.694118 F1000
G01 X71.423913 Y-6.478261 Z0.717647 F1000
G01 X71.288043 Y-6.478261 Z0.752941 F1000
G01 X71.152174 Y-6.478261 Z0.776471 F1000
G01 X71.016304 Y-6.478261 Z0.788235 F1000
G01 X70.880435 Y-6.478261 Z0.811765 F1000
G01 X70.744565 Y-6.478261 Z0.835294 F1000
G01 X70.608696 Y-6.478261 Z0.858824 F1000
G01 X70.472826 Y-6.478261 Z0.858824 F1000
G01 X70.336957 Y-6.478261 Z0.882353 F1000
G01 X70.201087 Y-6.478261 Z0.905882 F1000
G01 X70.065217 Y-6.478261 Z0.929412 F1000
G01 X69.929348 Y-6.478261 Z0.929412 F1000
G01 X69.793478 Y-6.478261 Z0.941176 F1000
G01 X69.657609 Y-6.478261 Z0.952941 F1000
G01 X69.521739 Y-6.478261 Z0.964706 F1000
G01 X69.38587 Y-6.478261 Z0.976471 F1000
G01 X69.25 Y-6.478261 Z0.988235 F1000
G01 X69.11413 Y-6.478261 Z0.988235 F1000
G01 X68.978261 Y-6.478261 Z1 F1000
G01 X68.842391 Y-6.478261 Z1.023529 F1000
G01 X68.706522 Y-6.478261 Z1.035294 F1000
G01 X68.570652 Y-6.478261 Z1.047059 F1000
G01 X68.434783 Y-6.478261 Z1.058824 F1000
G01 X68.298913 Y-6.478261 Z1.070588 F1000
G01 X68.163043 Y-6.478261 Z1.082353 F1000
G01 X68.027174 Y-6.478261 Z1.094118 F1000
G01 X67.619565 Y-6.478261 Z1.094118 F1000
G01 X67.483696 Y-6.478261 Z1.105882 F1000
G01 X67.347826 Y-6.478261 Z1.117647 F1000
G01 X67.211957 Y-6.478261 Z1.129412 F1000
G01 X67.076087 Y-6.478261 Z1.141176 F1000
G01 X66.940217 Y-6.478261 Z1.152941 F1000
G01 X66.804348 Y-6.478261 Z1.152941 F1000
G01 X66.668478 Y-6.478261 Z1.176471 F1000
G01 X66.532609 Y-6.478261 Z1.176471 F1000
G01 X66.396739 Y-6.478261 Z1.188235 F1000
G01 X66.26087 Y-6.478261 Z1.2 F1000
G01 X66.125 Y-6.478261 Z1.2 F1000
G01 X65.98913 Y-6.478261 Z1.211765 F1000
G01 X65.853261 Y-6.478261 Z1.211765 F1000
G01 X65.717391 Y-6.478261 Z1.223529 F1000
G01 X65.581522 Y-6.478261 Z1.247059 F1000
G01 X65.173913 Y-6.478261 Z1.247059 F1000
G01 X65.038043 Y-6.478261 Z1.258824 F1000
G01 X64.766304 Y-6.478261 Z1.258824 F1000
G01 X64.630435 Y-6.478261 Z1.270588 F1000
G01 X64.494565 Y-6.478261 Z1.294118 F1000
G01 X64.358696 Y-6.478261 Z1.294118 F1000
G01 X64.222826 Y-6.478261 Z1.305882 F1000
G01 X64.086957 Y-6.478261 Z1.305882 F1000
G01 X63.951087 Y-6.478261 Z1.317647 F1000
G01 X63.815217 Y-6.478261 Z1.317647 F1000
G01 X63.679348 Y-6.478261 Z1.329412 F1000
G01 X63.13587 Y-6.478261 Z1.329412 F1000
G01 X63 Y-6.478261 Z1.341176 F1000
G01 X62.86413 Y-6.478261 Z1.341176 F1000
G01 X62.728261 Y-6.478261 Z1.352941 F1000
G01 X62.048913 Y-6.478261 Z1.352941 F1000
G01 X61.913043 Y-6.478261 Z1.364706 F1000
G01 X61.777174 Y-6.478261 Z1.364706 F1000
G01 X61.641304 Y-6.478261 Z1.376471 F1000
G01 X61.505435 Y-6.478261 Z1.376471 F1000
G01 X61.369565 Y-6.478261 Z1.388235 F1000
G01 X61.233696 Y-6.478261 Z1.388235 F1000
G01 X61.097826 Y-6.478261 Z1.4 F1000
G01 X60.961957 Y-6.478261 Z1.4 F1000
G01 X60.826087 Y-6.478261 Z1.411765 F1000
G01 X60.690217 Y-6.478261 Z1.411765 F1000
G01 X60.554348 Y-6.478261 Z1.423529 F1000
G01 X60.282609 Y-6.478261 Z1.423529 F1000
G01 X60.146739 Y-6.478261 Z1.435294 F1000
G01 X59.603261 Y-6.478261 Z1.435294 F1000
G01 X59.467391 Y-6.478261 Z1.447059 F1000
G01 X58.923913 Y-6.478261 Z1.447059 F1000
G01 X58.788043 Y-6.478261 Z1.458824 F1000
G01 X58.652174 Y-6.478261 Z1.458824 F1000
G01 X58.516304 Y-6.478261 Z1.470588 F1000
G01 X58.380435 Y-6.478261 Z1.470588 F1000
G01 X58.244565 Y-6.478261 Z1.482353 F1000
G01 X57.701087 Y-6.478261 Z1.482353 F1000
G01 X57.565217 Y-6.478261 Z1.494118 F1000
G01 X57.021739 Y-6.478261 Z1.494118 F1000
G01 X56.88587 Y-6.478261 Z1.505882 F1000
G01 X56.342391 Y-6.478261 Z1.505882 F1000
G01 X56.206522 Y-6.478261 Z1.517647 F1000
G01 X55.934783 Y-6.478261 Z1.517647 F1000
G01 X55.798913 Y-6.478261 Z1.529412 F1000
G01 X55.391304 Y-6.478261 Z1.529412 F1000
G01 X55.255435 Y-6.478261 Z1.541176 F1000
G01 X54.847826 Y-6.478261 Z1.541176 F1000
G01 X54.711957 Y-6.478261 Z1.552941 F1000
G01 X54.304348 Y-6.478261 Z1.552941 F1000
G01 X54.168478 Y-6.478261 Z1.564706 F1000
G01 X53.217391 Y-6.478261 Z1.564706 F1000
G01 X53.081522 Y-6.478261 Z1.576471 F1000
G01 X51.586957 Y-6.478261 Z1.576471 F1000
G01 X51.451087 Y-6.478261 Z1.588235 F1000
G01 X51.043478 Y-6.478261 Z1.588235 F1000
G01 X50.907609 Y-6.478261 Z1.6 F1000
G01 X49.820652 Y-6.478261 Z1.6 F1000
G01 X49.684783 Y-6.478261 Z1.611765 F1000
G01 X48.461957 Y-6.478261 Z1.611765 F1000
G01 X48.326087 Y-6.478261 Z1.6 F1000
G01 X48.190217 Y-6.478261 Z1.611765 F1000
G01 X46.288043 Y-6.478261 Z1.611765 F1000
G01 X46.152174 Y-6.478261 Z1.6 F1000
G01 X43.978261 Y-6.478261 Z1.6 F1000
G01 X43.842391 Y-6.478261 Z1.588235 F1000
G01 X43.434783 Y-6.478261 Z1.588235 F1000
G01 X43.298913 Y-6.478261 Z1.576471 F1000
G01 X41.396739 Y-6.478261 Z1.576471 F1000
G01 X41.26087 Y-6.478261 Z1.564706 F1000
G01 X40.717391 Y-6.478261 Z1.564706 F1000
G01 X40.581522 Y-6.478261 Z1.552941 F1000
G01 X40.173913 Y-6.478261 Z1.552941 F1000
G01 X40.038043 Y-6.478261 Z1.541176 F1000
G01 X39.222826 Y-6.478261 Z1.541176 F1000
G01 X39.086957 Y-6.478261 Z1.529412 F1000
G01 X38.679348 Y-6.478261 Z1.529412 F1000
G01 X38.543478 Y-6.478261 Z1.517647 F1000
G01 X38.407609 Y-6.478261 Z1.517647 F1000
G01 X38.271739 Y-6.478261 Z1.505882 F1000
G01 X37.86413 Y-6.478261 Z1.505882 F1000
G01 X37.728261 Y-6.478261 Z1.494118 F1000
G01 X37.456522 Y-6.478261 Z1.494118 F1000
G01 X37.320652 Y-6.478261 Z1.482353 F1000
G01 X36.913043 Y-6.478261 Z1.482353 F1000
G01 X36.777174 Y-6.478261 Z1.470588 F1000
G01 X36.369565 Y-6.478261 Z1.470588 F1000
G01 X36.233696 Y-6.478261 Z1.458824 F1000
G01 X35.690217 Y-6.478261 Z1.458824 F1000
G01 X35.554348 Y-6.478261 Z1.447059 F1000
G01 X34.73913 Y-6.478261 Z1.447059 F1000
G01 X34.603261 Y-6.478261 Z1.435294 F1000
G01 X34.331522 Y-6.478261 Z1.435294 F1000
G01 X34.195652 Y-6.478261 Z1.423529 F1000
G01 X34.059783 Y-6.478261 Z1.411765 F1000
G01 X33.923913 Y-6.478261 Z1.388235 F1000
G01 X33.516304 Y-6.478261 Z1.388235 F1000
G01 X33.380435 Y-6.478261 Z1.376471 F1000
G01 X33.244565 Y-6.478261 Z1.352941 F1000
G01 X32.836957 Y-6.478261 Z1.352941 F1000
G01 X32.701087 Y-6.478261 Z1.341176 F1000
G01 X32.565217 Y-6.478261 Z1.341176 F1000
G01 X32.429348 Y-6.478261 Z1.329412 F1000
G01 X32.293478 Y-6.478261 Z1.329412 F1000
G01 X32.157609 Y-6.478261 Z1.317647 F1000
G01 X31.88587 Y-6.478261 Z1.317647 F1000
G01 X31.75 Y-6.478261 Z1.305882 F1000
G01 X31.61413 Y-6.478261 Z1.305882 F1000
G01 X31.478261 Y-6.478261 Z1.294118 F1000
G01 X31.342391 Y-6.478261 Z1.282353 F1000
G01 X31.206522 Y-6.478261 Z1.270588 F1000
G01 X30.798913 Y-6.478261 Z1.270588 F1000
G01 X30.663043 Y-6.478261 Z1.258824 F1000
G01 X30.527174 Y-6.478261 Z1.258824 F1000
G01 X30.391304 Y-6.478261 Z1.247059 F1000
G01 X30.255435 Y-6.478261 Z1.235294 F1000
G01 X30.119565 Y-6.478261 Z1.223529 F1000
G01 X29.983696 Y-6.478261 Z1.223529 F1000
G01 X29.847826 Y-6.478261 Z1.2 F1000
G01 X29.711957 Y-6.478261 Z1.176471 F1000
G01 X29.576087 Y-6.478261 Z1.152941 F1000
G01 X29.440217 Y-6.478261 Z1.141176 F1000
G01 X29.304348 Y-6.478261 Z1.141176 F1000
G01 X29.168478 Y-6.478261 Z1.129412 F1000
G01 X29.032609 Y-6.478261 Z1.117647 F1000
G01 X28.896739 Y-6.478261 Z1.094118 F1000
G01 X28.76087 Y-6.478261 Z1.082353 F1000
G01 X28.625 Y-6.478261 Z1.082353 F1000
G01 X28.48913 Y-6.478261 Z1.070588 F1000
G01 X28.353261 Y-6.478261 Z1.047059 F1000
G01 X28.217391 Y-6.478261 Z1.035294 F1000
G01 X28.081522 Y-6.478261 Z1.023529 F1000
G01 X27.945652 Y-6.478261 Z1.011765 F1000
G01 X27.809783 Y-6.478261 Z1.011765 F1000
G01 X27.673913 Y-6.478261 Z0.988235 F1000
G01 X27.538043 Y-6.478261 Z0.941176 F1000
G01 X27.402174 Y-6.478261 Z0.941176 F1000
G01 X27.266304 Y-6.478261 Z0.905882 F1000
G01 X27.130435 Y-6.478261 Z0.882353 F1000
G01 X26.994565 Y-6.478261 Z0.847059 F1000
G01 X26.858696 Y-6.478261 Z0.764706 F1000
G01 X26.722826 Y-6.478261 Z0.694118 F1000
G01 X26.586957 Y-6.478261 Z0.647059 F1000
G01 X26.451087 Y-6.478261 Z0.388235 F1000
G01 X26.315217 Y-6.478261 Z0.117647 F1000
G01 X26.179348 Y-6.478261 Z0.058824 F1000
G01 X25.63587 Y-6.478261 Z0.058824 F1000
G01 X25.5 Y-6.478261 Z0 F1000
G01 X0.36413 Y-6.478261 Z0 F1000
G01 X0.36413 Y-6.61413 Z0 F1000
G01 X0.36413 Y-6.75 Z0 F1000
G01 X0.36413 Y-6.88587 Z0 F1000
G01 X0.36413 Y-7.021739 Z0 F1000
G01 X21.152174 Y-7.021739 Z0 F1000
G01 X21.288043 Y-7.021739 Z0.011765 F1000
G01 X25.5 Y-7.021739 Z0.011765 F1000
G01 X25.63587 Y-7.021739 Z0.058824 F1000
G01 X25.771739 Y-7.021739 Z0.223529 F1000
G01 X25.907609 Y-7.021739 Z0.541176 F1000
G01 X26.043478 Y-7.021739 Z0.741176 F1000
G01 X26.179348 Y-7.021739 Z0.764706 F1000
G01 X26.315217 Y-7.021739 Z0.823529 F1000
G01 X26.451087 Y-7.021739 Z0.823529 F1000
G01 X26.586957 Y-7.021739 Z0.952941 F1000
G01 X26.858696 Y-7.021739 Z0.952941 F1000
G01 X26.994565 Y-7.021739 Z0.976471 F1000
G01 X27.266304 Y-7.021739 Z0.976471 F1000
G01 X27.402174 Y-7.021739 Z1.023529 F1000
G01 X27.538043 Y-7.021739 Z1.023529 F1000
G01 X27.673913 Y-7.021739 Z1.047059 F1000
G01 X27.809783 Y-7.021739 Z1.047059 F1000
G01 X27.945652 Y-7.021739 Z1.058824 F1000
G01 X28.081522 Y-7.021739 Z1.070588 F1000
G01 X28.217391 Y-7.021739 Z1.094118 F1000
G01 X28.353261 Y-7.021739 Z1.105882 F1000
G01 X28.48913 Y-7.021739 Z1.129412 F1000
G01 X28.625 Y-7.021739 Z1.141176 F1000
G01 X28.896739 Y-7.021739 Z1.141176 F1000
G01 X29.032609 Y-7.021739 Z1.164706 F1000
G01 X29.168478 Y-7.021739 Z1.188235 F1000
G01 X29.304348 Y-7.021739 Z1.188235 F1000
G01 X29.440217 Y-7.021739 Z1.2 F1000
G01 X29.576087 Y-7.021739 Z1.2 F1000
G01 X29.711957 Y-7.021739 Z1.223529 F1000
G01 X29.847826 Y-7.021739 Z1.247059 F1000
G01 X29.983696 Y-7.021739 Z1.282353 F1000
G01 X30.255435 Y-7.021739 Z1.282353 F1000
G01 X30.391304 Y-7.021739 Z1.294118 F1000
G01 X30.527174 Y-7.021739 Z1.305882 F1000
G01 X30.663043 Y-7.021739 Z1.317647 F1000
G01 X30.798913 Y-7.021739 Z1.317647 F1000
G01 X30.934783 Y-7.021739 Z1.329412 F1000
G01 X31.478261 Y-7.021739 Z1.329412 F1000
G01 X31.61413 Y-7.021739 Z1.341176 F1000
G01 X31.75 Y-7.021739 Z1.352941 F1000
G01 X32.021739 Y-7.021739 Z1.352941 F1000
G01 X32.157609 Y-7.021739 Z1.376471 F1000
G01 X32.429348 Y-7.021739 Z1.376471 F1000
G01 X32.565217 Y-7.021739 Z1.388235 F1000
G01 X32.701087 Y-7.021739 Z1.388235 F1000
G01 X32.836957 Y-7.021739 Z1.4 F1000
G01 X33.108696 Y-7.021739 Z1.4 F1000
G01 X33.244565 Y-7.021739 Z1.411765 F1000
G01 X33.380435 Y-7.021739 Z1.423529 F1000
G01 X33.516304 Y-7.021739 Z1.435294 F1000
G01 X33.652174 Y-7.021739 Z1.447059 F1000
G01 X33.923913 Y-7.021739 Z1.447059 F1000
G01 X34.059783 Y-7.021739 Z1.458824 F1000
G01 X34.195652 Y-7.021739 Z1.470588 F1000
G01 X34.331522 Y-7.021739 Z1.482353 F1000
G01 X34.467391 Y-7.021739 Z1.494118 F1000
G01 X35.01087 Y-7.021739 Z1.494118 F1000
G01 X35.146739 Y-7.021739 Z1.505882 F1000
G01 X35.282609 Y-7.021739 Z1.505882 F1000
G01 X35.418478 Y-7.021739 Z1.529412 F1000
G01 X35.961957 Y-7.021739 Z1.529412 F1000
G01 X36.097826 Y-7.021739 Z1.541176 F1000
G01 X37.456522 Y-7.021739 Z1.541176 F1000
G01 X37.592391 Y-7.021739 Z1.552941 F1000
G01 X38.13587 Y-7.021739 Z1.552941 F1000
G01 X38.271739 Y-7.021739 Z1.564706 F1000
G01 X39.086957 Y-7.021739 Z1.564706 F1000
G01 X39.222826 Y-7.021739 Z1.576471 F1000
G01 X39.630435 Y-7.021739 Z1.576471 F1000
G01 X39.766304 Y-7.021739 Z1.588235 F1000
G01 X39.902174 Y-7.021739 Z1.588235 F1000
G01 X40.038043 Y-7.021739 Z1.6 F1000
G01 X40.445652 Y-7.021739 Z1.6 F1000
G01 X40.581522 Y-7.021739 Z1.611765 F1000
G01 X42.891304 Y-7.021739 Z1.611765 F1000
G01 X43.027174 Y-7.021739 Z1.623529 F1000
G01 X43.163043 Y-7.021739 Z1.623529 F1000
G01 X43.298913 Y-7.021739 Z1.635294 F1000
G01 X43.706522 Y-7.021739 Z1.635294 F1000
G01 X43.842391 Y-7.021739 Z1.647059 F1000
G01 X44.929348 Y-7.021739 Z1.647059 F1000
G01 X45.065217 Y-7.021739 Z1.635294 F1000
G01 X45.201087 Y-7.021739 Z1.647059 F1000
G01 X50.63587 Y-7.021739 Z1.647059 F1000
G01 X50.771739 Y-7.021739 Z1.635294 F1000
G01 X51.179348 Y-7.021739 Z1.635294 F1000
G01 X51.315217 Y-7.021739 Z1.623529 F1000
G01 X51.451087 Y-7.021739 Z1.623529 F1000
G01 X51.586957 Y-7.021739 Z1.611765 F1000
G01 X53.896739 Y-7.021739 Z1.611765 F1000
G01 X54.032609 Y-7.021739 Z1.6 F1000
G01 X54.440217 Y-7.021739 Z1.6 F1000
G01 X54.576087 Y-7.021739 Z1.588235 F1000
G01 X54.711957 Y-7.021739 Z1.588235 F1000
G01 X54.847826 Y-7.021739 Z1.576471 F1000
G01 X55.255435 Y-7.021739 Z1.576471 F1000
G01 X55.391304 Y-7.021739 Z1.564706 F1000
G01 X55.798913 Y-7.021739 Z1.564706 F1000
G01 X55.934783 Y-7.021739 Z1.552941 F1000
G01 X56.206522 Y-7.021739 Z1.552941 F1000
G01 X56.342391 Y-7.021739 Z1.541176 F1000
G01 X57.021739 Y-7.021739 Z1.541176 F1000
G01 X57.157609 Y-7.021739 Z1.529412 F1000
G01 X57.565217 Y-7.021739 Z1.529412 F1000
G01 X57.701087 Y-7.021739 Z1.517647 F1000
G01 X58.244565 Y-7.021739 Z1.517647 F1000
G01 X58.380435 Y-7.021739 Z1.505882 F1000
G01 X58.516304 Y-7.021739 Z1.505882 F1000
G01 X58.652174 Y-7.021739 Z1.494118 F1000
G01 X58.788043 Y-7.021739 Z1.494118 F1000
G01 X58.923913 Y-7.021739 Z1.482353 F1000
G01 X59.467391 Y-7.021739 Z1.482353 F1000
G01 X59.603261 Y-7.021739 Z1.470588 F1000
G01 X60.282609 Y-7.021739 Z1.470588 F1000
G01 X60.418478 Y-7.021739 Z1.458824 F1000
G01 X60.554348 Y-7.021739 Z1.458824 F1000
G01 X60.690217 Y-7.021739 Z1.447059 F1000
G01 X60.826087 Y-7.021739 Z1.447059 F1000
G01 X60.961957 Y-7.021739 Z1.435294 F1000
G01 X61.233696 Y-7.021739 Z1.435294 F1000
G01 X61.369565 Y-7.021739 Z1.423529 F1000
G01 X61.505435 Y-7.021739 Z1.423529 F1000
G01 X61.641304 Y-7.021739 Z1.411765 F1000
G01 X61.777174 Y-7.021739 Z1.411765 F1000
G01 X61.913043 Y-7.021739 Z1.4 F1000
G01 X62.456522 Y-7.021739 Z1.4 F1000
G01 X62.592391 Y-7.021739 Z1.388235 F1000
G01 X62.728261 Y-7.021739 Z1.388235 F1000
G01 X62.86413 Y-7.021739 Z1.376471 F1000
G01 X63.815217 Y-7.021739 Z1.376471 F1000
G01 X63.951087 Y-7.021739 Z1.364706 F1000
G01 X64.086957 Y-7.021739 Z1.364706 F1000
G01 X64.222826 Y-7.021739 Z1.352941 F1000
G01 X64.358696 Y-7.021739 Z1.352941 F1000
G01 X64.494565 Y-7.021739 Z1.341176 F1000
G01 X64.630435 Y-7.021739 Z1.329412 F1000
G01 X64.766304 Y-7.021739 Z1.317647 F1000
G01 X64.902174 Y-7.021739 Z1.305882 F1000
G01 X65.038043 Y-7.021739 Z1.294118 F1000
G01 X65.173913 Y-7.021739 Z1.282353 F1000
G01 X65.309783 Y-7.021739 Z1.270588 F1000
G01 X65.445652 Y-7.021739 Z1.258824 F1000
G01 X65.581522 Y-7.021739 Z1.258824 F1000
G01 X65.717391 Y-7.021739 Z1.235294 F1000
G01 X66.668478 Y-7.021739 Z1.235294 F1000
G01 X66.804348 Y-7.021739 Z1.223529 F1000
G01 X66.940217 Y-7.021739 Z1.223529 F1000
G01 X67.076087 Y-7.021739 Z1.211765 F1000
G01 X67.211957 Y-7.021739 Z1.2 F1000
G01 X67.347826 Y-7.021739 Z1.188235 F1000
G01 X67.483696 Y-7.021739 Z1.176471 F1000
G01 X67.619565 Y-7.021739 Z1.164706 F1000
G01 X67.755435 Y-7.021739 Z1.164706 F1000
G01 X67.891304 Y-7.021739 Z1.152941 F1000
G01 X68.027174 Y-7.021739 Z1.152941 F1000
G01 X68.163043 Y-7.021739 Z1.141176 F1000
G01 X68.298913 Y-7.021739 Z1.129412 F1000
G01 X68.434783 Y-7.021739 Z1.117647 F1000
G01 X68.570652 Y-7.021739 Z1.105882 F1000
G01 X68.706522 Y-7.021739 Z1.094118 F1000
G01 X68.842391 Y-7.021739 Z1.094118 F1000
G01 X68.978261 Y-7.021739 Z1.058824 F1000
G01 X69.11413 Y-7.021739 Z1.058824 F1000
G01 X69.25 Y-7.021739 Z1.047059 F1000
G01 X69.38587 Y-7.021739 Z1.035294 F1000
G01 X69.521739 Y-7.021739 Z1.023529 F1000
G01 X69.657609 Y-7.021739 Z1.011765 F1000
G01 X69.793478 Y-7.021739 Z1 F1000
G01 X69.929348 Y-7.021739 Z1 F1000
G01 X70.065217 Y-7.021739 Z0.952941 F1000
G01 X70.201087 Y-7.021739 Z0.941176 F1000
G01 X70.336957 Y-7.021739 Z0.929412 F1000
G01 X70.744565 Y-7.021739 Z0.929412 F1000
G01 X70.880435 Y-7.021739 Z0.917647 F1000
G01 X71.016304 Y-7.021739 Z0.894118 F1000
G01 X71.152174 Y-7.021739 Z0.858824 F1000
G01 X71.423913 Y-7.021739 Z0.858824 F1000
G01 X71.559783 Y-7.021739 Z0.847059 F1000
G01 X71.695652 Y-7.021739 Z0.811765 F1000
G01 X71.831522 Y-7.021739 Z0.776471 F1000
G01 X71.967391 Y-7.021739 Z0.764706 F1000
G01 X72.103261 Y-7.021739 Z0.752941 F1000
G01 X72.23913 Y-7.021739 Z0.752941 F1000
G01 X72.375 Y-7.021739 Z0.694118 F1000
G01 X72.51087 Y-7.021739 Z0.647059 F1000
G01 X72.918478 Y-7.021739 Z0.647059 F1000
G01 X73.054348 Y-7.021739 Z0.576471 F1000
G01 X73.190217 Y-7.021739 Z0.505882 F1000
G01 X73.326087 Y-7.021739 Z0.423529 F1000
G01 X73.461957 Y-7.021739 Z0.305882 F1000
G01 X73.597826 Y-7.021739 Z0.141176 F1000
G01 X73.733696 Y-7.021739 Z0.035294 F1000
G01 X74.005435 Y-7.021739 Z0.035294 F1000
G01 X74.141304 Y-7.021739 Z0.023529 F1000
G01 X74.277174 Y-7.021739 Z0.011765 F1000
G01 X74.413043 Y-7.021739 Z0 F1000
G01 X99.548913 Y-7.021739 Z0 F1000
G01 X99.548913 Y-7.157609 Z0 F1000
G01 X99.548913 Y-7.293478 Z0 F1000
G01 X99.548913 Y-7.429348 Z0 F1000
G01 X99.548913 Y-7.565217 Z0 F1000
G01 X75.5 Y-7.565217 Z0 F1000
G01 X75.36413 Y-7.565217 Z0.011765 F1000
G01 X75.228261 Y-7.565217 Z0.011765 F1000
G01 X75.092391 Y-7.565217 Z0.023529 F1000
G01 X74.820652 Y-7.565217 Z0.023529 F1000
G01 X74.684783 Y-7.565217 Z0.047059 F1000
G01 X74.413043 Y-7.565217 Z0.047059 F1000
G01 X74.277174 Y-7.565217 Z0.070588 F1000
G01 X74.141304 Y-7.565217 Z0.176471 F1000
G01 X74.005435 Y-7.565217 Z0.329412 F1000
G01 X73.869565 Y-7.565217 Z0.435294 F1000
G01 X73.733696 Y-7.565217 Z0.541176 F1000
G01 X73.597826 Y-7.565217 Z0.6 F1000
G01 X73.461957 Y-7.565217 Z0.623529 F1000
G01 X73.326087 Y-7.565217 Z0.658824 F1000
G01 X73.190217 Y-7.565217 Z0.682353 F1000
G01 X73.054348 Y-7.565217 Z0.694118 F1000
G01 X72.918478 Y-7.565217 Z0.717647 F1000
G01 X72.782609 Y-7.565217 Z0.741176 F1000
G01 X72.646739 Y-7.565217 Z0.776471 F1000
G01 X72.51087 Y-7.565217 Z0.8 F1000
G01 X72.375 Y-7.565217 Z0.823529 F1000
G01 X72.23913 Y-7.565217 Z0.835294 F1000
G01 X72.103261 Y-7.565217 Z0.835294 F1000
G01 X71.967391 Y-7.565217 Z0.847059 F1000
G01 X71.831522 Y-7.565217 Z0.858824 F1000
G01 X71.695652 Y-7.565217 Z0.870588 F1000
G01 X71.559783 Y-7.565217 Z0.894118 F1000
G01 X71.423913 Y-7.565217 Z0.917647 F1000
G01 X71.288043 Y-7.565217 Z0.929412 F1000
G01 X71.152174 Y-7.565217 Z0.929412 F1000
G01 X71.016304 Y-7.565217 Z0.941176 F1000
G01 X70.880435 Y-7.565217 Z0.964706 F1000
G01 X70.744565 Y-7.565217 Z0.976471 F1000
G01 X70.608696 Y-7.565217 Z0.988235 F1000
G01 X70.472826 Y-7.565217 Z1 F1000
G01 X70.336957 Y-7.565217 Z1 F1000
G01 X70.201087 Y-7.565217 Z1.023529 F1000
G01 X70.065217 Y-7.565217 Z1.047059 F1000
G01 X69.793478 Y-7.565217 Z1.047059 F1000
G01 X69.657609 Y-7.565217 Z1.058824 F1000
G01 X69.521739 Y-7.565217 Z1.070588 F1000
G01 X69.38587 Y-7.565217 Z1.082353 F1000
G01 X69.25 Y-7.565217 Z1.094118 F1000
G01 X69.11413 Y-7.565217 Z1.105882 F1000
G01 X68.978261 Y-7.565217 Z1.105882 F1000
G01 X68.842391 Y-7.565217 Z1.117647 F1000
G01 X68.706522 Y-7.565217 Z1.141176 F1000
G01 X68.570652 Y-7.565217 Z1.152941 F1000
G01 X68.434783 Y-7.565217 Z1.164706 F1000
G01 X68.163043 Y-7.565217 Z1.164706 F1000
G01 X68.027174 Y-7.565217 Z1.188235 F1000
G01 X67.891304 Y-7.565217 Z1.2 F1000
G01 X67.755435 Y-7.565217 Z1.211765 F1000
G01 X67.483696 Y-7.565217 Z1.211765 F1000
G01 X67.347826 Y-7.565217 Z1.223529 F1000
G01 X67.211957 Y-7.565217 Z1.223529 F1000
G01 X67.076087 Y-7.565217 Z1.235294 F1000
G01 X66.940217 Y-7.565217 Z1.235294 F1000
G01 X66.804348 Y-7.565217 Z1.247059 F1000
G01 X66.668478 Y-7.565217 Z1.258824 F1000
G01 X66.532609 Y-7.565217 Z1.270588 F1000
G01 X66.396739 Y-7.565217 Z1.282353 F1000
G01 X66.26087 Y-7.565217 Z1.294118 F1000
G01 X66.125 Y-7.565217 Z1.294118 F1000
G01 X65.98913 Y-7.565217 Z1.305882 F1000
G01 X65.717391 Y-7.565217 Z1.305882 F1000
G01 X65.581522 Y-7.565217 Z1.329412 F1000
G01 X64.630435 Y-7.565217 Z1.329412 F1000
G01 X64.494565 Y-7.565217 Z1.364706 F1000
G01 X64.358696 Y-7.565217 Z1.364706 F1000
G01 X64.222826 Y-7.565217 Z1.388235 F1000
G01 X64.086957 Y-7.565217 Z1.4 F1000
G01 X63.951087 Y-7.565217 Z1.411765 F1000
G01 X63.543478 Y-7.565217 Z1.411765 F1000
G01 X63.407609 Y-7.565217 Z1.423529 F1000
G01 X63.13587 Y-7.565217 Z1.423529 F1000
G01 X63 Y-7.565217 Z1.435294 F1000
G01 X62.86413 Y-7.565217 Z1.435294 F1000
G01 X62.728261 Y-7.565217 Z1.447059 F1000
G01 X62.320652 Y-7.565217 Z1.447059 F1000
G01 X62.184783 Y-7.565217 Z1.458824 F1000
G01 X61.777174 Y-7.565217 Z1.458824 F1000
G01 X61.641304 Y-7.565217 Z1.470588 F1000
G01 X61.097826 Y-7.565217 Z1.470588 F1000
G01 X60.961957 Y-7.565217 Z1.482353 F1000
G01 X60.826087 Y-7.565217 Z1.482353 F1000
G01 X60.690217 Y-7.565217 Z1.494118 F1000
G01 X60.554348 Y-7.565217 Z1.494118 F1000
G01 X60.418478 Y-7.565217 Z1.505882 F1000
G01 X59.875 Y-7.565217 Z1.505882 F1000
G01 X59.73913 Y-7.565217 Z1.517647 F1000
G01 X59.603261 Y-7.565217 Z1.517647 F1000
G01 X59.467391 Y-7.565217 Z1.529412 F1000
G01 X59.195652 Y-7.565217 Z1.529412 F1000
G01 X59.059783 Y-7.565217 Z1.541176 F1000
G01 X58.516304 Y-7.565217 Z1.541176 F1000
G01 X58.380435 Y-7.565217 Z1.552941 F1000
G01 X58.108696 Y-7.565217 Z1.552941 F1000
G01 X57.972826 Y-7.565217 Z1.564706 F1000
G01 X57.565217 Y-7.565217 Z1.564706 F1000
G01 X57.429348 Y-7.565217 Z1.576471 F1000
G01 X57.021739 Y-7.565217 Z1.576471 F1000
G01 X56.88587 Y-7.565217 Z1.588235 F1000
G01 X56.61413 Y-7.565217 Z1.588235 F1000
G01 X56.478261 Y-7.565217 Z1.6 F1000
G01 X55.934783 Y-7.565217 Z1.6 F1000
G01 X55.798913 Y-7.565217 Z1.611765 F1000
G01 X55.663043 Y-7.565217 Z1.611765 F1000
G01 X55.527174 Y-7.565217 Z1.623529 F1000
G01 X55.119565 Y-7.565217 Z1.623529 F1000
G01 X54.983696 Y-7.565217 Z1.635294 F1000
G01 X53.76087 Y-7.565217 Z1.635294 F1000
G01 X53.625 Y-7.565217 Z1.647059 F1000
G01 X53.081522 Y-7.565217 Z1.647059 F1000
G01 X52.945652 Y-7.565217 Z1.658824 F1000
G01 X51.858696 Y-7.565217 Z1.658824 F1000
G01 X51.722826 Y-7.565217 Z1.670588 F1000
G01 X49.413043 Y-7.565217 Z1.670588 F1000
G01 X49.277174 Y-7.565217 Z1.682353 F1000
G01 X47.646739 Y-7.565217 Z1.682353 F1000
G01 X47.51087 Y-7.565217 Z1.694118 F1000
G01 X46.288043 Y-7.565217 Z1.694118 F1000
G01 X46.152174 Y-7.565217 Z1.682353 F1000
G01 X45.065217 Y-7.565217 Z1.682353 F1000
G01 X44.929348 Y-7.565217 Z1.694118 F1000
G01 X43.706522 Y-7.565217 Z1.694118 F1000
G01 X43.570652 Y-7.565217 Z1.682353 F1000
G01 X42.619565 Y-7.565217 Z1.682353 F1000
G01 X42.483696 Y-7.565217 Z1.670588 F1000
G01 X40.853261 Y-7.565217 Z1.670588 F1000
G01 X40.717391 Y-7.565217 Z1.647059 F1000
G01 X39.358696 Y-7.565217 Z1.647059 F1000
G01 X39.222826 Y-7.565217 Z1.635294 F1000
G01 X38.679348 Y-7.565217 Z1.635294 F1000
G01 X38.543478 Y-7.565217 Z1.611765 F1000
G01 X38.271739 Y-7.565217 Z1.611765 F1000
G01 X38.13587 Y-7.565217 Z1.6 F1000
G01 X37.048913 Y-7.565217 Z1.6 F1000
G01 X36.913043 Y-7.565217 Z1.588235 F1000
G01 X36.369565 Y-7.565217 Z1.588235 F1000
G01 X36.233696 Y-7.565217 Z1.576471 F1000
G01 X36.097826 Y-7.565217 Z1.564706 F1000
G01 X35.961957 Y-7.565217 Z1.552941 F1000
G01 X35.01087 Y-7.565217 Z1.552941 F1000
G01 X34.875 Y-7.565217 Z1.541176 F1000
G01 X34.73913 Y-7.565217 Z1.541176 F1000
G01 X34.603261 Y-7.565217 Z1.529412 F1000
G01 X34.331522 Y-7.565217 Z1.529412 F1000
G01 X34.195652 Y-7.565217 Z1.505882 F1000
G01 X33.923913 Y-7.565217 Z1.505882 F1000
G01 X33.788043 Y-7.565217 Z1.494118 F1000
G01 X33.652174 Y-7.565217 Z1.482353 F1000
G01 X33.380435 Y-7.565217 Z1.482353 F1000
G01 X33.244565 Y-7.565217 Z1.470588 F1000
G01 X33.108696 Y-7.565217 Z1.458824 F1000
G01 X32.836957 Y-7.565217 Z1.458824 F1000
G01 X32.701087 Y-7.565217 Z1.447059 F1000
G01 X32.565217 Y-7.565217 Z1.447059 F1000
G01 X32.429348 Y-7.565217 Z1.435294 F1000
G01 X32.293478 Y-7.565217 Z1.435294 F1000
G01 X32.157609 Y-7.565217 Z1.423529 F1000
G01 X32.021739 Y-7.565217 Z1.411765 F1000
G01 X31.88587 Y-7.565217 Z1.411765 F1000
G01 X31.75 Y-7.565217 Z1.4 F1000
G01 X31.61413 Y-7.565217 Z1.4 F1000
G01 X31.478261 Y-7.565217 Z1.388235 F1000
G01 X31.342391 Y-7.565217 Z1.376471 F1000
G01 X31.206522 Y-7.565217 Z1.376471 F1000
G01 X31.070652 Y-7.565217 Z1.364706 F1000
G01 X30.798913 Y-7.565217 Z1.364706 F1000
G01 X30.663043 Y-7.565217 Z1.352941 F1000
G01 X30.527174 Y-7.565217 Z1.352941 F1000
G01 X30.391304 Y-7.565217 Z1.341176 F1000
G01 X30.255435 Y-7.565217 Z1.329412 F1000
G01 X30.119565 Y-7.565217 Z1.317647 F1000
G01 X29.847826 Y-7.565217 Z1.317647 F1000
G01 X29.711957 Y-7.565217 Z1.294118 F1000
G01 X29.576087 Y-7.565217 Z1.270588 F1000
G01 X29.440217 Y-7.565217 Z1.270588 F1000
G01 X29.304348 Y-7.565217 Z1.258824 F1000
G01 X29.168478 Y-7.565217 Z1.258824 F1000
G01 X29.032609 Y-7.565217 Z1.235294 F1000
G01 X28.896739 Y-7.565217 Z1.211765 F1000
G01 X28.76087 Y-7.565217 Z1.2 F1000
G01 X28.625 Y-7.565217 Z1.2 F1000
G01 X28.48913 Y-7.565217 Z1.188235 F1000
G01 X28.353261 Y-7.565217 Z1.176471 F1000
G01 X28.217391 Y-7.565217 Z1.152941 F1000
G01 X28.081522 Y-7.565217 Z1.141176 F1000
G01 X27.945652 Y-7.565217 Z1.117647 F1000
G01 X27.809783 Y-7.565217 Z1.105882 F1000
G01 X27.673913 Y-7.565217 Z1.070588 F1000
G01 X27.538043 Y-7.565217 Z1.058824 F1000
G01 X27.402174 Y-7.565217 Z1.047059 F1000
G01 X27.266304 Y-7.565217 Z1.035294 F1000
G01 X27.130435 Y-7.565217 Z1.023529 F1000
G01 X26.994565 Y-7.565217 Z1 F1000
G01 X26.858696 Y-7.565217 Z0.976471 F1000
G01 X26.586957 Y-7.565217 Z0.976471 F1000
G01 X26.451087 Y-7.565217 Z0.941176 F1000
G01 X26.315217 Y-7.565217 Z1.211765 F1000
G01 X26.179348 Y-7.565217 Z1.458824 F1000
G01 X25.228261 Y-7.565217 Z1.458824 F1000
G01 X25.092391 Y-7.565217 Z1.447059 F1000
G01 X24.956522 Y-7.565217 Z1.388235 F1000
G01 X24.548913 Y-7.565217 Z1.388235 F1000
G01 X24.413043 Y-7.565217 Z1.352941 F1000
G01 X23.461957 Y-7.565217 Z1.352941 F1000
G01 X23.326087 Y-7.565217 Z1.282353 F1000
G01 X23.190217 Y-7.565217 Z1.270588 F1000
G01 X23.054348 Y-7.565217 Z1.235294 F1000
G01 X22.918478 Y-7.565217 Z1.223529 F1000
G01 X22.375 Y-7.565217 Z1.223529 F1000
G01 X22.23913 Y-7.565217 Z1.188235 F1000
G01 X22.103261 Y-7.565217 Z1.129412 F1000
G01 X21.967391 Y-7.565217 Z1.129412 F1000
G01 X21.831522 Y-7.565217 Z1.117647 F1000
G01 X21.695652 Y-7.565217 Z1.047059 F1000
G01 X21.559783 Y-7.565217 Z0.858824 F1000
G01 X21.423913 Y-7.565217 Z0.588235 F1000
G01 X21.288043 Y-7.565217 Z0.388235 F1000
G01 X21.152174 Y-7.565217 Z0.141176 F1000
G01 X21.016304 Y-7.565217 Z0.117647 F1000
G01 X20.880435 Y-7.565217 Z0.070588 F1000
G01 X19.929348 Y-7.565217 Z0.070588 F1000
G01 X19.793478 Y-7.565217 Z0.047059 F1000
G01 X19.657609 Y-7.565217 Z0.035294 F1000
G01 X19.38587 Y-7.565217 Z0.035294 F1000
G01 X19.25 Y-7.565217 Z0.023529 F1000
G01 X19.11413 Y-7.565217 Z0 F1000
G01 X0.36413 Y-7.565217 Z0 F1000
G01 X0.36413 Y-7.701087 Z0 F1000
G01 X0.36413 Y-7.836957 Z0 F1000
G01 X0.36413 Y-7.972826 Z0 F1000
G01 X0.36413 Y-8.108696 Z0 F1000
G01 X18.978261 Y-8.108696 Z0 F1000
G01 X19.11413 Y-8.108696 Z0.047059 F1000
G01 X19.38587 Y-8.108696 Z0.047059 F1000
G01 X19.521739 Y-8.108696 Z0.058824 F1000
G01 X19.657609 Y-8.108696 Z0.070588 F1000
G01 X19.793478 Y-8.108696 Z0.070588 F1000
G01 X19.929348 Y-8.108696 Z0.270588 F1000
G01 X20.065217 Y-8.108696 Z0.494118 F1000
G01 X20.201087 Y-8.108696 Z0.929412 F1000
G01 X20.336957 Y-8.108696 Z1.058824 F1000
G01 X20.472826 Y-8.108696 Z1.117647 F1000
G01 X20.608696 Y-8.108696 Z1.117647 F1000
G01 X20.744565 Y-8.108696 Z1.129412 F1000
G01 X20.880435 Y-8.108696 Z1.176471 F1000
G01 X21.016304 Y-8.108696 Z1.188235 F1000
G01 X21.152174 Y-8.108696 Z1.188235 F1000
G01 X21.288043 Y-8.108696 Z1.235294 F1000
G01 X21.559783 Y-8.108696 Z1.235294 F1000
G01 X21.695652 Y-8.108696 Z1.247059 F1000
G01 X21.831522 Y-8.108696 Z1.282353 F1000
G01 X21.967391 Y-8.108696 Z1.341176 F1000
G01 X22.646739 Y-8.108696 Z1.341176 F1000
G01 X22.782609 Y-8.108696 Z1.364706 F1000
G01 X22.918478 Y-8.108696 Z1.4 F1000
G01 X23.054348 Y-8.108696 Z1.435294 F1000
G01 X23.597826 Y-8.108696 Z1.435294 F1000
G01 X23.733696 Y-8.108696 Z1.447059 F1000
G01 X24.005435 Y-8.108696 Z1.447059 F1000
G01 X24.141304 Y-8.108696 Z1.458824 F1000
G01 X24.277174 Y-8.108696 Z1.470588 F1000
G01 X24.413043 Y-8.108696 Z1.517647 F1000
G01 X24.548913 Y-8.108696 Z1.552941 F1000
G01 X24.956522 Y-8.108696 Z1.552941 F1000
G01 X25.092391 Y-8.108696 Z1.564706 F1000
G01 X25.228261 Y-8.108696 Z1.588235 F1000
G01 X26.179348 Y-8.108696 Z1.588235 F1000
G01 X26.315217 Y-8.108696 Z1.541176 F1000
G01 X27.673913 Y-8.108696 Z1.541176 F1000
G01 X27.809783 Y-8.108696 Z1.470588 F1000
G01 X27.945652 Y-8.108696 Z1.364706 F1000
G01 X28.081522 Y-8.108696 Z1.258824 F1000
G01 X28.217391 Y-8.108696 Z1.223529 F1000
G01 X28.353261 Y-8.108696 Z1.235294 F1000
G01 X28.48913 Y-8.108696 Z1.247059 F1000
G01 X28.625 Y-8.108696 Z1.258824 F1000
G01 X28.76087 Y-8.108696 Z1.258824 F1000
G01 X28.896739 Y-8.108696 Z1.282353 F1000
G01 X29.032609 Y-8.108696 Z1.294118 F1000
G01 X29.168478 Y-8.108696 Z1.317647 F1000
G01 X29.304348 Y-8.108696 Z1.329412 F1000
G01 X29.440217 Y-8.108696 Z1.329412 F1000
G01 X29.576087 Y-8.108696 Z1.341176 F1000
G01 X29.711957 Y-8.108696 Z1.364706 F1000
G01 X29.847826 Y-8.108696 Z1.376471 F1000
G01 X29.983696 Y-8.108696 Z1.388235 F1000
G01 X30.119565 Y-8.108696 Z1.388235 F1000
G01 X30.255435 Y-8.108696 Z1.4 F1000
G01 X30.391304 Y-8.108696 Z1.4 F1000
G01 X30.527174 Y-8.108696 Z1.411765 F1000
G01 X30.663043 Y-8.108696 Z1.423529 F1000
G01 X30.798913 Y-8.108696 Z1.423529 F1000
G01 X30.934783 Y-8.108696 Z1.435294 F1000
G01 X31.478261 Y-8.108696 Z1.435294 F1000
G01 X31.61413 Y-8.108696 Z1.447059 F1000
G01 X31.75 Y-8.108696 Z1.458824 F1000
G01 X31.88587 Y-8.108696 Z1.458824 F1000
G01 X32.021739 Y-8.108696 Z1.470588 F1000
G01 X32.157609 Y-8.108696 Z1.482353 F1000
G01 X32.429348 Y-8.108696 Z1.482353 F1000
G01 X32.565217 Y-8.108696 Z1.494118 F1000
G01 X32.701087 Y-8.108696 Z1.494118 F1000
G01 X32.836957 Y-8.108696 Z1.505882 F1000
G01 X33.244565 Y-8.108696 Z1.505882 F1000
G01 X33.380435 Y-8.108696 Z1.517647 F1000
G01 X33.516304 Y-8.108696 Z1.517647 F1000
G01 X33.652174 Y-8.108696 Z1.529412 F1000
G01 X33.788043 Y-8.108696 Z1.529412 F1000
G01 X33.923913 Y-8.108696 Z1.541176 F1000
G01 X34.195652 Y-8.108696 Z1.541176 F1000
G01 X34.331522 Y-8.108696 Z1.564706 F1000
G01 X34.467391 Y-8.108696 Z1.564706 F1000
G01 X34.603261 Y-8.108696 Z1.576471 F1000
G01 X34.73913 Y-8.108696 Z1.576471 F1000
G01 X34.875 Y-8.108696 Z1.588235 F1000
G01 X35.01087 Y-8.108696 Z1.588235 F1000
G01 X35.146739 Y-8.108696 Z1.6 F1000
G01 X36.097826 Y-8.108696 Z1.6 F1000
G01 X36.233696 Y-8.108696 Z1.611765 F1000
G01 X36.369565 Y-8.108696 Z1.623529 F1000
G01 X36.641304 Y-8.108696 Z1.623529 F1000
G01 X36.777174 Y-8.108696 Z1.635294 F1000
G01 X37.184783 Y-8.108696 Z1.635294 F1000
G01 X37.320652 Y-8.108696 Z1.647059 F1000
G01 X38 Y-8.108696 Z1.647059 F1000
G01 X38.13587 Y-8.108696 Z1.658824 F1000
G01 X38.543478 Y-8.108696 Z1.658824 F1000
G01 X38.679348 Y-8.108696 Z1.670588 F1000
G01 X38.951087 Y-8.108696 Z1.670588 F1000
G01 X39.086957 Y-8.108696 Z1.682353 F1000
G01 X40.717391 Y-8.108696 Z1.682353 F1000
G01 X40.853261 Y-8.108696 Z1.705882 F1000
G01 X42.211957 Y-8.108696 Z1.705882 F1000
G01 X42.347826 Y-8.108696 Z1.717647 F1000
G01 X43.570652 Y-8.108696 Z1.717647 F1000
G01 X43.706522 Y-8.108696 Z1.729412 F1000
G01 X44.929348 Y-8.108696 Z1.729412 F1000
G01 X45.065217 Y-8.108696 Z1.717647 F1000
G01 X46.152174 Y-8.108696 Z1.717647 F1000
G01 X46.288043 Y-8.108696 Z1.729412 F1000
G01 X47.51087 Y-8.108696 Z1.729412 F1000
G01 X47.646739 Y-8.108696 Z1.717647 F1000
G01 X50.36413 Y-8.108696 Z1.717647 F1000
G01 X50.5 Y-8.108696 Z1.705882 F1000
G01 X51.722826 Y-8.108696 Z1.705882 F1000
G01 X51.858696 Y-8.108696 Z1.694118 F1000
G01 X52.945652 Y-8.108696 Z1.694118 F1000
G01 X53.081522 Y-8.108696 Z1.682353 F1000
G01 X53.76087 Y-8.108696 Z1.682353 F1000
G01 X53.896739 Y-8.108696 Z1.670588 F1000
G01 X54.983696 Y-8.108696 Z1.670588 F1000
G01 X55.119565 Y-8.108696 Z1.658824 F1000
G01 X55.663043 Y-8.108696 Z1.658824 F1000
G01 X55.798913 Y-8.108696 Z1.647059 F1000
G01 X55.934783 Y-8.108696 Z1.647059 F1000
G01 X56.070652 Y-8.108696 Z1.635294 F1000
G01 X56.478261 Y-8.108696 Z1.635294 F1000
G01 X56.61413 Y-8.108696 Z1.623529 F1000
G01 X56.88587 Y-8.108696 Z1.623529 F1000
G01 X57.021739 Y-8.108696 Z1.611765 F1000
G01 X57.429348 Y-8.108696 Z1.611765 F1000
G01 X57.565217 Y-8.108696 Z1.6 F1000
G01 X57.972826 Y-8.108696 Z1.6 F1000
G01 X58.108696 Y-8.108696 Z1.588235 F1000
G01 X58.380435 Y-8.108696 Z1.588235 F1000
G01 X58.516304 Y-8.108696 Z1.576471 F1000
G01 X59.467391 Y-8.108696 Z1.576471 F1000
G01 X59.603261 Y-8.108696 Z1.564706 F1000
G01 X59.73913 Y-8.108696 Z1.564706 F1000
G01 X59.875 Y-8.108696 Z1.552941 F1000
G01 X60.554348 Y-8.108696 Z1.552941 F1000
G01 X60.690217 Y-8.108696 Z1.541176 F1000
G01 X60.826087 Y-8.108696 Z1.529412 F1000
G01 X61.641304 Y-8.108696 Z1.529412 F1000
G01 X61.777174 Y-8.108696 Z1.517647 F1000
G01 X62.320652 Y-8.108696 Z1.517647 F1000
G01 X62.456522 Y-8.108696 Z1.505882 F1000
G01 X62.592391 Y-8.108696 Z1.505882 F1000
G01 X62.728261 Y-8.108696 Z1.494118 F1000
G01 X62.86413 Y-8.108696 Z1.494118 F1000
G01 X63 Y-8.108696 Z1.482353 F1000
G01 X63.13587 Y-8.108696 Z1.482353 F1000
G01 X63.271739 Y-8.108696 Z1.470588 F1000
G01 X63.407609 Y-8.108696 Z1.470588 F1000
G01 X63.543478 Y-8.108696 Z1.447059 F1000
G01 X63.951087 Y-8.108696 Z1.447059 F1000
G01 X64.086957 Y-8.108696 Z1.435294 F1000
G01 X64.222826 Y-8.108696 Z1.423529 F1000
G01 X64.358696 Y-8.108696 Z1.411765 F1000
G01 X64.630435 Y-8.108696 Z1.411765 F1000
G01 X64.766304 Y-8.108696 Z1.4 F1000
G01 X64.902174 Y-8.108696 Z1.4 F1000
G01 X65.038043 Y-8.108696 Z1.388235 F1000
G01 X65.173913 Y-8.108696 Z1.376471 F1000
G01 X65.309783 Y-8.108696 Z1.364706 F1000
G01 X65.445652 Y-8.108696 Z1.352941 F1000
G01 X65.98913 Y-8.108696 Z1.352941 F1000
G01 X66.125 Y-8.108696 Z1.341176 F1000
G01 X66.26087 Y-8.108696 Z1.329412 F1000
G01 X66.396739 Y-8.108696 Z1.305882 F1000
G01 X66.532609 Y-8.108696 Z1.294118 F1000
G01 X66.668478 Y-8.108696 Z1.282353 F1000
G01 X66.940217 Y-8.108696 Z1.282353 F1000
G01 X67.076087 Y-8.108696 Z1.270588 F1000
G01 X67.211957 Y-8.108696 Z1.270588 F1000
G01 X67.347826 Y-8.108696 Z1.258824 F1000
G01 X67.891304 Y-8.108696 Z1.258824 F1000
G01 X68.027174 Y-8.108696 Z1.235294 F1000
G01 X68.163043 Y-8.108696 Z1.223529 F1000
G01 X68.298913 Y-8.108696 Z1.211765 F1000
G01 X68.434783 Y-8.108696 Z1.211765 F1000
G01 X68.570652 Y-8.108696 Z1.2 F1000
G01 X68.706522 Y-8.108696 Z1.188235 F1000
G01 X68.842391 Y-8.108696 Z1.176471 F1000
G01 X69.11413 Y-8.108696 Z1.176471 F1000
G01 X69.25 Y-8.108696 Z1.164706 F1000
G01 X69.38587 Y-8.108696 Z1.152941 F1000
G01 X69.521739 Y-8.108696 Z1.141176 F1000
G01 X69.657609 Y-8.108696 Z1.129412 F1000
G01 X69.793478 Y-8.108696 Z1.117647 F1000
G01 X69.929348 Y-8.108696 Z1.105882 F1000
G01 X70.065217 Y-8.108696 Z1.094118 F1000
G01 X70.201087 Y-8.108696 Z1.082353 F1000
G01 X70.336957 Y-8.108696 Z1.058824 F1000
G01 X70.472826 Y-8.108696 Z1.047059 F1000
G01 X70.608696 Y-8.108696 Z1.047059 F1000
G01 X70.744565 Y-8.108696 Z1.035294 F1000
G01 X70.880435 Y-8.108696 Z1.011765 F1000
G01 X71.016304 Y-8.108696 Z1 F1000
G01 X71.152174 Y-8.108696 Z1 F1000
G01 X71.288043 Y-8.108696 Z0.988235 F1000
G01 X71.423913 Y-8.108696 Z0.976471 F1000
G01 X71.559783 Y-8.108696 Z0.964706 F1000
G01 X71.695652 Y-8.108696 Z0.941176 F1000
G01 X71.831522 Y-8.108696 Z0.917647 F1000
G01 X71.967391 Y-8.108696 Z0.905882 F1000
G01 X72.103261 Y-8.108696 Z0.905882 F1000
G01 X72.23913 Y-8.108696 Z0.882353 F1000
G01 X72.375 Y-8.108696 Z0.870588 F1000
G01 X72.51087 Y-8.108696 Z0.858824 F1000
G01 X72.646739 Y-8.108696 Z0.835294 F1000
G01 X72.782609 Y-8.108696 Z0.811765 F1000
G01 X72.918478 Y-8.108696 Z0.788235 F1000
G01 X73.054348 Y-8.108696 Z0.776471 F1000
G01 X73.190217 Y-8.108696 Z0.764706 F1000
G01 X73.326087 Y-8.108696 Z0.741176 F1000
G01 X73.461957 Y-8.108696 Z0.717647 F1000
G01 X73.597826 Y-8.108696 Z0.682353 F1000
G01 X73.733696 Y-8.108696 Z0.658824 F1000
G01 X73.869565 Y-8.108696 Z0.647059 F1000
G01 X74.005435 Y-8.108696 Z0.623529 F1000
G01 X74.141304 Y-8.108696 Z0.564706 F1000
G01 X74.277174 Y-8.108696 Z0.517647 F1000
G01 X74.413043 Y-8.108696 Z0.376471 F1000
G01 X74.548913 Y-8.108696 Z0.2 F1000
G01 X74.684783 Y-8.108696 Z0.047059 F1000
G01 X74.820652 Y-8.108696 Z0.023529 F1000
G01 X75.092391 Y-8.108696 Z0.023529 F1000
G01 X75.228261 Y-8.108696 Z0.011765 F1000
G01 X75.36413 Y-8.108696 Z0.011765 F1000
G01 X75.5 Y-8.108696 Z0 F1000
G01 X99.548913 Y-8.108696 Z0 F1000
G01 X99.548913 Y-8.244565 Z0 F1000
G01 X99.548913 Y-8.380435 Z0 F1000
G01 X99.548913 Y-8.516304 Z0 F1000
G01 X99.548913 Y-8.652174 Z0 F1000
G01 X76.586957 Y-8.652174 Z0 F1000
G01 X76.451087 Y-8.652174 Z0.023529 F1000
G01 X75.63587 Y-8.652174 Z0.023529 F1000
G01 X75.5 Y-8.652174 Z0.035294 F1000
G01 X75.36413 Y-8.652174 Z0.070588 F1000
G01 X75.228261 Y-8.652174 Z0.070588 F1000
G01 X75.092391 Y-8.652174 Z0.223529 F1000
G01 X74.956522 Y-8.652174 Z0.435294 F1000
G01 X74.820652 Y-8.652174 Z0.552941 F1000
G01 X74.684783 Y-8.652174 Z0.6 F1000
G01 X74.548913 Y-8.652174 Z0.6 F1000
G01 X74.413043 Y-8.652174 Z0.658824 F1000
G01 X74.277174 Y-8.652174 Z0.682353 F1000
G01 X74.141304 Y-8.652174 Z0.705882 F1000
G01 X74.005435 Y-8.652174 Z0.729412 F1000
G01 X73.869565 Y-8.652174 Z0.752941 F1000
G01 X73.733696 Y-8.652174 Z0.764706 F1000
G01 X73.597826 Y-8.652174 Z0.776471 F1000
G01 X73.461957 Y-8.652174 Z0.788235 F1000
G01 X73.326087 Y-8.652174 Z0.811765 F1000
G01 X73.190217 Y-8.652174 Z0.823529 F1000
G01 X73.054348 Y-8.652174 Z0.835294 F1000
G01 X72.918478 Y-8.652174 Z0.847059 F1000
G01 X72.782609 Y-8.652174 Z0.870588 F1000
G01 X72.646739 Y-8.652174 Z0.894118 F1000
G01 X72.51087 Y-8.652174 Z0.905882 F1000
G01 X72.375 Y-8.652174 Z0.917647 F1000
G01 X72.23913 Y-8.652174 Z0.929412 F1000
G01 X72.103261 Y-8.652174 Z0.929412 F1000
G01 X71.967391 Y-8.652174 Z0.952941 F1000
G01 X71.831522 Y-8.652174 Z0.976471 F1000
G01 X71.695652 Y-8.652174 Z0.988235 F1000
G01 X71.559783 Y-8.652174 Z0.988235 F1000
G01 X71.423913 Y-8.652174 Z1 F1000
G01 X71.288043 Y-8.652174 Z1.011765 F1000
G01 X71.152174 Y-8.652174 Z1.035294 F1000
G01 X71.016304 Y-8.652174 Z1.035294 F1000
G01 X70.880435 Y-8.652174 Z1.058824 F1000
G01 X70.744565 Y-8.652174 Z1.082353 F1000
G01 X70.608696 Y-8.652174 Z1.094118 F1000
G01 X70.472826 Y-8.652174 Z1.094118 F1000
G01 X70.336957 Y-8.652174 Z1.105882 F1000
G01 X70.201087 Y-8.652174 Z1.129412 F1000
G01 X70.065217 Y-8.652174 Z1.141176 F1000
G01 X69.929348 Y-8.652174 Z1.141176 F1000
G01 X69.793478 Y-8.652174 Z1.152941 F1000
G01 X69.657609 Y-8.652174 Z1.176471 F1000
G01 X69.521739 Y-8.652174 Z1.188235 F1000
G01 X69.38587 Y-8.652174 Z1.211765 F1000
G01 X69.25 Y-8.652174 Z1.211765 F1000
G01 X69.11413 Y-8.652174 Z1.223529 F1000
G01 X68.978261 Y-8.652174 Z1.223529 F1000
G01 X68.842391 Y-8.652174 Z1.258824 F1000
G01 X68.706522 Y-8.652174 Z1.258824 F1000
G01 X68.570652 Y-8.652174 Z1.270588 F1000
G01 X68.434783 Y-8.652174 Z1.282353 F1000
G01 X68.298913 Y-8.652174 Z1.282353 F1000
G01 X68.163043 Y-8.652174 Z1.294118 F1000
G01 X68.027174 Y-8.652174 Z1.305882 F1000
G01 X67.755435 Y-8.652174 Z1.305882 F1000
G01 X67.619565 Y-8.652174 Z1.317647 F1000
G01 X67.483696 Y-8.652174 Z1.341176 F1000
G01 X66.940217 Y-8.652174 Z1.341176 F1000
G01 X66.804348 Y-8.652174 Z1.364706 F1000
G01 X66.396739 Y-8.652174 Z1.364706 F1000
G01 X66.26087 Y-8.652174 Z1.376471 F1000
G01 X66.125 Y-8.652174 Z1.388235 F1000
G01 X65.717391 Y-8.652174 Z1.388235 F1000
G01 X65.581522 Y-8.652174 Z1.4 F1000
G01 X65.445652 Y-8.652174 Z1.411765 F1000
G01 X65.173913 Y-8.652174 Z1.411765 F1000
G01 X65.038043 Y-8.652174 Z1.423529 F1000
G01 X64.902174 Y-8.652174 Z1.435294 F1000
G01 X64.494565 Y-8.652174 Z1.435294 F1000
G01 X64.358696 Y-8.652174 Z1.447059 F1000
G01 X64.222826 Y-8.652174 Z1.447059 F1000
G01 X64.086957 Y-8.652174 Z1.458824 F1000
G01 X63.951087 Y-8.652174 Z1.470588 F1000
G01 X63.815217 Y-8.652174 Z1.482353 F1000
G01 X63.679348 Y-8.652174 Z1.482353 F1000
G01 X63.543478 Y-8.652174 Z1.494118 F1000
G01 X63 Y-8.652174 Z1.494118 F1000
G01 X62.86413 Y-8.652174 Z1.505882 F1000
G01 X62.728261 Y-8.652174 Z1.505882 F1000
G01 X62.592391 Y-8.652174 Z1.517647 F1000
G01 X62.456522 Y-8.652174 Z1.517647 F1000
G01 X62.320652 Y-8.652174 Z1.529412 F1000
G01 X62.048913 Y-8.652174 Z1.529412 F1000
G01 X61.913043 Y-8.652174 Z1.541176 F1000
G01 X61.777174 Y-8.652174 Z1.541176 F1000
G01 X61.641304 Y-8.652174 Z1.552941 F1000
G01 X61.505435 Y-8.652174 Z1.552941 F1000
G01 X61.369565 Y-8.652174 Z1.564706 F1000
G01 X61.233696 Y-8.652174 Z1.576471 F1000
G01 X60.690217 Y-8.652174 Z1.576471 F1000
G01 X60.554348 Y-8.652174 Z1.588235 F1000
G01 X60.146739 Y-8.652174 Z1.588235 F1000
G01 X60.01087 Y-8.652174 Z1.6 F1000
G01 X59.875 Y-8.652174 Z1.6 F1000
G01 X59.73913 Y-8.652174 Z1.611765 F1000
G01 X58.923913 Y-8.652174 Z1.611765 F1000
G01 X58.788043 Y-8.652174 Z1.623529 F1000
G01 X58.380435 Y-8.652174 Z1.623529 F1000
G01 X58.244565 Y-8.652174 Z1.635294 F1000
G01 X58.108696 Y-8.652174 Z1.635294 F1000
G01 X57.972826 Y-8.652174 Z1.647059 F1000
G01 X57.429348 Y-8.652174 Z1.647059 F1000
G01 X57.293478 Y-8.652174 Z1.658824 F1000
G01 X56.478261 Y-8.652174 Z1.658824 F1000
G01 X56.342391 Y-8.652174 Z1.670588 F1000
G01 X56.206522 Y-8.652174 Z1.682353 F1000
G01 X55.663043 Y-8.652174 Z1.682353 F1000
G01 X55.527174 Y-8.652174 Z1.694118 F1000
G01 X55.119565 Y-8.652174 Z1.694118 F1000
G01 X54.983696 Y-8.652174 Z1.705882 F1000
G01 X54.304348 Y-8.652174 Z1.705882 F1000
G01 X54.168478 Y-8.652174 Z1.717647 F1000
G01 X53.48913 Y-8.652174 Z1.717647 F1000
G01 X53.353261 Y-8.652174 Z1.729412 F1000
G01 X52.945652 Y-8.652174 Z1.729412 F1000
G01 X52.809783 Y-8.652174 Z1.741176 F1000
G01 X49.413043 Y-8.652174 Z1.741176 F1000
