(www.thuijzer.nl/image2gcode)
(2017-04-16 18:28:10)
(bit size: 1mm)
(x size: 100mm)
(max z: 20mm)

G21 (Programming in millimeters)
G90 (Absolute programming)
G92 X0 Y0 Z21 (Tell the machine it is at 0, 0, 21)
G00 X0 Y-0.5 Z20 (Starting position)

F1400

G01 X0.63587 Y-0.5 Z15
G01 X99.548913 Y-0.5 Z15
G01 X99.548913 Y-0.63587 Z15
G01 X99.548913 Y-0.771739 Z15
G01 X99.548913 Y-0.907609 Z15
G01 X99.548913 Y-1.043478 Z15
G01 X0.36413 Y-1.043478 Z15
G01 X0.36413 Y-1.179348 Z15
G01 X0.36413 Y-1.315217 Z15
G01 X0.36413 Y-1.451087 Z15
G01 X0.36413 Y-1.586957 Z15
G01 X99.548913 Y-1.586957 Z15
G01 X99.548913 Y-1.722826 Z15
G01 X99.548913 Y-1.858696 Z15
G01 X99.548913 Y-1.994565 Z15
G01 X99.548913 Y-2.130435 Z15
G01 X0.36413 Y-2.130435 Z15
G01 X0.36413 Y-2.266304 Z15
G01 X0.36413 Y-2.402174 Z15
G01 X0.36413 Y-2.538043 Z15
G01 X0.36413 Y-2.673913 Z15
G01 X99.548913 Y-2.673913 Z15
G01 X99.548913 Y-2.809783 Z15
G01 X99.548913 Y-2.945652 Z15
G01 X99.548913 Y-3.081522 Z15
G01 X99.548913 Y-3.217391 Z15
G01 X0.36413 Y-3.217391 Z15
G01 X0.36413 Y-3.353261 Z15
G01 X0.36413 Y-3.48913 Z15
G01 X0.36413 Y-3.625 Z15
G01 X0.36413 Y-3.76087 Z15
G01 X99.548913 Y-3.76087 Z15
G01 X99.548913 Y-3.896739 Z15
G01 X99.548913 Y-4.032609 Z15
G01 X99.548913 Y-4.168478 Z15
G01 X99.548913 Y-4.304348 Z15
G01 X0.36413 Y-4.304348 Z15
G01 X0.36413 Y-4.440217 Z15
G01 X0.36413 Y-4.576087 Z15
G01 X0.36413 Y-4.711957 Z15
G01 X0.36413 Y-4.847826 Z15
G01 X99.548913 Y-4.847826 Z15
G01 X99.548913 Y-4.983696 Z15
G01 X99.548913 Y-5.119565 Z15
G01 X99.548913 Y-5.255435 Z15
G01 X99.548913 Y-5.391304 Z15
G01 X0.36413 Y-5.391304 Z15
G01 X0.36413 Y-5.527174 Z15
G01 X0.36413 Y-5.663043 Z15
G01 X0.36413 Y-5.798913 Z15
G01 X0.36413 Y-5.934783 Z15
G01 X99.548913 Y-5.934783 Z15
G01 X99.548913 Y-6.070652 Z15
G01 X99.548913 Y-6.206522 Z15
G01 X99.548913 Y-6.342391 Z15
G01 X99.548913 Y-6.478261 Z15
G01 X0.36413 Y-6.478261 Z15
G01 X0.36413 Y-6.61413 Z15
G01 X0.36413 Y-6.75 Z15
G01 X0.36413 Y-6.88587 Z15
G01 X0.36413 Y-7.021739 Z15
G01 X99.548913 Y-7.021739 Z15
G01 X99.548913 Y-7.157609 Z15
G01 X99.548913 Y-7.293478 Z15
G01 X99.548913 Y-7.429348 Z15
G01 X99.548913 Y-7.565217 Z15
G01 X0.36413 Y-7.565217 Z15
G01 X0.36413 Y-7.701087 Z15
G01 X0.36413 Y-7.836957 Z15
G01 X0.36413 Y-7.972826 Z15
G01 X0.36413 Y-8.108696 Z15
G01 X99.548913 Y-8.108696 Z15
G01 X99.548913 Y-8.244565 Z15
G01 X99.548913 Y-8.380435 Z15
G01 X99.548913 Y-8.516304 Z15
G01 X99.548913 Y-8.652174 Z15
G01 X0.36413 Y-8.652174 Z15
G01 X0.36413 Y-8.788043 Z15
G01 X0.36413 Y-8.923913 Z15
G01 X0.36413 Y-9.059783 Z15
G01 X0.36413 Y-9.195652 Z15
G01 X99.548913 Y-9.195652 Z15
G01 X99.548913 Y-9.331522 Z15
G01 X99.548913 Y-9.467391 Z15
G01 X99.548913 Y-9.603261 Z15
G01 X99.548913 Y-9.73913 Z15
G01 X0.36413 Y-9.73913 Z15
G01 X0.36413 Y-9.875 Z15
G01 X0.36413 Y-10.01087 Z15
G01 X0.36413 Y-10.146739 Z15
G01 X0.36413 Y-10.282609 Z15
G01 X99.548913 Y-10.282609 Z15
G01 X99.548913 Y-10.418478 Z15
G01 X99.548913 Y-10.554348 Z15
G01 X99.548913 Y-10.690217 Z15
G01 X99.548913 Y-10.826087 Z15
G01 X0.36413 Y-10.826087 Z15
G01 X0.36413 Y-10.961957 Z15
G01 X0.36413 Y-11.097826 Z15
G01 X0.36413 Y-11.233696 Z15
G01 X0.36413 Y-11.369565 Z15
G01 X99.548913 Y-11.369565 Z15
G01 X99.548913 Y-11.505435 Z15
G01 X99.548913 Y-11.641304 Z15
G01 X99.548913 Y-11.777174 Z15
G01 X99.548913 Y-11.913043 Z15
G01 X0.36413 Y-11.913043 Z15
G01 X0.36413 Y-12.048913 Z15
G01 X0.36413 Y-12.184783 Z15
G01 X0.36413 Y-12.320652 Z15
G01 X0.36413 Y-12.456522 Z15
G01 X99.548913 Y-12.456522 Z15
G01 X99.548913 Y-12.592391 Z15
G01 X99.548913 Y-12.728261 Z15
G01 X99.548913 Y-12.86413 Z15
G01 X99.548913 Y-13 Z15
G01 X0.36413 Y-13 Z15
G01 X0.36413 Y-13.13587 Z15
G01 X0.36413 Y-13.271739 Z15
G01 X0.36413 Y-13.407609 Z15
G01 X0.36413 Y-13.543478 Z15
G01 X99.548913 Y-13.543478 Z15
G01 X99.548913 Y-13.679348 Z15
G01 X99.548913 Y-13.815217 Z15
G01 X99.548913 Y-13.951087 Z15
G01 X99.548913 Y-14.086957 Z15
G01 X0.36413 Y-14.086957 Z15
G01 X0.36413 Y-14.222826 Z15
G01 X0.36413 Y-14.358696 Z15
G01 X0.36413 Y-14.494565 Z15
G01 X0.36413 Y-14.630435 Z15
G01 X99.548913 Y-14.630435 Z15
G01 X99.548913 Y-14.766304 Z15
G01 X99.548913 Y-14.902174 Z15
G01 X99.548913 Y-15.038043 Z15
G01 X99.548913 Y-15.173913 Z15
G01 X0.36413 Y-15.173913 Z15
G01 X0.36413 Y-15.309783 Z15
G01 X0.36413 Y-15.445652 Z15
G01 X0.36413 Y-15.581522 Z15
G01 X0.36413 Y-15.717391 Z15
G01 X99.548913 Y-15.717391 Z15
G01 X99.548913 Y-15.853261 Z15
G01 X99.548913 Y-15.98913 Z15
G01 X99.548913 Y-16.125 Z15
G01 X99.548913 Y-16.26087 Z15
G01 X30.391304 Y-16.26087 Z15
G01 X30.255435 Y-16.26087 Z21
G01 X28.353261 Y-16.26087 Z21
G01 X28.217391 Y-16.26087 Z15
G01 X0.36413 Y-16.26087 Z15
G01 X0.36413 Y-16.396739 Z15
G01 X0.36413 Y-16.532609 Z15
G01 X0.36413 Y-16.668478 Z15
G01 X0.36413 Y-16.804348 Z15
G01 X27.673913 Y-16.804348 Z15
G01 X27.809783 Y-16.804348 Z21
G01 X32.293478 Y-16.804348 Z21
G01 X32.429348 Y-16.804348 Z15
G01 X99.548913 Y-16.804348 Z15
G01 X99.548913 Y-16.940217 Z15
G01 X99.548913 Y-17.076087 Z15
G01 X99.548913 Y-17.211957 Z15
G01 X99.548913 Y-17.347826 Z15
G01 X32.972826 Y-17.347826 Z15
G01 X32.836957 Y-17.347826 Z21
G01 X27.266304 Y-17.347826 Z21
G01 X27.130435 Y-17.347826 Z15
G01 X0.36413 Y-17.347826 Z15
G01 X0.36413 Y-17.483696 Z15
G01 X0.36413 Y-17.619565 Z15
G01 X0.36413 Y-17.755435 Z15
G01 X0.36413 Y-17.891304 Z15
G01 X26.994565 Y-17.891304 Z15
G01 X27.130435 Y-17.891304 Z21
G01 X33.516304 Y-17.891304 Z21
G01 X33.652174 Y-17.891304 Z15
G01 X99.548913 Y-17.891304 Z15
G01 X99.548913 Y-18.027174 Z15
G01 X99.548913 Y-18.163043 Z15
G01 X99.548913 Y-18.298913 Z15
G01 X99.548913 Y-18.434783 Z15
G01 X35.554348 Y-18.434783 Z15
G01 X35.418478 Y-18.434783 Z21
G01 X26.994565 Y-18.434783 Z21
G01 X26.858696 Y-18.434783 Z15
G01 X0.36413 Y-18.434783 Z15
G01 X0.36413 Y-18.570652 Z15
G01 X0.36413 Y-18.706522 Z15
G01 X0.36413 Y-18.842391 Z15
G01 X0.36413 Y-18.978261 Z15
G01 X26.858696 Y-18.978261 Z15
G01 X26.994565 Y-18.978261 Z21
G01 X36.097826 Y-18.978261 Z21
G01 X36.233696 Y-18.978261 Z15
G01 X99.548913 Y-18.978261 Z15
G01 X99.548913 Y-19.11413 Z15
G01 X99.548913 Y-19.25 Z15
G01 X99.548913 Y-19.38587 Z15
G01 X99.548913 Y-19.521739 Z15
G01 X36.913043 Y-19.521739 Z15
G01 X36.777174 Y-19.521739 Z21
G01 X26.994565 Y-19.521739 Z21
G01 X26.858696 Y-19.521739 Z15
G01 X0.36413 Y-19.521739 Z15
G01 X0.36413 Y-19.657609 Z15
G01 X0.36413 Y-19.793478 Z15
G01 X0.36413 Y-19.929348 Z15
G01 X0.36413 Y-20.065217 Z15
G01 X26.994565 Y-20.065217 Z15
G01 X27.130435 Y-20.065217 Z21
G01 X37.320652 Y-20.065217 Z21
G01 X37.456522 Y-20.065217 Z15
G01 X47.646739 Y-20.065217 Z15
G01 X47.782609 Y-20.065217 Z21
G01 X48.869565 Y-20.065217 Z21
G01 X49.005435 Y-20.065217 Z15
G01 X99.548913 Y-20.065217 Z15
G01 X99.548913 Y-20.201087 Z15
G01 X99.548913 Y-20.336957 Z15
G01 X99.548913 Y-20.472826 Z15
G01 X99.548913 Y-20.608696 Z15
G01 X49.005435 Y-20.608696 Z15
G01 X48.869565 Y-20.608696 Z21
G01 X47.782609 Y-20.608696 Z21
G01 X47.646739 Y-20.608696 Z15
G01 X38 Y-20.608696 Z15
G01 X37.86413 Y-20.608696 Z21
G01 X27.266304 Y-20.608696 Z21
G01 X27.130435 Y-20.608696 Z15
G01 X0.36413 Y-20.608696 Z15
G01 X0.36413 Y-20.744565 Z15
G01 X0.36413 Y-20.880435 Z15
G01 X0.36413 Y-21.016304 Z15
G01 X0.36413 Y-21.152174 Z15
G01 X27.130435 Y-21.152174 Z15
G01 X27.266304 Y-21.152174 Z21
G01 X38.543478 Y-21.152174 Z21
G01 X38.679348 Y-21.152174 Z15
G01 X99.548913 Y-21.152174 Z15
G01 X99.548913 Y-21.288043 Z15
G01 X99.548913 Y-21.423913 Z15
G01 X99.548913 Y-21.559783 Z15
G01 X99.548913 Y-21.695652 Z15
G01 X51.179348 Y-21.695652 Z15
G01 X51.043478 Y-21.695652 Z21
G01 X48.190217 Y-21.695652 Z21
G01 X48.054348 Y-21.695652 Z15
G01 X39.086957 Y-21.695652 Z15
G01 X38.951087 Y-21.695652 Z21
G01 X27.266304 Y-21.695652 Z21
G01 X27.130435 Y-21.695652 Z15
G01 X0.36413 Y-21.695652 Z15
G01 X0.36413 Y-21.831522 Z15
G01 X0.36413 Y-21.967391 Z15
G01 X0.36413 Y-22.103261 Z15
G01 X0.36413 Y-22.23913 Z15
G01 X27.130435 Y-22.23913 Z15
G01 X27.266304 Y-22.23913 Z21
G01 X39.494565 Y-22.23913 Z21
G01 X39.630435 Y-22.23913 Z15
G01 X48.054348 Y-22.23913 Z15
G01 X48.190217 Y-22.23913 Z21
G01 X51.043478 Y-22.23913 Z21
G01 X51.179348 Y-22.23913 Z15
G01 X99.548913 Y-22.23913 Z15
G01 X99.548913 Y-22.375 Z15
G01 X99.548913 Y-22.51087 Z15
G01 X99.548913 Y-22.646739 Z15
G01 X99.548913 Y-22.782609 Z15
G01 X51.179348 Y-22.782609 Z15
G01 X51.043478 Y-22.782609 Z21
G01 X48.190217 Y-22.782609 Z21
G01 X48.054348 Y-22.782609 Z15
G01 X40.038043 Y-22.782609 Z15
G01 X39.902174 Y-22.782609 Z21
G01 X27.402174 Y-22.782609 Z21
G01 X27.266304 Y-22.782609 Z15
G01 X0.36413 Y-22.782609 Z15
G01 X0.36413 Y-22.918478 Z15
G01 X0.36413 Y-23.054348 Z15
G01 X0.36413 Y-23.190217 Z15
G01 X0.36413 Y-23.326087 Z15
G01 X27.266304 Y-23.326087 Z15
G01 X27.402174 Y-23.326087 Z21
G01 X40.309783 Y-23.326087 Z21
G01 X40.445652 Y-23.326087 Z15
G01 X48.054348 Y-23.326087 Z15
G01 X48.190217 Y-23.326087 Z21
G01 X51.043478 Y-23.326087 Z21
G01 X51.179348 Y-23.326087 Z15
G01 X99.548913 Y-23.326087 Z15
G01 X99.548913 Y-23.461957 Z15
G01 X99.548913 Y-23.597826 Z15
G01 X99.548913 Y-23.733696 Z15
G01 X99.548913 Y-23.869565 Z15
G01 X66.532609 Y-23.869565 Z15
G01 X66.396739 Y-23.869565 Z21
G01 X64.494565 Y-23.869565 Z21
G01 X64.358696 Y-23.869565 Z15
G01 X51.179348 Y-23.869565 Z15
G01 X51.043478 Y-23.869565 Z21
G01 X48.190217 Y-23.869565 Z21
G01 X48.054348 Y-23.869565 Z15
G01 X40.581522 Y-23.869565 Z15
G01 X40.445652 Y-23.869565 Z21
G01 X27.538043 Y-23.869565 Z21
G01 X27.402174 Y-23.869565 Z15
G01 X0.36413 Y-23.869565 Z15
G01 X0.36413 Y-24.005435 Z15
G01 X0.36413 Y-24.141304 Z15
G01 X0.36413 Y-24.277174 Z15
G01 X0.36413 Y-24.413043 Z15
G01 X27.809783 Y-24.413043 Z15
G01 X27.945652 Y-24.413043 Z21
G01 X40.98913 Y-24.413043 Z21
G01 X41.125 Y-24.413043 Z15
G01 X49.413043 Y-24.413043 Z15
G01 X49.548913 Y-24.413043 Z21
G01 X50.63587 Y-24.413043 Z21
G01 X50.771739 Y-24.413043 Z15
G01 X62.728261 Y-24.413043 Z15
G01 X62.86413 Y-24.413043 Z21
G01 X67.076087 Y-24.413043 Z21
G01 X67.211957 Y-24.413043 Z15
G01 X99.548913 Y-24.413043 Z15
G01 X99.548913 Y-24.548913 Z15
G01 X99.548913 Y-24.684783 Z15
G01 X99.548913 Y-24.820652 Z15
G01 X99.548913 Y-24.956522 Z15
G01 X67.619565 Y-24.956522 Z15
G01 X67.483696 Y-24.956522 Z21
G01 X61.913043 Y-24.956522 Z21
G01 X61.777174 Y-24.956522 Z15
G01 X50.771739 Y-24.956522 Z15
G01 X50.63587 Y-24.956522 Z21
G01 X49.548913 Y-24.956522 Z21
G01 X49.413043 Y-24.956522 Z15
G01 X41.804348 Y-24.956522 Z15
G01 X41.668478 Y-24.956522 Z21
G01 X28.217391 Y-24.956522 Z21
G01 X28.081522 Y-24.956522 Z15
G01 X0.36413 Y-24.956522 Z15
G01 X0.36413 Y-25.092391 Z15
G01 X0.36413 Y-25.228261 Z15
G01 X0.36413 Y-25.36413 Z15
G01 X0.36413 Y-25.5 Z15
G01 X28.081522 Y-25.5 Z15
G01 X28.217391 Y-25.5 Z21
G01 X42.076087 Y-25.5 Z21
G01 X42.211957 Y-25.5 Z15
G01 X49.413043 Y-25.5 Z15
G01 X49.548913 Y-25.5 Z21
G01 X50.5 Y-25.5 Z21
G01 X50.63587 Y-25.5 Z15
G01 X60.418478 Y-25.5 Z15
G01 X60.554348 Y-25.5 Z21
G01 X67.755435 Y-25.5 Z21
G01 X67.891304 Y-25.5 Z15
G01 X99.548913 Y-25.5 Z15
G01 X99.548913 Y-25.63587 Z15
G01 X99.548913 Y-25.771739 Z15
G01 X99.548913 Y-25.907609 Z15
G01 X99.548913 Y-26.043478 Z15
G01 X67.891304 Y-26.043478 Z15
G01 X67.755435 Y-26.043478 Z21
G01 X59.331522 Y-26.043478 Z21
G01 X59.195652 Y-26.043478 Z15
G01 X42.483696 Y-26.043478 Z15
G01 X42.347826 Y-26.043478 Z21
G01 X28.76087 Y-26.043478 Z21
G01 X28.625 Y-26.043478 Z15
G01 X0.36413 Y-26.043478 Z15
G01 X0.36413 Y-26.179348 Z15
G01 X0.36413 Y-26.315217 Z15
G01 X0.36413 Y-26.451087 Z15
G01 X0.36413 Y-26.586957 Z15
G01 X29.032609 Y-26.586957 Z15
G01 X29.168478 Y-26.586957 Z21
G01 X43.163043 Y-26.586957 Z21
G01 X43.298913 Y-26.586957 Z15
G01 X57.972826 Y-26.586957 Z15
G01 X58.108696 Y-26.586957 Z21
G01 X67.755435 Y-26.586957 Z21
G01 X67.891304 Y-26.586957 Z15
G01 X99.548913 Y-26.586957 Z15
G01 X99.548913 Y-26.722826 Z15
G01 X99.548913 Y-26.858696 Z15
G01 X99.548913 Y-26.994565 Z15
G01 X99.548913 Y-27.130435 Z15
G01 X67.891304 Y-27.130435 Z15
G01 X67.755435 Y-27.130435 Z21
G01 X57.836957 Y-27.130435 Z21
G01 X57.701087 Y-27.130435 Z15
G01 X43.298913 Y-27.130435 Z15
G01 X43.163043 Y-27.130435 Z21
G01 X29.304348 Y-27.130435 Z21
G01 X29.168478 Y-27.130435 Z15
G01 X0.36413 Y-27.130435 Z15
G01 X0.36413 Y-27.266304 Z15
G01 X0.36413 Y-27.402174 Z15
G01 X0.36413 Y-27.538043 Z15
G01 X0.36413 Y-27.673913 Z15
G01 X29.168478 Y-27.673913 Z15
G01 X29.304348 Y-27.673913 Z21
G01 X43.434783 Y-27.673913 Z21
G01 X43.570652 Y-27.673913 Z15
G01 X57.021739 Y-27.673913 Z15
G01 X57.157609 Y-27.673913 Z21
G01 X67.755435 Y-27.673913 Z21
G01 X67.891304 Y-27.673913 Z15
G01 X99.548913 Y-27.673913 Z15
G01 X99.548913 Y-27.809783 Z15
G01 X99.548913 Y-27.945652 Z15
G01 X99.548913 Y-28.081522 Z15
G01 X99.548913 Y-28.217391 Z15
G01 X67.619565 Y-28.217391 Z15
G01 X67.483696 Y-28.217391 Z21
G01 X55.527174 Y-28.217391 Z21
G01 X55.391304 Y-28.217391 Z15
G01 X44.521739 Y-28.217391 Z15
G01 X44.38587 Y-28.217391 Z21
G01 X29.576087 Y-28.217391 Z21
G01 X29.440217 Y-28.217391 Z15
G01 X0.36413 Y-28.217391 Z15
G01 X0.36413 Y-28.353261 Z15
G01 X0.36413 Y-28.48913 Z15
G01 X0.36413 Y-28.625 Z15
G01 X0.36413 Y-28.76087 Z15
G01 X29.847826 Y-28.76087 Z15
G01 X29.983696 Y-28.76087 Z21
G01 X44.929348 Y-28.76087 Z21
G01 X45.065217 Y-28.76087 Z15
G01 X54.847826 Y-28.76087 Z15
G01 X54.983696 Y-28.76087 Z21
G01 X67.076087 Y-28.76087 Z21
G01 X67.211957 Y-28.76087 Z15
G01 X99.548913 Y-28.76087 Z15
G01 X99.548913 Y-28.896739 Z15
G01 X99.548913 Y-29.032609 Z15
G01 X99.548913 Y-29.168478 Z15
G01 X99.548913 Y-29.304348 Z15
G01 X66.396739 Y-29.304348 Z15
G01 X66.26087 Y-29.304348 Z21
G01 X54.168478 Y-29.304348 Z21
G01 X54.032609 Y-29.304348 Z15
G01 X45.065217 Y-29.304348 Z15
G01 X44.929348 Y-29.304348 Z21
G01 X30.527174 Y-29.304348 Z21
G01 X30.391304 Y-29.304348 Z15
G01 X0.36413 Y-29.304348 Z15
G01 X0.36413 Y-29.440217 Z15
G01 X0.36413 Y-29.576087 Z15
G01 X0.36413 Y-29.711957 Z15
G01 X0.36413 Y-29.847826 Z15
G01 X30.527174 Y-29.847826 Z15
G01 X30.663043 Y-29.847826 Z21
G01 X45.201087 Y-29.847826 Z21
G01 X45.336957 Y-29.847826 Z15
G01 X53.48913 Y-29.847826 Z15
G01 X53.625 Y-29.847826 Z21
G01 X65.309783 Y-29.847826 Z21
G01 X65.445652 Y-29.847826 Z15
G01 X99.548913 Y-29.847826 Z15
G01 X99.548913 Y-29.983696 Z15
G01 X99.548913 Y-30.119565 Z15
G01 X99.548913 Y-30.255435 Z15
G01 X99.548913 Y-30.391304 Z15
G01 X65.173913 Y-30.391304 Z15
G01 X65.038043 Y-30.391304 Z21
G01 X53.48913 Y-30.391304 Z21
G01 X53.353261 Y-30.391304 Z15
G01 X45.472826 Y-30.391304 Z15
G01 X45.336957 Y-30.391304 Z21
G01 X31.478261 Y-30.391304 Z21
G01 X31.342391 Y-30.391304 Z15
G01 X0.36413 Y-30.391304 Z15
G01 X0.36413 Y-30.527174 Z15
G01 X0.36413 Y-30.663043 Z15
G01 X0.36413 Y-30.798913 Z15
G01 X0.36413 Y-30.934783 Z15
G01 X31.342391 Y-30.934783 Z15
G01 X31.478261 Y-30.934783 Z21
G01 X45.608696 Y-30.934783 Z21
G01 X45.744565 Y-30.934783 Z15
G01 X53.081522 Y-30.934783 Z15
G01 X53.217391 Y-30.934783 Z21
G01 X64.222826 Y-30.934783 Z21
G01 X64.358696 Y-30.934783 Z15
G01 X99.548913 Y-30.934783 Z15
G01 X99.548913 Y-31.070652 Z15
G01 X99.548913 Y-31.206522 Z15
G01 X99.548913 Y-31.342391 Z15
G01 X99.548913 Y-31.478261 Z15
G01 X64.086957 Y-31.478261 Z15
G01 X63.951087 Y-31.478261 Z21
G01 X53.217391 Y-31.478261 Z21
G01 X53.081522 Y-31.478261 Z15
G01 X45.744565 Y-31.478261 Z15
G01 X45.608696 Y-31.478261 Z21
G01 X31.88587 Y-31.478261 Z21
G01 X31.75 Y-31.478261 Z15
G01 X0.36413 Y-31.478261 Z15
G01 X0.36413 Y-31.61413 Z15
G01 X0.36413 Y-31.75 Z15
G01 X0.36413 Y-31.88587 Z15
G01 X0.36413 Y-32.021739 Z15
G01 X32.429348 Y-32.021739 Z15
G01 X32.565217 Y-32.021739 Z21
G01 X45.880435 Y-32.021739 Z21
G01 X46.016304 Y-32.021739 Z15
G01 X53.217391 Y-32.021739 Z15
G01 X53.353261 Y-32.021739 Z21
G01 X62.320652 Y-32.021739 Z21
G01 X62.456522 Y-32.021739 Z15
G01 X99.548913 Y-32.021739 Z15
G01 X99.548913 Y-32.157609 Z15
G01 X99.548913 Y-32.293478 Z15
G01 X99.548913 Y-32.429348 Z15
G01 X99.548913 Y-32.565217 Z15
G01 X61.641304 Y-32.565217 Z15
G01 X61.505435 Y-32.565217 Z21
G01 X53.353261 Y-32.565217 Z21
G01 X53.217391 Y-32.565217 Z15
G01 X46.016304 Y-32.565217 Z15
G01 X45.880435 Y-32.565217 Z21
G01 X32.836957 Y-32.565217 Z21
G01 X32.701087 Y-32.565217 Z15
G01 X0.36413 Y-32.565217 Z15
G01 X0.36413 Y-32.701087 Z15
G01 X0.36413 Y-32.836957 Z15
G01 X0.36413 Y-32.972826 Z15
G01 X0.36413 Y-33.108696 Z15
G01 X33.380435 Y-33.108696 Z15
G01 X33.516304 Y-33.108696 Z21
G01 X45.744565 Y-33.108696 Z21
G01 X45.880435 Y-33.108696 Z15
G01 X53.217391 Y-33.108696 Z15
G01 X53.353261 Y-33.108696 Z21
G01 X61.505435 Y-33.108696 Z21
G01 X61.641304 Y-33.108696 Z15
G01 X99.548913 Y-33.108696 Z15
G01 X99.548913 Y-33.244565 Z15
G01 X99.548913 Y-33.380435 Z15
G01 X99.548913 Y-33.516304 Z15
G01 X99.548913 Y-33.652174 Z15
G01 X61.369565 Y-33.652174 Z15
G01 X61.233696 Y-33.652174 Z21
G01 X53.48913 Y-33.652174 Z21
G01 X53.353261 Y-33.652174 Z15
G01 X46.016304 Y-33.652174 Z15
G01 X45.880435 Y-33.652174 Z21
G01 X34.059783 Y-33.652174 Z21
G01 X33.923913 Y-33.652174 Z15
G01 X0.36413 Y-33.652174 Z15
G01 X0.36413 Y-33.788043 Z15
G01 X0.36413 Y-33.923913 Z15
G01 X0.36413 Y-34.059783 Z15
G01 X0.36413 Y-34.195652 Z15
G01 X35.01087 Y-34.195652 Z15
G01 X35.146739 Y-34.195652 Z21
G01 X45.880435 Y-34.195652 Z21
G01 X46.016304 Y-34.195652 Z15
G01 X53.76087 Y-34.195652 Z15
G01 X53.896739 Y-34.195652 Z21
G01 X60.418478 Y-34.195652 Z21
G01 X60.554348 Y-34.195652 Z15
G01 X99.548913 Y-34.195652 Z15
G01 X99.548913 Y-34.331522 Z15
G01 X99.548913 Y-34.467391 Z15
G01 X99.548913 Y-34.603261 Z15
G01 X99.548913 Y-34.73913 Z15
G01 X59.875 Y-34.73913 Z15
G01 X59.73913 Y-34.73913 Z21
G01 X54.440217 Y-34.73913 Z21
G01 X54.304348 Y-34.73913 Z15
G01 X45.744565 Y-34.73913 Z15
G01 X45.608696 Y-34.73913 Z21
G01 X35.690217 Y-34.73913 Z21
G01 X35.554348 Y-34.73913 Z15
G01 X0.36413 Y-34.73913 Z15
G01 X0.36413 Y-34.875 Z15
G01 X0.36413 Y-35.01087 Z15
G01 X0.36413 Y-35.146739 Z15
G01 X0.36413 Y-35.282609 Z15
G01 X36.913043 Y-35.282609 Z15
G01 X37.048913 Y-35.282609 Z21
G01 X45.472826 Y-35.282609 Z21
G01 X45.608696 Y-35.282609 Z15
G01 X55.527174 Y-35.282609 Z15
G01 X55.663043 Y-35.282609 Z21
G01 X58.380435 Y-35.282609 Z21
G01 X58.516304 Y-35.282609 Z15
G01 X99.548913 Y-35.282609 Z15
G01 X99.548913 Y-35.418478 Z15
G01 X99.548913 Y-35.554348 Z15
G01 X99.548913 Y-35.690217 Z15
G01 X99.548913 Y-35.826087 Z15
G01 X45.065217 Y-35.826087 Z15
G01 X44.929348 Y-35.826087 Z21
G01 X38.271739 Y-35.826087 Z21
G01 X38.13587 Y-35.826087 Z15
G01 X0.36413 Y-35.826087 Z15
G01 X0.36413 Y-35.961957 Z15
G01 X0.36413 Y-36.097826 Z15
G01 X0.36413 Y-36.233696 Z15
G01 X0.36413 Y-36.369565 Z15
G01 X38.815217 Y-36.369565 Z15
G01 X38.951087 Y-36.369565 Z21
G01 X44.929348 Y-36.369565 Z21
G01 X45.065217 Y-36.369565 Z15
G01 X99.548913 Y-36.369565 Z15
G01 X99.548913 Y-36.505435 Z15
G01 X99.548913 Y-36.641304 Z15
G01 X99.548913 Y-36.777174 Z15
G01 X99.548913 Y-36.913043 Z15
G01 X43.298913 Y-36.913043 Z15
G01 X43.163043 Y-36.913043 Z21
G01 X41.26087 Y-36.913043 Z21
G01 X41.125 Y-36.913043 Z15
G01 X0.36413 Y-36.913043 Z15
G01 X0.36413 Y-37.048913 Z15
G01 X0.36413 Y-37.184783 Z15
G01 X0.36413 Y-37.320652 Z15
G01 X0.36413 Y-37.456522 Z15
G01 X49.413043 Y-37.456522 Z15
G01 X49.548913 Y-37.456522 Z21
G01 X50.5 Y-37.456522 Z21
G01 X50.63587 Y-37.456522 Z15
G01 X99.548913 Y-37.456522 Z15
G01 X99.548913 Y-37.592391 Z15
G01 X99.548913 Y-37.728261 Z15
G01 X99.548913 Y-37.86413 Z15
G01 X99.548913 Y-38 Z15
G01 X51.858696 Y-38 Z15
G01 X51.722826 Y-38 Z21
G01 X48.326087 Y-38 Z21
G01 X48.190217 Y-38 Z15
G01 X0.36413 Y-38 Z15
G01 X0.36413 Y-38.13587 Z15
G01 X0.36413 Y-38.271739 Z15
G01 X0.36413 Y-38.407609 Z15
G01 X0.36413 Y-38.543478 Z15
G01 X46.831522 Y-38.543478 Z15
G01 X46.967391 Y-38.543478 Z21
G01 X52.266304 Y-38.543478 Z21
G01 X52.402174 Y-38.543478 Z15
G01 X99.548913 Y-38.543478 Z15
G01 X99.548913 Y-38.679348 Z15
G01 X99.548913 Y-38.815217 Z15
G01 X99.548913 Y-38.951087 Z15
G01 X99.548913 Y-39.086957 Z15
G01 X52.402174 Y-39.086957 Z15
G01 X52.266304 Y-39.086957 Z21
G01 X46.559783 Y-39.086957 Z21
G01 X46.423913 Y-39.086957 Z15
G01 X0.36413 Y-39.086957 Z15
G01 X0.36413 Y-39.222826 Z15
G01 X0.36413 Y-39.358696 Z15
G01 X0.36413 Y-39.494565 Z15
G01 X0.36413 Y-39.630435 Z15
G01 X46.423913 Y-39.630435 Z15
G01 X46.559783 Y-39.630435 Z21
G01 X52.266304 Y-39.630435 Z21
G01 X52.402174 Y-39.630435 Z15
G01 X99.548913 Y-39.630435 Z15
G01 X99.548913 Y-39.766304 Z15
G01 X99.548913 Y-39.902174 Z15
G01 X99.548913 Y-40.038043 Z15
G01 X99.548913 Y-40.173913 Z15
G01 X52.673913 Y-40.173913 Z15
G01 X52.538043 Y-40.173913 Z21
G01 X46.559783 Y-40.173913 Z21
G01 X46.423913 Y-40.173913 Z15
G01 X0.36413 Y-40.173913 Z15
G01 X0.36413 Y-40.309783 Z15
G01 X0.36413 Y-40.445652 Z15
G01 X0.36413 Y-40.581522 Z15
G01 X0.36413 Y-40.717391 Z15
G01 X46.559783 Y-40.717391 Z15
G01 X46.695652 Y-40.717391 Z21
G01 X52.538043 Y-40.717391 Z21
G01 X52.673913 Y-40.717391 Z15
G01 X99.548913 Y-40.717391 Z15
G01 X99.548913 Y-40.853261 Z15
G01 X99.548913 Y-40.98913 Z15
G01 X99.548913 Y-41.125 Z15
G01 X99.548913 Y-41.26087 Z15
G01 X52.538043 Y-41.26087 Z15
G01 X52.402174 Y-41.26087 Z21
G01 X49.820652 Y-41.26087 Z21
G01 X49.684783 Y-41.26087 Z15
G01 X49.005435 Y-41.26087 Z15
G01 X48.869565 Y-41.26087 Z21
G01 X47.103261 Y-41.26087 Z21
G01 X46.967391 Y-41.26087 Z15
G01 X0.36413 Y-41.26087 Z15
G01 X0.36413 Y-41.396739 Z15
G01 X0.36413 Y-41.532609 Z15
G01 X0.36413 Y-41.668478 Z15
G01 X0.36413 Y-41.804348 Z15
G01 X99.548913 Y-41.804348 Z15
G01 X99.548913 Y-41.940217 Z15
G01 X99.548913 Y-42.076087 Z15
G01 X99.548913 Y-42.211957 Z15
G01 X99.548913 Y-42.347826 Z15
G01 X0.36413 Y-42.347826 Z15
G01 X0.36413 Y-42.483696 Z15
G01 X0.36413 Y-42.619565 Z15
G01 X0.36413 Y-42.755435 Z15
G01 X0.36413 Y-42.891304 Z15
G01 X99.548913 Y-42.891304 Z15
G01 X99.548913 Y-43.027174 Z15
G01 X99.548913 Y-43.163043 Z15
G01 X99.548913 Y-43.298913 Z15
G01 X99.548913 Y-43.434783 Z15
G01 X0.36413 Y-43.434783 Z15
G01 X0.36413 Y-43.570652 Z15
G01 X0.36413 Y-43.706522 Z15
G01 X0.36413 Y-43.842391 Z15
G01 X0.36413 Y-43.978261 Z15
G01 X99.548913 Y-43.978261 Z15
G01 X99.548913 Y-44.11413 Z15
G01 X99.548913 Y-44.25 Z15
G01 X99.548913 Y-44.38587 Z15
G01 X99.548913 Y-44.521739 Z15
G01 X0.36413 Y-44.521739 Z15
G01 X0.36413 Y-44.657609 Z15
G01 X0.36413 Y-44.793478 Z15
G01 X0.36413 Y-44.929348 Z15
G01 X0.36413 Y-45.065217 Z15
G01 X99.548913 Y-45.065217 Z15
G01 X99.548913 Y-45.201087 Z15
G01 X99.548913 Y-45.336957 Z15
G01 X99.548913 Y-45.472826 Z15
G01 X99.548913 Y-45.608696 Z15
G01 X0.36413 Y-45.608696 Z15
G01 X0.36413 Y-45.744565 Z15
G01 X0.36413 Y-45.880435 Z15
G01 X0.36413 Y-46.016304 Z15
G01 X0.36413 Y-46.152174 Z15
G01 X99.548913 Y-46.152174 Z15
G01 X99.548913 Y-46.288043 Z15
G01 X99.548913 Y-46.423913 Z15
G01 X99.548913 Y-46.559783 Z15
G01 X99.548913 Y-46.695652 Z15
G01 X0.36413 Y-46.695652 Z15
G01 X0.36413 Y-46.831522 Z15
G01 X0.36413 Y-46.967391 Z15
G01 X0.36413 Y-47.103261 Z15
G01 X0.36413 Y-47.23913 Z15
G01 X99.548913 Y-47.23913 Z15
G01 X99.548913 Y-47.375 Z15
G01 X99.548913 Y-47.51087 Z15
G01 X99.548913 Y-47.646739 Z15
G01 X99.548913 Y-47.782609 Z15
G01 X0.36413 Y-47.782609 Z15
G01 X0.36413 Y-47.918478 Z15
G01 X0.36413 Y-48.054348 Z15
G01 X0.36413 Y-48.190217 Z15
G01 X0.36413 Y-48.326087 Z15
G01 X99.548913 Y-48.326087 Z15
G01 X99.548913 Y-48.461957 Z15
G01 X99.548913 Y-48.597826 Z15
G01 X99.548913 Y-48.733696 Z15
G01 X99.548913 Y-48.869565 Z15
G01 X0.36413 Y-48.869565 Z15
G01 X0.36413 Y-49.005435 Z15
G01 X0.36413 Y-49.141304 Z15
G01 X0.36413 Y-49.277174 Z15
G01 X0.36413 Y-49.413043 Z15
G01 X99.548913 Y-49.413043 Z15
G01 X99.548913 Y-49.548913 Z15
G01 X99.548913 Y-49.684783 Z15
G01 X99.548913 Y-49.820652 Z15
G01 X99.548913 Y-49.956522 Z15
G01 X0.36413 Y-49.956522 Z15
G01 X0.36413 Y-50.092391 Z15
G01 X0.36413 Y-50.228261 Z15
G01 X0.36413 Y-50.36413 Z15
G01 X0.36413 Y-50.5 Z15
G01 X99.548913 Y-50.5 Z15
G01 X99.548913 Y-50.63587 Z15
G01 X99.548913 Y-50.771739 Z15
G01 X99.548913 Y-50.907609 Z15
G01 X99.548913 Y-51.043478 Z15
G01 X0.36413 Y-51.043478 Z15
G01 X0.36413 Y-51.179348 Z15
G01 X0.36413 Y-51.315217 Z15
G01 X0.36413 Y-51.451087 Z15
G01 X0.36413 Y-51.586957 Z15
G01 X99.548913 Y-51.586957 Z15
G01 X99.548913 Y-51.722826 Z15
G01 X99.548913 Y-51.858696 Z15
G01 X99.548913 Y-51.994565 Z15
G01 X99.548913 Y-52.130435 Z15
G01 X0.36413 Y-52.130435 Z15
G01 X0.36413 Y-52.266304 Z15
G01 X0.36413 Y-52.402174 Z15
G01 X0.36413 Y-52.538043 Z15
G01 X0.36413 Y-52.673913 Z15
G01 X99.548913 Y-52.673913 Z15
G01 X99.548913 Y-52.809783 Z15
G01 X99.548913 Y-52.945652 Z15
G01 X99.548913 Y-53.081522 Z15
G01 X99.548913 Y-53.217391 Z15
G01 X0.36413 Y-53.217391 Z15
G01 X0.36413 Y-53.353261 Z15
G01 X0.36413 Y-53.48913 Z15
G01 X0.36413 Y-53.625 Z15
G01 X0.36413 Y-53.76087 Z15
G01 X99.548913 Y-53.76087 Z15
G01 X99.548913 Y-53.896739 Z15
G01 X99.548913 Y-54.032609 Z15
G01 X99.548913 Y-54.168478 Z15
G01 X99.548913 Y-54.304348 Z15
G01 X0.36413 Y-54.304348 Z15
G01 X0.36413 Y-54.440217 Z15
G01 X0.36413 Y-54.576087 Z15
G01 X0.36413 Y-54.711957 Z15
G01 X0.36413 Y-54.847826 Z15
G01 X99.548913 Y-54.847826 Z15
G01 X99.548913 Y-54.983696 Z15
G01 X99.548913 Y-55.119565 Z15
G01 X99.548913 Y-55.255435 Z15
G01 X99.548913 Y-55.391304 Z15
G01 X0.36413 Y-55.391304 Z15
G01 X0.36413 Y-55.527174 Z15
G01 X0.36413 Y-55.663043 Z15
G01 X0.36413 Y-55.798913 Z15
G01 X0.36413 Y-55.934783 Z15
G01 X99.548913 Y-55.934783 Z15
G01 X99.548913 Y-56.070652 Z15
G01 X99.548913 Y-56.206522 Z15
G01 X99.548913 Y-56.342391 Z15
G01 X99.548913 Y-56.478261 Z15
G01 X0.36413 Y-56.478261 Z15
G01 X0.36413 Y-56.61413 Z15
G01 X0.36413 Y-56.75 Z15
G01 X0.36413 Y-56.88587 Z15
G01 X0.36413 Y-57.021739 Z15
G01 X99.548913 Y-57.021739 Z15
G01 X99.548913 Y-57.157609 Z15
G01 X99.548913 Y-57.293478 Z15
G01 X99.548913 Y-57.429348 Z15
G01 X99.548913 Y-57.565217 Z15
G01 X0.36413 Y-57.565217 Z15
G01 X0.36413 Y-57.701087 Z15
G01 X0.36413 Y-57.836957 Z15
G01 X0.36413 Y-57.972826 Z15
G01 X0.36413 Y-58.108696 Z15
G01 X99.548913 Y-58.108696 Z15
G01 X99.548913 Y-58.244565 Z15
G01 X99.548913 Y-58.380435 Z15
G01 X99.548913 Y-58.516304 Z15
G01 X99.548913 Y-58.652174 Z15
G01 X0.36413 Y-58.652174 Z15
G01 X0.36413 Y-58.788043 Z15
G01 X0.36413 Y-58.923913 Z15
G01 X0.36413 Y-59.059783 Z15
G01 X0.36413 Y-59.195652 Z15
G01 X99.548913 Y-59.195652 Z15
G01 X99.548913 Y-59.331522 Z15
G01 X99.548913 Y-59.467391 Z15
G01 X99.548913 Y-59.603261 Z15
G01 X99.548913 Y-59.73913 Z15
G01 X0.36413 Y-59.73913 Z15
G01 X0.36413 Y-59.875 Z15
G01 X0.36413 Y-60.01087 Z15
G01 X0.36413 Y-60.146739 Z15
G01 X0.36413 Y-60.282609 Z15
G01 X99.548913 Y-60.282609 Z15
G01 X99.548913 Y-60.418478 Z15
G01 X99.548913 Y-60.554348 Z15
G01 X99.548913 Y-60.690217 Z15
G01 X99.548913 Y-60.826087 Z15
G01 X0.36413 Y-60.826087 Z15
G01 X0.36413 Y-60.961957 Z15
G01 X0.36413 Y-61.097826 Z15
G01 X0.36413 Y-61.233696 Z15
G01 X0.36413 Y-61.369565 Z15
G01 X99.548913 Y-61.369565 Z15
G01 X99.548913 Y-61.505435 Z15
G01 X99.548913 Y-61.641304 Z15
G01 X99.548913 Y-61.777174 Z15
G01 X99.548913 Y-61.913043 Z15
G01 X0.36413 Y-61.913043 Z15
G01 X0.36413 Y-62.048913 Z15
G01 X0.36413 Y-62.184783 Z15
G01 X0.36413 Y-62.320652 Z15
G01 X0.36413 Y-62.456522 Z15
G01 X99.548913 Y-62.456522 Z15
G01 X99.548913 Y-62.592391 Z15
G01 X99.548913 Y-62.728261 Z15
G01 X99.548913 Y-62.86413 Z15
G01 X99.548913 Y-63 Z15
G01 X0.36413 Y-63 Z15
G01 X0.36413 Y-63.13587 Z15
G01 X0.36413 Y-63.271739 Z15
G01 X0.36413 Y-63.407609 Z15
G01 X0.36413 Y-63.543478 Z15
G01 X99.548913 Y-63.543478 Z15
G01 X99.548913 Y-63.679348 Z15
G01 X99.548913 Y-63.815217 Z15
G01 X99.548913 Y-63.951087 Z15
G01 X99.548913 Y-64.086957 Z15
G01 X0.36413 Y-64.086957 Z15
G01 X0.36413 Y-64.222826 Z15
G01 X0.36413 Y-64.358696 Z15
G01 X0.36413 Y-64.494565 Z15
G01 X0.36413 Y-64.630435 Z15
G01 X99.548913 Y-64.630435 Z15
G01 X99.548913 Y-64.766304 Z15
G01 X99.548913 Y-64.902174 Z15
G01 X99.548913 Y-65.038043 Z15
G01 X99.548913 Y-65.173913 Z15
G01 X0.36413 Y-65.173913 Z15
G01 X0.36413 Y-65.309783 Z15
G01 X0.36413 Y-65.445652 Z15
G01 X0.36413 Y-65.581522 Z15
G01 X0.36413 Y-65.717391 Z15
G01 X99.548913 Y-65.717391 Z15
G01 X99.548913 Y-65.853261 Z15
G01 X99.548913 Y-65.98913 Z15
G01 X99.548913 Y-66.125 Z15
G01 X99.548913 Y-66.26087 Z15
G01 X0.36413 Y-66.26087 Z15
G01 X0.36413 Y-66.396739 Z15
G01 X0.36413 Y-66.532609 Z15
G01 X0.36413 Y-66.668478 Z15
G01 X0.36413 Y-66.804348 Z15
G01 X99.548913 Y-66.804348 Z15
G01 X99.548913 Y-66.940217 Z15
G01 X99.548913 Y-67.076087 Z15
G01 X99.548913 Y-67.211957 Z15
G01 X99.548913 Y-67.347826 Z15
G01 X0.36413 Y-67.347826 Z15
G01 X0.36413 Y-67.483696 Z15
G01 X0.36413 Y-67.619565 Z15
G01 X0.36413 Y-67.755435 Z15
G01 X0.36413 Y-67.891304 Z15
G01 X99.548913 Y-67.891304 Z15
G01 X99.548913 Y-68.027174 Z15
G01 X99.548913 Y-68.163043 Z15
G01 X99.548913 Y-68.298913 Z15
G01 X99.548913 Y-68.434783 Z15
G01 X0.36413 Y-68.434783 Z15
G01 X0.36413 Y-68.570652 Z15
G01 X0.36413 Y-68.706522 Z15
G01 X0.36413 Y-68.842391 Z15
G01 X0.36413 Y-68.978261 Z15
G01 X99.548913 Y-68.978261 Z15
G01 X99.548913 Y-69.11413 Z15
G01 X99.548913 Y-69.25 Z15
G01 X99.548913 Y-69.38587 Z15
G01 X99.548913 Y-69.521739 Z15
G01 X0.36413 Y-69.521739 Z15
G01 X0.36413 Y-69.657609 Z15
G01 X0.36413 Y-69.793478 Z15
G01 X0.36413 Y-69.929348 Z15
G01 X0.36413 Y-70.065217 Z15
G01 X99.548913 Y-70.065217 Z15
G01 X99.548913 Y-70.201087 Z15
G01 X99.548913 Y-70.336957 Z15
G01 X99.548913 Y-70.472826 Z15
G01 X99.548913 Y-70.608696 Z15
G01 X0.36413 Y-70.608696 Z15
G01 X0.36413 Y-70.744565 Z15
G01 X0.36413 Y-70.880435 Z15
G01 X0.36413 Y-71.016304 Z15
G01 X0.36413 Y-71.152174 Z15
G01 X99.548913 Y-71.152174 Z15
G01 X99.548913 Y-71.288043 Z15
G01 X99.548913 Y-71.423913 Z15
G01 X99.548913 Y-71.559783 Z15
G01 X99.548913 Y-71.695652 Z15
G01 X0.36413 Y-71.695652 Z15
G01 X0.36413 Y-71.831522 Z15
G01 X0.36413 Y-71.967391 Z21
G01 X0.5 Y-0.5 Z21
G01 X0.63587 Y-0.5 Z10
G01 X99.548913 Y-0.5 Z10
G01 X99.548913 Y-0.63587 Z10
G01 X99.548913 Y-0.771739 Z10
G01 X99.548913 Y-0.907609 Z10
G01 X99.548913 Y-1.043478 Z10
G01 X0.36413 Y-1.043478 Z10
G01 X0.36413 Y-1.179348 Z10
G01 X0.36413 Y-1.315217 Z10
G01 X0.36413 Y-1.451087 Z10
G01 X0.36413 Y-1.586957 Z10
G01 X99.548913 Y-1.586957 Z10
G01 X99.548913 Y-1.722826 Z10
G01 X99.548913 Y-1.858696 Z10
G01 X99.548913 Y-1.994565 Z10
G01 X99.548913 Y-2.130435 Z10
G01 X0.36413 Y-2.130435 Z10
G01 X0.36413 Y-2.266304 Z10
G01 X0.36413 Y-2.402174 Z10
G01 X0.36413 Y-2.538043 Z10
G01 X0.36413 Y-2.673913 Z10
G01 X99.548913 Y-2.673913 Z10
G01 X99.548913 Y-2.809783 Z10
G01 X99.548913 Y-2.945652 Z10
G01 X99.548913 Y-3.081522 Z10
G01 X99.548913 Y-3.217391 Z10
G01 X0.36413 Y-3.217391 Z10
G01 X0.36413 Y-3.353261 Z10
G01 X0.36413 Y-3.48913 Z10
G01 X0.36413 Y-3.625 Z10
G01 X0.36413 Y-3.76087 Z10
G01 X99.548913 Y-3.76087 Z10
G01 X99.548913 Y-3.896739 Z10
G01 X99.548913 Y-4.032609 Z10
G01 X99.548913 Y-4.168478 Z10
G01 X99.548913 Y-4.304348 Z10
G01 X0.36413 Y-4.304348 Z10
G01 X0.36413 Y-4.440217 Z10
G01 X0.36413 Y-4.576087 Z10
G01 X0.36413 Y-4.711957 Z10
G01 X0.36413 Y-4.847826 Z10
G01 X99.548913 Y-4.847826 Z10
G01 X99.548913 Y-4.983696 Z10
G01 X99.548913 Y-5.119565 Z10
G01 X99.548913 Y-5.255435 Z10
G01 X99.548913 Y-5.391304 Z10
G01 X50.5 Y-5.391304 Z10
G01 X50.36413 Y-5.391304 Z21
G01 X43.706522 Y-5.391304 Z21
G01 X43.570652 Y-5.391304 Z10
G01 X0.36413 Y-5.391304 Z10
G01 X0.36413 Y-5.527174 Z10
G01 X0.36413 Y-5.663043 Z10
G01 X0.36413 Y-5.798913 Z10
G01 X0.36413 Y-5.934783 Z10
G01 X40.173913 Y-5.934783 Z10
G01 X40.309783 Y-5.934783 Z21
G01 X54.847826 Y-5.934783 Z21
G01 X54.983696 Y-5.934783 Z10
G01 X99.548913 Y-5.934783 Z10
G01 X99.548913 Y-6.070652 Z10
G01 X99.548913 Y-6.206522 Z10
G01 X99.548913 Y-6.342391 Z10
G01 X99.548913 Y-6.478261 Z10
G01 X57.021739 Y-6.478261 Z10
G01 X56.88587 Y-6.478261 Z21
G01 X37.86413 Y-6.478261 Z21
G01 X37.728261 Y-6.478261 Z10
G01 X0.36413 Y-6.478261 Z10
G01 X0.36413 Y-6.61413 Z10
G01 X0.36413 Y-6.75 Z10
G01 X0.36413 Y-6.88587 Z10
G01 X0.36413 Y-7.021739 Z10
G01 X35.01087 Y-7.021739 Z10
G01 X35.146739 Y-7.021739 Z21
G01 X58.516304 Y-7.021739 Z21
G01 X58.652174 Y-7.021739 Z10
G01 X99.548913 Y-7.021739 Z10
G01 X99.548913 Y-7.157609 Z10
G01 X99.548913 Y-7.293478 Z10
G01 X99.548913 Y-7.429348 Z10
G01 X99.548913 Y-7.565217 Z10
G01 X60.554348 Y-7.565217 Z10
G01 X60.418478 Y-7.565217 Z21
G01 X33.923913 Y-7.565217 Z21
G01 X33.788043 Y-7.565217 Z10
G01 X0.36413 Y-7.565217 Z10
G01 X0.36413 Y-7.701087 Z10
G01 X0.36413 Y-7.836957 Z10
G01 X0.36413 Y-7.972826 Z10
G01 X0.36413 Y-8.108696 Z10
G01 X24.277174 Y-8.108696 Z10
G01 X24.413043 Y-8.108696 Z21
G01 X27.673913 Y-8.108696 Z21
G01 X27.809783 Y-8.108696 Z10
G01 X32.701087 Y-8.108696 Z10
G01 X32.836957 Y-8.108696 Z21
G01 X62.592391 Y-8.108696 Z21
G01 X62.728261 Y-8.108696 Z10
G01 X99.548913 Y-8.108696 Z10
G01 X99.548913 Y-8.244565 Z10
G01 X99.548913 Y-8.380435 Z10
G01 X99.548913 Y-8.516304 Z10
G01 X99.548913 Y-8.652174 Z10
G01 X63 Y-8.652174 Z10
G01 X62.86413 Y-8.652174 Z21
G01 X32.157609 Y-8.652174 Z21
G01 X32.021739 Y-8.652174 Z10
G01 X29.168478 Y-8.652174 Z10
G01 X29.032609 Y-8.652174 Z21
G01 X23.461957 Y-8.652174 Z21
G01 X23.326087 Y-8.652174 Z10
G01 X0.36413 Y-8.652174 Z10
G01 X0.36413 Y-8.788043 Z10
G01 X0.36413 Y-8.923913 Z10
G01 X0.36413 Y-9.059783 Z10
G01 X0.36413 Y-9.195652 Z10
G01 X22.103261 Y-9.195652 Z10
G01 X22.23913 Y-9.195652 Z21
G01 X29.847826 Y-9.195652 Z21
G01 X29.983696 Y-9.195652 Z10
G01 X30.934783 Y-9.195652 Z10
G01 X31.070652 Y-9.195652 Z21
G01 X63.951087 Y-9.195652 Z21
G01 X64.086957 Y-9.195652 Z10
G01 X99.548913 Y-9.195652 Z10
G01 X99.548913 Y-9.331522 Z10
G01 X99.548913 Y-9.467391 Z10
G01 X99.548913 Y-9.603261 Z10
G01 X99.548913 Y-9.73913 Z10
G01 X65.038043 Y-9.73913 Z10
G01 X64.902174 Y-9.73913 Z21
G01 X21.288043 Y-9.73913 Z21
G01 X21.152174 Y-9.73913 Z10
G01 X0.36413 Y-9.73913 Z10
G01 X0.36413 Y-9.875 Z10
G01 X0.36413 Y-10.01087 Z10
G01 X0.36413 Y-10.146739 Z10
G01 X0.36413 Y-10.282609 Z10
G01 X20.608696 Y-10.282609 Z10
G01 X20.744565 Y-10.282609 Z21
G01 X65.581522 Y-10.282609 Z21
G01 X65.717391 Y-10.282609 Z10
G01 X99.548913 Y-10.282609 Z10
G01 X99.548913 Y-10.418478 Z10
G01 X99.548913 Y-10.554348 Z10
G01 X99.548913 Y-10.690217 Z10
G01 X99.548913 Y-10.826087 Z10
G01 X66.532609 Y-10.826087 Z10
G01 X66.396739 Y-10.826087 Z21
G01 X20.201087 Y-10.826087 Z21
G01 X20.065217 Y-10.826087 Z10
G01 X0.36413 Y-10.826087 Z10
G01 X0.36413 Y-10.961957 Z10
G01 X0.36413 Y-11.097826 Z10
G01 X0.36413 Y-11.233696 Z10
G01 X0.36413 Y-11.369565 Z10
G01 X19.929348 Y-11.369565 Z10
G01 X20.065217 Y-11.369565 Z21
G01 X67.076087 Y-11.369565 Z21
G01 X67.211957 Y-11.369565 Z10
G01 X99.548913 Y-11.369565 Z10
G01 X99.548913 Y-11.505435 Z10
G01 X99.548913 Y-11.641304 Z10
G01 X99.548913 Y-11.777174 Z10
G01 X99.548913 Y-11.913043 Z10
G01 X67.891304 Y-11.913043 Z10
G01 X67.755435 Y-11.913043 Z21
G01 X19.657609 Y-11.913043 Z21
G01 X19.521739 Y-11.913043 Z10
G01 X0.36413 Y-11.913043 Z10
G01 X0.36413 Y-12.048913 Z10
G01 X0.36413 Y-12.184783 Z10
G01 X0.36413 Y-12.320652 Z10
G01 X0.36413 Y-12.456522 Z10
G01 X19.11413 Y-12.456522 Z10
G01 X19.25 Y-12.456522 Z21
G01 X68.163043 Y-12.456522 Z21
G01 X68.298913 Y-12.456522 Z10
G01 X99.548913 Y-12.456522 Z10
G01 X99.548913 Y-12.592391 Z10
G01 X99.548913 Y-12.728261 Z10
G01 X99.548913 Y-12.86413 Z10
G01 X99.548913 Y-13 Z10
G01 X68.978261 Y-13 Z10
G01 X68.842391 Y-13 Z21
G01 X19.11413 Y-13 Z21
G01 X18.978261 Y-13 Z10
G01 X0.36413 Y-13 Z10
G01 X0.36413 Y-13.13587 Z10
G01 X0.36413 Y-13.271739 Z10
G01 X0.36413 Y-13.407609 Z10
G01 X0.36413 Y-13.543478 Z10
G01 X18.706522 Y-13.543478 Z10
G01 X18.842391 Y-13.543478 Z21
G01 X68.842391 Y-13.543478 Z21
G01 X68.978261 Y-13.543478 Z10
G01 X99.548913 Y-13.543478 Z10
G01 X99.548913 Y-13.679348 Z10
G01 X99.548913 Y-13.815217 Z10
G01 X99.548913 Y-13.951087 Z10
G01 X99.548913 Y-14.086957 Z10
G01 X69.521739 Y-14.086957 Z10
G01 X69.38587 Y-14.086957 Z21
G01 X18.706522 Y-14.086957 Z21
G01 X18.570652 Y-14.086957 Z10
G01 X0.36413 Y-14.086957 Z10
G01 X0.36413 Y-14.222826 Z10
G01 X0.36413 Y-14.358696 Z10
G01 X0.36413 Y-14.494565 Z10
G01 X0.36413 Y-14.630435 Z10
G01 X18.570652 Y-14.630435 Z10
G01 X18.706522 Y-14.630435 Z21
G01 X69.929348 Y-14.630435 Z21
G01 X70.065217 Y-14.630435 Z10
G01 X99.548913 Y-14.630435 Z10
G01 X99.548913 Y-14.766304 Z10
G01 X99.548913 Y-14.902174 Z10
G01 X99.548913 Y-15.038043 Z10
G01 X99.548913 Y-15.173913 Z10
G01 X70.472826 Y-15.173913 Z10
G01 X70.336957 Y-15.173913 Z21
G01 X18.434783 Y-15.173913 Z21
G01 X18.298913 Y-15.173913 Z10
G01 X0.36413 Y-15.173913 Z10
G01 X0.36413 Y-15.309783 Z10
G01 X0.36413 Y-15.445652 Z10
G01 X0.36413 Y-15.581522 Z10
G01 X0.36413 Y-15.717391 Z10
G01 X18.298913 Y-15.717391 Z10
G01 X18.434783 Y-15.717391 Z21
G01 X70.744565 Y-15.717391 Z21
G01 X70.880435 Y-15.717391 Z10
G01 X99.548913 Y-15.717391 Z10
G01 X99.548913 Y-15.853261 Z10
G01 X99.548913 Y-15.98913 Z10
G01 X99.548913 Y-16.125 Z10
G01 X99.548913 Y-16.26087 Z10
G01 X71.152174 Y-16.26087 Z10
G01 X71.016304 Y-16.26087 Z21
G01 X18.298913 Y-16.26087 Z21
G01 X18.163043 Y-16.26087 Z10
G01 X0.36413 Y-16.26087 Z10
G01 X0.36413 Y-16.396739 Z10
G01 X0.36413 Y-16.532609 Z10
G01 X0.36413 Y-16.668478 Z10
G01 X0.36413 Y-16.804348 Z10
G01 X18.027174 Y-16.804348 Z10
G01 X18.163043 Y-16.804348 Z21
G01 X71.288043 Y-16.804348 Z21
G01 X71.423913 Y-16.804348 Z10
G01 X99.548913 Y-16.804348 Z10
G01 X99.548913 Y-16.940217 Z10
G01 X99.548913 Y-17.076087 Z10
G01 X99.548913 Y-17.211957 Z10
G01 X99.548913 Y-17.347826 Z10
G01 X71.967391 Y-17.347826 Z10
G01 X71.831522 Y-17.347826 Z21
G01 X18.027174 Y-17.347826 Z21
G01 X17.891304 Y-17.347826 Z10
G01 X0.36413 Y-17.347826 Z10
G01 X0.36413 Y-17.483696 Z10
G01 X0.36413 Y-17.619565 Z10
G01 X0.36413 Y-17.755435 Z10
G01 X0.36413 Y-17.891304 Z10
G01 X17.891304 Y-17.891304 Z10
G01 X18.027174 Y-17.891304 Z21
G01 X71.967391 Y-17.891304 Z21
G01 X72.103261 Y-17.891304 Z10
G01 X99.548913 Y-17.891304 Z10
G01 X99.548913 Y-18.027174 Z10
G01 X99.548913 Y-18.163043 Z10
G01 X99.548913 Y-18.298913 Z10
G01 X99.548913 Y-18.434783 Z10
G01 X73.190217 Y-18.434783 Z10
G01 X73.054348 Y-18.434783 Z21
G01 X18.298913 Y-18.434783 Z21
G01 X18.163043 Y-18.434783 Z10
G01 X0.36413 Y-18.434783 Z10
G01 X0.36413 Y-18.570652 Z10
G01 X0.36413 Y-18.706522 Z10
G01 X0.36413 Y-18.842391 Z10
G01 X0.36413 Y-18.978261 Z10
G01 X18.163043 Y-18.978261 Z10
G01 X18.298913 Y-18.978261 Z21
G01 X76.451087 Y-18.978261 Z21
G01 X76.586957 Y-18.978261 Z10
G01 X99.548913 Y-18.978261 Z10
G01 X99.548913 Y-19.11413 Z10
G01 X99.548913 Y-19.25 Z10
G01 X99.548913 Y-19.38587 Z10
G01 X99.548913 Y-19.521739 Z10
G01 X77.402174 Y-19.521739 Z10
G01 X77.266304 Y-19.521739 Z21
G01 X18.298913 Y-19.521739 Z21
G01 X18.163043 Y-19.521739 Z10
G01 X0.36413 Y-19.521739 Z10
G01 X0.36413 Y-19.657609 Z10
G01 X0.36413 Y-19.793478 Z10
G01 X0.36413 Y-19.929348 Z10
G01 X0.36413 Y-20.065217 Z10
G01 X18.163043 Y-20.065217 Z10
G01 X18.298913 Y-20.065217 Z21
G01 X78.353261 Y-20.065217 Z21
G01 X78.48913 Y-20.065217 Z10
G01 X99.548913 Y-20.065217 Z10
G01 X99.548913 Y-20.201087 Z10
G01 X99.548913 Y-20.336957 Z10
G01 X99.548913 Y-20.472826 Z10
G01 X99.548913 Y-20.608696 Z10
G01 X78.76087 Y-20.608696 Z10
G01 X78.625 Y-20.608696 Z21
G01 X18.434783 Y-20.608696 Z21
G01 X18.298913 Y-20.608696 Z10
G01 X0.36413 Y-20.608696 Z10
G01 X0.36413 Y-20.744565 Z10
G01 X0.36413 Y-20.880435 Z10
G01 X0.36413 Y-21.016304 Z10
G01 X0.36413 Y-21.152174 Z10
G01 X18.706522 Y-21.152174 Z10
G01 X18.842391 Y-21.152174 Z21
G01 X78.896739 Y-21.152174 Z21
G01 X79.032609 Y-21.152174 Z10
G01 X99.548913 Y-21.152174 Z10
G01 X99.548913 Y-21.288043 Z10
G01 X99.548913 Y-21.423913 Z10
G01 X99.548913 Y-21.559783 Z10
G01 X99.548913 Y-21.695652 Z10
G01 X79.304348 Y-21.695652 Z10
G01 X79.168478 Y-21.695652 Z21
G01 X18.842391 Y-21.695652 Z21
G01 X18.706522 Y-21.695652 Z10
G01 X0.36413 Y-21.695652 Z10
G01 X0.36413 Y-21.831522 Z10
G01 X0.36413 Y-21.967391 Z10
G01 X0.36413 Y-22.103261 Z10
G01 X0.36413 Y-22.23913 Z10
G01 X19.25 Y-22.23913 Z10
G01 X19.38587 Y-22.23913 Z21
G01 X79.304348 Y-22.23913 Z21
G01 X79.440217 Y-22.23913 Z10
G01 X99.548913 Y-22.23913 Z10
G01 X99.548913 Y-22.375 Z10
G01 X99.548913 Y-22.51087 Z10
G01 X99.548913 Y-22.646739 Z10
G01 X99.548913 Y-22.782609 Z10
G01 X79.440217 Y-22.782609 Z10
G01 X79.304348 Y-22.782609 Z21
G01 X19.657609 Y-22.782609 Z21
G01 X19.521739 Y-22.782609 Z10
G01 X0.36413 Y-22.782609 Z10
G01 X0.36413 Y-22.918478 Z10
G01 X0.36413 Y-23.054348 Z10
G01 X0.36413 Y-23.190217 Z10
G01 X0.36413 Y-23.326087 Z10
G01 X20.065217 Y-23.326087 Z10
G01 X20.201087 Y-23.326087 Z21
G01 X79.304348 Y-23.326087 Z21
G01 X79.440217 Y-23.326087 Z10
G01 X99.548913 Y-23.326087 Z10
G01 X99.548913 Y-23.461957 Z10
G01 X99.548913 Y-23.597826 Z10
G01 X99.548913 Y-23.733696 Z10
G01 X99.548913 Y-23.869565 Z10
G01 X79.440217 Y-23.869565 Z10
G01 X79.304348 Y-23.869565 Z21
G01 X20.744565 Y-23.869565 Z21
G01 X20.608696 Y-23.869565 Z10
G01 X0.36413 Y-23.869565 Z10
G01 X0.36413 Y-24.005435 Z10
G01 X0.36413 Y-24.141304 Z10
G01 X0.36413 Y-24.277174 Z10
G01 X0.36413 Y-24.413043 Z10
G01 X21.152174 Y-24.413043 Z10
G01 X21.288043 Y-24.413043 Z21
G01 X79.304348 Y-24.413043 Z21
G01 X79.440217 Y-24.413043 Z10
G01 X99.548913 Y-24.413043 Z10
G01 X99.548913 Y-24.548913 Z10
G01 X99.548913 Y-24.684783 Z10
G01 X99.548913 Y-24.820652 Z10
G01 X99.548913 Y-24.956522 Z10
G01 X79.304348 Y-24.956522 Z10
G01 X79.168478 Y-24.956522 Z21
G01 X21.695652 Y-24.956522 Z21
G01 X21.559783 Y-24.956522 Z10
G01 X0.36413 Y-24.956522 Z10
G01 X0.36413 Y-25.092391 Z10
G01 X0.36413 Y-25.228261 Z10
G01 X0.36413 Y-25.36413 Z10
G01 X0.36413 Y-25.5 Z10
G01 X22.51087 Y-25.5 Z10
G01 X22.646739 Y-25.5 Z21
G01 X79.168478 Y-25.5 Z21
G01 X79.304348 Y-25.5 Z10
G01 X99.548913 Y-25.5 Z10
G01 X99.548913 Y-25.63587 Z10
G01 X99.548913 Y-25.771739 Z10
G01 X99.548913 Y-25.907609 Z10
G01 X99.548913 Y-26.043478 Z10
G01 X79.304348 Y-26.043478 Z10
G01 X79.168478 Y-26.043478 Z21
G01 X23.733696 Y-26.043478 Z21
G01 X23.597826 Y-26.043478 Z10
G01 X0.36413 Y-26.043478 Z10
G01 X0.36413 Y-26.179348 Z10
G01 X0.36413 Y-26.315217 Z10
G01 X0.36413 Y-26.451087 Z10
G01 X0.36413 Y-26.586957 Z10
G01 X24.413043 Y-26.586957 Z10
G01 X24.548913 Y-26.586957 Z21
G01 X78.896739 Y-26.586957 Z21
G01 X79.032609 Y-26.586957 Z10
G01 X99.548913 Y-26.586957 Z10
G01 X99.548913 Y-26.722826 Z10
G01 X99.548913 Y-26.858696 Z10
G01 X99.548913 Y-26.994565 Z10
G01 X99.548913 Y-27.130435 Z10
G01 X78.896739 Y-27.130435 Z10
G01 X78.76087 Y-27.130435 Z21
G01 X25.5 Y-27.130435 Z21
G01 X25.36413 Y-27.130435 Z10
G01 X0.36413 Y-27.130435 Z10
G01 X0.36413 Y-27.266304 Z10
G01 X0.36413 Y-27.402174 Z10
G01 X0.36413 Y-27.538043 Z10
G01 X0.36413 Y-27.673913 Z10
G01 X25.907609 Y-27.673913 Z10
G01 X26.043478 Y-27.673913 Z21
G01 X78.76087 Y-27.673913 Z21
G01 X78.896739 Y-27.673913 Z10
G01 X99.548913 Y-27.673913 Z10
G01 X99.548913 Y-27.809783 Z10
G01 X99.548913 Y-27.945652 Z10
G01 X99.548913 Y-28.081522 Z10
G01 X99.548913 Y-28.217391 Z10
G01 X78.353261 Y-28.217391 Z10
G01 X78.217391 Y-28.217391 Z21
G01 X27.130435 Y-28.217391 Z21
G01 X26.994565 Y-28.217391 Z10
G01 X0.36413 Y-28.217391 Z10
G01 X0.36413 Y-28.353261 Z10
G01 X0.36413 Y-28.48913 Z10
G01 X0.36413 Y-28.625 Z10
G01 X0.36413 Y-28.76087 Z10
G01 X27.538043 Y-28.76087 Z10
G01 X27.673913 Y-28.76087 Z21
G01 X77.673913 Y-28.76087 Z21
G01 X77.809783 Y-28.76087 Z10
G01 X99.548913 Y-28.76087 Z10
G01 X99.548913 Y-28.896739 Z10
G01 X99.548913 Y-29.032609 Z10
G01 X99.548913 Y-29.168478 Z10
G01 X99.548913 Y-29.304348 Z10
G01 X77.402174 Y-29.304348 Z10
G01 X77.266304 Y-29.304348 Z21
G01 X28.353261 Y-29.304348 Z21
G01 X28.217391 Y-29.304348 Z10
G01 X0.36413 Y-29.304348 Z10
G01 X0.36413 Y-29.440217 Z10
G01 X0.36413 Y-29.576087 Z10
G01 X0.36413 Y-29.711957 Z10
G01 X0.36413 Y-29.847826 Z10
G01 X28.896739 Y-29.847826 Z10
G01 X29.032609 Y-29.847826 Z21
G01 X76.722826 Y-29.847826 Z21
G01 X76.858696 Y-29.847826 Z10
G01 X99.548913 Y-29.847826 Z10
G01 X99.548913 Y-29.983696 Z10
G01 X99.548913 Y-30.119565 Z10
G01 X99.548913 Y-30.255435 Z10
G01 X99.548913 Y-30.391304 Z10
G01 X76.179348 Y-30.391304 Z10
G01 X76.043478 Y-30.391304 Z21
G01 X29.847826 Y-30.391304 Z21
G01 X29.711957 Y-30.391304 Z10
G01 X0.36413 Y-30.391304 Z10
G01 X0.36413 Y-30.527174 Z10
G01 X0.36413 Y-30.663043 Z10
G01 X0.36413 Y-30.798913 Z10
G01 X0.36413 Y-30.934783 Z10
G01 X30.255435 Y-30.934783 Z10
G01 X30.391304 Y-30.934783 Z21
G01 X75.63587 Y-30.934783 Z21
G01 X75.771739 Y-30.934783 Z10
G01 X99.548913 Y-30.934783 Z10
G01 X99.548913 Y-31.070652 Z10
G01 X99.548913 Y-31.206522 Z10
G01 X99.548913 Y-31.342391 Z10
G01 X99.548913 Y-31.478261 Z10
G01 X74.956522 Y-31.478261 Z10
G01 X74.820652 Y-31.478261 Z21
G01 X31.070652 Y-31.478261 Z21
G01 X30.934783 Y-31.478261 Z10
G01 X0.36413 Y-31.478261 Z10
G01 X0.36413 Y-31.61413 Z10
G01 X0.36413 Y-31.75 Z10
G01 X0.36413 Y-31.88587 Z10
G01 X0.36413 Y-32.021739 Z10
G01 X31.61413 Y-32.021739 Z10
G01 X31.75 Y-32.021739 Z21
G01 X74.684783 Y-32.021739 Z21
G01 X74.820652 Y-32.021739 Z10
G01 X99.548913 Y-32.021739 Z10
G01 X99.548913 Y-32.157609 Z10
G01 X99.548913 Y-32.293478 Z10
G01 X99.548913 Y-32.429348 Z10
G01 X99.548913 Y-32.565217 Z10
G01 X74.413043 Y-32.565217 Z10
G01 X74.277174 Y-32.565217 Z21
G01 X32.565217 Y-32.565217 Z21
G01 X32.429348 Y-32.565217 Z10
G01 X0.36413 Y-32.565217 Z10
G01 X0.36413 Y-32.701087 Z10
G01 X0.36413 Y-32.836957 Z10
G01 X0.36413 Y-32.972826 Z10
G01 X0.36413 Y-33.108696 Z10
G01 X33.108696 Y-33.108696 Z10
G01 X33.244565 Y-33.108696 Z21
G01 X73.326087 Y-33.108696 Z21
G01 X73.461957 Y-33.108696 Z10
G01 X99.548913 Y-33.108696 Z10
G01 X99.548913 Y-33.244565 Z10
G01 X99.548913 Y-33.380435 Z10
G01 X99.548913 Y-33.516304 Z10
G01 X99.548913 Y-33.652174 Z10
G01 X72.375 Y-33.652174 Z10
G01 X72.23913 Y-33.652174 Z21
G01 X33.788043 Y-33.652174 Z21
G01 X33.652174 Y-33.652174 Z10
G01 X0.36413 Y-33.652174 Z10
G01 X0.36413 Y-33.788043 Z10
G01 X0.36413 Y-33.923913 Z10
G01 X0.36413 Y-34.059783 Z10
G01 X0.36413 Y-34.195652 Z10
G01 X34.331522 Y-34.195652 Z10
G01 X34.467391 Y-34.195652 Z21
G01 X71.016304 Y-34.195652 Z21
G01 X71.152174 Y-34.195652 Z10
G01 X99.548913 Y-34.195652 Z10
G01 X99.548913 Y-34.331522 Z10
G01 X99.548913 Y-34.467391 Z10
G01 X99.548913 Y-34.603261 Z10
G01 X99.548913 Y-34.73913 Z10
G01 X69.793478 Y-34.73913 Z10
G01 X69.657609 Y-34.73913 Z21
G01 X35.282609 Y-34.73913 Z21
G01 X35.146739 Y-34.73913 Z10
G01 X0.36413 Y-34.73913 Z10
G01 X0.36413 Y-34.875 Z10
G01 X0.36413 Y-35.01087 Z10
G01 X0.36413 Y-35.146739 Z10
G01 X0.36413 Y-35.282609 Z10
G01 X35.961957 Y-35.282609 Z10
G01 X36.097826 Y-35.282609 Z21
G01 X67.755435 Y-35.282609 Z21
G01 X67.891304 Y-35.282609 Z10
G01 X99.548913 Y-35.282609 Z10
G01 X99.548913 Y-35.418478 Z10
G01 X99.548913 Y-35.554348 Z10
G01 X99.548913 Y-35.690217 Z10
G01 X99.548913 Y-35.826087 Z10
G01 X66.396739 Y-35.826087 Z10
G01 X66.26087 Y-35.826087 Z21
G01 X37.048913 Y-35.826087 Z21
G01 X36.913043 Y-35.826087 Z10
G01 X0.36413 Y-35.826087 Z10
G01 X0.36413 Y-35.961957 Z10
G01 X0.36413 Y-36.097826 Z10
G01 X0.36413 Y-36.233696 Z10
G01 X0.36413 Y-36.369565 Z10
G01 X37.728261 Y-36.369565 Z10
G01 X37.86413 Y-36.369565 Z21
G01 X64.766304 Y-36.369565 Z21
G01 X64.902174 Y-36.369565 Z10
G01 X99.548913 Y-36.369565 Z10
G01 X99.548913 Y-36.505435 Z10
G01 X99.548913 Y-36.641304 Z10
G01 X99.548913 Y-36.777174 Z10
G01 X99.548913 Y-36.913043 Z10
G01 X62.86413 Y-36.913043 Z10
G01 X62.728261 Y-36.913043 Z21
G01 X38.543478 Y-36.913043 Z21
G01 X38.407609 Y-36.913043 Z10
G01 X0.36413 Y-36.913043 Z10
G01 X0.36413 Y-37.048913 Z10
G01 X0.36413 Y-37.184783 Z10
G01 X0.36413 Y-37.320652 Z10
G01 X0.36413 Y-37.456522 Z10
G01 X39.358696 Y-37.456522 Z10
G01 X39.494565 Y-37.456522 Z21
G01 X60.554348 Y-37.456522 Z21
G01 X60.690217 Y-37.456522 Z10
G01 X99.548913 Y-37.456522 Z10
G01 X99.548913 Y-37.592391 Z10
G01 X99.548913 Y-37.728261 Z10
G01 X99.548913 Y-37.86413 Z10
G01 X99.548913 Y-38 Z10
G01 X56.88587 Y-38 Z10
G01 X56.75 Y-38 Z21
G01 X40.581522 Y-38 Z21
G01 X40.445652 Y-38 Z10
G01 X0.36413 Y-38 Z10
G01 X0.36413 Y-38.13587 Z10
G01 X0.36413 Y-38.271739 Z10
G01 X0.36413 Y-38.407609 Z10
G01 X0.36413 Y-38.543478 Z10
G01 X41.26087 Y-38.543478 Z10
G01 X41.396739 Y-38.543478 Z21
G01 X56.61413 Y-38.543478 Z21
G01 X56.75 Y-38.543478 Z10
G01 X99.548913 Y-38.543478 Z10
G01 X99.548913 Y-38.679348 Z10
G01 X99.548913 Y-38.815217 Z10
G01 X99.548913 Y-38.951087 Z10
G01 X99.548913 Y-39.086957 Z10
G01 X70.880435 Y-39.086957 Z10
G01 X70.744565 Y-39.086957 Z21
G01 X69.38587 Y-39.086957 Z21
G01 X69.25 Y-39.086957 Z10
G01 X57.021739 Y-39.086957 Z10
G01 X56.88587 Y-39.086957 Z21
G01 X41.125 Y-39.086957 Z21
G01 X40.98913 Y-39.086957 Z10
G01 X0.36413 Y-39.086957 Z10
G01 X0.36413 Y-39.222826 Z10
G01 X0.36413 Y-39.358696 Z10
G01 X0.36413 Y-39.494565 Z10
G01 X0.36413 Y-39.630435 Z10
G01 X40.98913 Y-39.630435 Z10
G01 X41.125 Y-39.630435 Z21
G01 X57.293478 Y-39.630435 Z21
G01 X57.429348 Y-39.630435 Z10
G01 X62.456522 Y-39.630435 Z10
G01 X62.592391 Y-39.630435 Z21
G01 X64.086957 Y-39.630435 Z21
G01 X64.222826 Y-39.630435 Z10
G01 X65.445652 Y-39.630435 Z10
G01 X65.581522 Y-39.630435 Z21
G01 X71.831522 Y-39.630435 Z21
G01 X71.967391 Y-39.630435 Z10
G01 X99.548913 Y-39.630435 Z10
G01 X99.548913 Y-39.766304 Z10
G01 X99.548913 Y-39.902174 Z10
G01 X99.548913 Y-40.038043 Z10
G01 X99.548913 Y-40.173913 Z10
G01 X71.967391 Y-40.173913 Z10
G01 X71.831522 Y-40.173913 Z21
G01 X40.98913 Y-40.173913 Z21
G01 X40.853261 Y-40.173913 Z10
G01 X0.36413 Y-40.173913 Z10
G01 X0.36413 Y-40.309783 Z10
G01 X0.36413 Y-40.445652 Z10
G01 X0.36413 Y-40.581522 Z10
G01 X0.36413 Y-40.717391 Z10
G01 X37.320652 Y-40.717391 Z10
G01 X37.456522 Y-40.717391 Z21
G01 X71.423913 Y-40.717391 Z21
G01 X71.559783 Y-40.717391 Z10
G01 X99.548913 Y-40.717391 Z10
G01 X99.548913 Y-40.853261 Z10
G01 X99.548913 Y-40.98913 Z10
G01 X99.548913 Y-41.125 Z10
G01 X99.548913 Y-41.26087 Z10
G01 X71.288043 Y-41.26087 Z10
G01 X71.152174 Y-41.26087 Z21
G01 X34.73913 Y-41.26087 Z21
G01 X34.603261 Y-41.26087 Z10
G01 X0.36413 Y-41.26087 Z10
G01 X0.36413 Y-41.396739 Z10
G01 X0.36413 Y-41.532609 Z10
G01 X0.36413 Y-41.668478 Z10
G01 X0.36413 Y-41.804348 Z10
G01 X33.652174 Y-41.804348 Z10
G01 X33.788043 Y-41.804348 Z21
G01 X69.521739 Y-41.804348 Z21
G01 X69.657609 Y-41.804348 Z10
G01 X99.548913 Y-41.804348 Z10
G01 X99.548913 Y-41.940217 Z10
G01 X99.548913 Y-42.076087 Z10
G01 X99.548913 Y-42.211957 Z10
G01 X99.548913 Y-42.347826 Z10
G01 X68.978261 Y-42.347826 Z10
G01 X68.842391 Y-42.347826 Z21
G01 X33.652174 Y-42.347826 Z21
G01 X33.516304 Y-42.347826 Z10
G01 X0.36413 Y-42.347826 Z10
G01 X0.36413 Y-42.483696 Z10
G01 X0.36413 Y-42.619565 Z10
G01 X0.36413 Y-42.755435 Z10
G01 X0.36413 Y-42.891304 Z10
G01 X33.380435 Y-42.891304 Z10
G01 X33.516304 Y-42.891304 Z21
G01 X66.396739 Y-42.891304 Z21
G01 X66.532609 Y-42.891304 Z10
G01 X99.548913 Y-42.891304 Z10
G01 X99.548913 Y-43.027174 Z10
G01 X99.548913 Y-43.163043 Z10
G01 X99.548913 Y-43.298913 Z10
G01 X99.548913 Y-43.434783 Z10
G01 X66.804348 Y-43.434783 Z10
G01 X66.668478 Y-43.434783 Z21
G01 X33.516304 Y-43.434783 Z21
G01 X33.380435 Y-43.434783 Z10
G01 X0.36413 Y-43.434783 Z10
G01 X0.36413 Y-43.570652 Z10
G01 X0.36413 Y-43.706522 Z10
G01 X0.36413 Y-43.842391 Z10
G01 X0.36413 Y-43.978261 Z10
G01 X33.652174 Y-43.978261 Z10
G01 X33.788043 Y-43.978261 Z21
G01 X66.668478 Y-43.978261 Z21
G01 X66.804348 Y-43.978261 Z10
G01 X99.548913 Y-43.978261 Z10
G01 X99.548913 Y-44.11413 Z10
G01 X99.548913 Y-44.25 Z10
G01 X99.548913 Y-44.38587 Z10
G01 X99.548913 Y-44.521739 Z10
G01 X66.940217 Y-44.521739 Z10
G01 X66.804348 Y-44.521739 Z21
G01 X34.331522 Y-44.521739 Z21
G01 X34.195652 Y-44.521739 Z10
G01 X0.36413 Y-44.521739 Z10
G01 X0.36413 Y-44.657609 Z10
G01 X0.36413 Y-44.793478 Z10
G01 X0.36413 Y-44.929348 Z10
G01 X0.36413 Y-45.065217 Z10
G01 X34.059783 Y-45.065217 Z10
G01 X34.195652 Y-45.065217 Z21
G01 X66.804348 Y-45.065217 Z21
G01 X66.940217 Y-45.065217 Z10
G01 X99.548913 Y-45.065217 Z10
G01 X99.548913 Y-45.201087 Z10
G01 X99.548913 Y-45.336957 Z10
G01 X99.548913 Y-45.472826 Z10
G01 X99.548913 Y-45.608696 Z10
G01 X67.076087 Y-45.608696 Z10
G01 X66.940217 Y-45.608696 Z21
G01 X33.788043 Y-45.608696 Z21
G01 X33.652174 Y-45.608696 Z10
G01 X0.36413 Y-45.608696 Z10
G01 X0.36413 Y-45.744565 Z10
G01 X0.36413 Y-45.880435 Z10
G01 X0.36413 Y-46.016304 Z10
G01 X0.36413 Y-46.152174 Z10
G01 X33.380435 Y-46.152174 Z10
G01 X33.516304 Y-46.152174 Z21
G01 X66.940217 Y-46.152174 Z21
G01 X67.076087 Y-46.152174 Z10
G01 X99.548913 Y-46.152174 Z10
G01 X99.548913 Y-46.288043 Z10
G01 X99.548913 Y-46.423913 Z10
G01 X99.548913 Y-46.559783 Z10
G01 X99.548913 Y-46.695652 Z10
G01 X66.396739 Y-46.695652 Z10
G01 X66.26087 Y-46.695652 Z21
G01 X33.380435 Y-46.695652 Z21
G01 X33.244565 Y-46.695652 Z10
G01 X0.36413 Y-46.695652 Z10
G01 X0.36413 Y-46.831522 Z10
G01 X0.36413 Y-46.967391 Z10
G01 X0.36413 Y-47.103261 Z10
G01 X0.36413 Y-47.23913 Z10
G01 X33.244565 Y-47.23913 Z10
G01 X33.380435 Y-47.23913 Z21
G01 X45.880435 Y-47.23913 Z21
G01 X46.016304 Y-47.23913 Z10
G01 X46.967391 Y-47.23913 Z10
G01 X47.103261 Y-47.23913 Z21
G01 X66.26087 Y-47.23913 Z21
G01 X66.396739 Y-47.23913 Z10
G01 X99.548913 Y-47.23913 Z10
G01 X99.548913 Y-47.375 Z10
G01 X99.548913 Y-47.51087 Z10
G01 X99.548913 Y-47.646739 Z10
G01 X99.548913 Y-47.782609 Z10
G01 X66.26087 Y-47.782609 Z10
G01 X66.125 Y-47.782609 Z21
G01 X53.896739 Y-47.782609 Z21
G01 X53.76087 Y-47.782609 Z10
G01 X52.130435 Y-47.782609 Z10
G01 X51.994565 Y-47.782609 Z21
G01 X47.103261 Y-47.782609 Z21
G01 X46.967391 Y-47.782609 Z10
G01 X45.336957 Y-47.782609 Z10
G01 X45.201087 Y-47.782609 Z21
G01 X33.516304 Y-47.782609 Z21
G01 X33.380435 Y-47.782609 Z10
G01 X0.36413 Y-47.782609 Z10
G01 X0.36413 Y-47.918478 Z10
G01 X0.36413 Y-48.054348 Z10
G01 X0.36413 Y-48.190217 Z10
G01 X0.36413 Y-48.326087 Z10
G01 X33.652174 Y-48.326087 Z10
G01 X33.788043 Y-48.326087 Z21
G01 X44.929348 Y-48.326087 Z21
G01 X45.065217 Y-48.326087 Z10
G01 X46.967391 Y-48.326087 Z10
G01 X47.103261 Y-48.326087 Z21
G01 X52.130435 Y-48.326087 Z21
G01 X52.266304 Y-48.326087 Z10
G01 X54.032609 Y-48.326087 Z10
G01 X54.168478 Y-48.326087 Z21
G01 X65.581522 Y-48.326087 Z21
G01 X65.717391 Y-48.326087 Z10
G01 X99.548913 Y-48.326087 Z10
G01 X99.548913 Y-48.461957 Z10
G01 X99.548913 Y-48.597826 Z10
G01 X99.548913 Y-48.733696 Z10
G01 X99.548913 Y-48.869565 Z10
G01 X65.717391 Y-48.869565 Z10
G01 X65.581522 Y-48.869565 Z21
G01 X54.440217 Y-48.869565 Z21
G01 X54.304348 Y-48.869565 Z10
G01 X52.402174 Y-48.869565 Z10
G01 X52.266304 Y-48.869565 Z21
G01 X46.695652 Y-48.869565 Z21
G01 X46.559783 Y-48.869565 Z10
G01 X44.793478 Y-48.869565 Z10
G01 X44.657609 Y-48.869565 Z21
G01 X33.652174 Y-48.869565 Z21
G01 X33.516304 Y-48.869565 Z10
G01 X0.36413 Y-48.869565 Z10
G01 X0.36413 Y-49.005435 Z10
G01 X0.36413 Y-49.141304 Z10
G01 X0.36413 Y-49.277174 Z10
G01 X0.36413 Y-49.413043 Z10
G01 X33.108696 Y-49.413043 Z10
G01 X33.244565 Y-49.413043 Z21
G01 X44.521739 Y-49.413043 Z21
G01 X44.657609 Y-49.413043 Z10
G01 X45.472826 Y-49.413043 Z10
G01 X45.608696 Y-49.413043 Z21
G01 X53.353261 Y-49.413043 Z21
G01 X53.48913 Y-49.413043 Z10
G01 X54.440217 Y-49.413043 Z10
G01 X54.576087 Y-49.413043 Z21
G01 X65.581522 Y-49.413043 Z21
G01 X65.717391 Y-49.413043 Z10
G01 X99.548913 Y-49.413043 Z10
G01 X99.548913 Y-49.548913 Z10
G01 X99.548913 Y-49.684783 Z10
G01 X99.548913 Y-49.820652 Z10
G01 X99.548913 Y-49.956522 Z10
G01 X66.125 Y-49.956522 Z10
G01 X65.98913 Y-49.956522 Z21
G01 X33.244565 Y-49.956522 Z21
G01 X33.108696 Y-49.956522 Z10
G01 X0.36413 Y-49.956522 Z10
G01 X0.36413 Y-50.092391 Z10
G01 X0.36413 Y-50.228261 Z10
G01 X0.36413 Y-50.36413 Z10
G01 X0.36413 Y-50.5 Z10
G01 X32.836957 Y-50.5 Z10
G01 X32.972826 Y-50.5 Z21
G01 X65.98913 Y-50.5 Z21
G01 X66.125 Y-50.5 Z10
G01 X99.548913 Y-50.5 Z10
G01 X99.548913 Y-50.63587 Z10
G01 X99.548913 Y-50.771739 Z10
G01 X99.548913 Y-50.907609 Z10
G01 X99.548913 Y-51.043478 Z10
G01 X66.26087 Y-51.043478 Z10
G01 X66.125 Y-51.043478 Z21
G01 X32.972826 Y-51.043478 Z21
G01 X32.836957 Y-51.043478 Z10
G01 X0.36413 Y-51.043478 Z10
G01 X0.36413 Y-51.179348 Z10
G01 X0.36413 Y-51.315217 Z10
G01 X0.36413 Y-51.451087 Z10
G01 X0.36413 Y-51.586957 Z10
G01 X32.972826 Y-51.586957 Z10
G01 X33.108696 Y-51.586957 Z21
G01 X34.059783 Y-51.586957 Z21
G01 X34.195652 Y-51.586957 Z10
G01 X34.331522 Y-51.586957 Z21
G01 X66.125 Y-51.586957 Z21
G01 X66.26087 Y-51.586957 Z10
G01 X99.548913 Y-51.586957 Z10
G01 X99.548913 Y-51.722826 Z10
G01 X99.548913 Y-51.858696 Z10
G01 X99.548913 Y-51.994565 Z10
G01 X99.548913 Y-52.130435 Z10
G01 X65.445652 Y-52.130435 Z10
G01 X65.309783 Y-52.130435 Z21
G01 X34.331522 Y-52.130435 Z21
G01 X34.195652 Y-52.130435 Z10
G01 X0.36413 Y-52.130435 Z10
G01 X0.36413 Y-52.266304 Z10
G01 X0.36413 Y-52.402174 Z10
G01 X0.36413 Y-52.538043 Z10
G01 X0.36413 Y-52.673913 Z10
G01 X34.195652 Y-52.673913 Z10
G01 X34.331522 Y-52.673913 Z21
G01 X64.494565 Y-52.673913 Z21
G01 X64.630435 Y-52.673913 Z10
G01 X99.548913 Y-52.673913 Z10
G01 X99.548913 Y-52.809783 Z10
G01 X99.548913 Y-52.945652 Z10
G01 X99.548913 Y-53.081522 Z10
G01 X99.548913 Y-53.217391 Z10
G01 X63.543478 Y-53.217391 Z10
G01 X63.407609 Y-53.217391 Z21
G01 X36.233696 Y-53.217391 Z21
G01 X36.097826 Y-53.217391 Z10
G01 X0.36413 Y-53.217391 Z10
G01 X0.36413 Y-53.353261 Z10
G01 X0.36413 Y-53.48913 Z10
G01 X0.36413 Y-53.625 Z10
G01 X0.36413 Y-53.76087 Z10
G01 X36.097826 Y-53.76087 Z10
G01 X36.233696 Y-53.76087 Z21
G01 X62.320652 Y-53.76087 Z21
G01 X62.456522 Y-53.76087 Z10
G01 X99.548913 Y-53.76087 Z10
G01 X99.548913 Y-53.896739 Z10
G01 X99.548913 Y-54.032609 Z10
G01 X99.548913 Y-54.168478 Z10
G01 X99.548913 Y-54.304348 Z10
G01 X62.320652 Y-54.304348 Z10
G01 X62.184783 Y-54.304348 Z21
G01 X36.233696 Y-54.304348 Z21
G01 X36.097826 Y-54.304348 Z10
G01 X0.36413 Y-54.304348 Z10
G01 X0.36413 Y-54.440217 Z10
G01 X0.36413 Y-54.576087 Z10
G01 X0.36413 Y-54.711957 Z10
G01 X0.36413 Y-54.847826 Z10
G01 X35.961957 Y-54.847826 Z10
G01 X36.097826 Y-54.847826 Z21
G01 X62.320652 Y-54.847826 Z21
G01 X62.456522 Y-54.847826 Z10
G01 X63.951087 Y-54.847826 Z10
G01 X64.086957 Y-54.847826 Z21
G01 X65.581522 Y-54.847826 Z21
G01 X65.717391 Y-54.847826 Z10
G01 X99.548913 Y-54.847826 Z10
G01 X99.548913 Y-54.983696 Z10
G01 X99.548913 Y-55.119565 Z10
G01 X99.548913 Y-55.255435 Z10
G01 X99.548913 Y-55.391304 Z10
G01 X65.717391 Y-55.391304 Z10
G01 X65.581522 Y-55.391304 Z21
G01 X64.086957 Y-55.391304 Z21
G01 X63.951087 Y-55.391304 Z10
G01 X62.456522 Y-55.391304 Z10
G01 X62.320652 Y-55.391304 Z21
G01 X35.961957 Y-55.391304 Z21
G01 X35.826087 Y-55.391304 Z10
G01 X0.36413 Y-55.391304 Z10
G01 X0.36413 Y-55.527174 Z10
G01 X0.36413 Y-55.663043 Z10
G01 X0.36413 Y-55.798913 Z10
G01 X0.36413 Y-55.934783 Z10
G01 X35.690217 Y-55.934783 Z10
G01 X35.826087 Y-55.934783 Z21
G01 X62.320652 Y-55.934783 Z21
G01 X62.456522 Y-55.934783 Z10
G01 X99.548913 Y-55.934783 Z10
G01 X99.548913 Y-56.070652 Z10
G01 X99.548913 Y-56.206522 Z10
G01 X99.548913 Y-56.342391 Z10
G01 X99.548913 Y-56.478261 Z10
G01 X65.717391 Y-56.478261 Z10
G01 X65.581522 Y-56.478261 Z21
G01 X63.679348 Y-56.478261 Z21
G01 X63.543478 Y-56.478261 Z10
G01 X62.728261 Y-56.478261 Z10
G01 X62.592391 Y-56.478261 Z21
G01 X35.554348 Y-56.478261 Z21
G01 X35.418478 Y-56.478261 Z10
G01 X0.36413 Y-56.478261 Z10
G01 X0.36413 Y-56.61413 Z10
G01 X0.36413 Y-56.75 Z10
G01 X0.36413 Y-56.88587 Z10
G01 X0.36413 Y-57.021739 Z10
G01 X35.418478 Y-57.021739 Z10
G01 X35.554348 Y-57.021739 Z21
G01 X63 Y-57.021739 Z21
G01 X63.13587 Y-57.021739 Z10
G01 X63.543478 Y-57.021739 Z10
G01 X63.679348 Y-57.021739 Z21
G01 X65.581522 Y-57.021739 Z21
G01 X65.717391 Y-57.021739 Z10
G01 X99.548913 Y-57.021739 Z10
G01 X99.548913 Y-57.157609 Z10
G01 X99.548913 Y-57.293478 Z10
G01 X99.548913 Y-57.429348 Z10
G01 X99.548913 Y-57.565217 Z10
G01 X64.766304 Y-57.565217 Z10
G01 X64.630435 Y-57.565217 Z21
G01 X35.554348 Y-57.565217 Z21
G01 X35.418478 Y-57.565217 Z10
G01 X0.36413 Y-57.565217 Z10
G01 X0.36413 Y-57.701087 Z10
G01 X0.36413 Y-57.836957 Z10
G01 X0.36413 Y-57.972826 Z10
G01 X0.36413 Y-58.108696 Z10
G01 X35.554348 Y-58.108696 Z10
G01 X35.690217 Y-58.108696 Z21
G01 X37.86413 Y-58.108696 Z21
G01 X38 Y-58.108696 Z10
G01 X38.679348 Y-58.108696 Z10
G01 X38.815217 Y-58.108696 Z21
G01 X64.086957 Y-58.108696 Z21
G01 X64.222826 Y-58.108696 Z10
G01 X99.548913 Y-58.108696 Z10
G01 X99.548913 Y-58.244565 Z10
G01 X99.548913 Y-58.380435 Z10
G01 X99.548913 Y-58.516304 Z10
G01 X99.548913 Y-58.652174 Z10
G01 X63.271739 Y-58.652174 Z10
G01 X63.13587 Y-58.652174 Z21
G01 X60.961957 Y-58.652174 Z21
G01 X60.826087 Y-58.652174 Z10
G01 X60.554348 Y-58.652174 Z10
G01 X60.418478 Y-58.652174 Z21
G01 X38.679348 Y-58.652174 Z21
G01 X38.543478 Y-58.652174 Z10
G01 X0.36413 Y-58.652174 Z10
G01 X0.36413 Y-58.788043 Z10
G01 X0.36413 Y-58.923913 Z10
G01 X0.36413 Y-59.059783 Z10
G01 X0.36413 Y-59.195652 Z10
G01 X38.543478 Y-59.195652 Z10
G01 X38.679348 Y-59.195652 Z21
G01 X60.146739 Y-59.195652 Z21
G01 X60.282609 Y-59.195652 Z10
G01 X99.548913 Y-59.195652 Z10
G01 X99.548913 Y-59.331522 Z10
G01 X99.548913 Y-59.467391 Z10
G01 X99.548913 Y-59.603261 Z10
G01 X99.548913 Y-59.73913 Z10
G01 X60.282609 Y-59.73913 Z10
G01 X60.146739 Y-59.73913 Z21
G01 X38.815217 Y-59.73913 Z21
G01 X38.679348 Y-59.73913 Z10
G01 X0.36413 Y-59.73913 Z10
G01 X0.36413 Y-59.875 Z10
G01 X0.36413 Y-60.01087 Z10
G01 X0.36413 Y-60.146739 Z10
G01 X0.36413 Y-60.282609 Z10
G01 X38.679348 Y-60.282609 Z10
G01 X38.815217 Y-60.282609 Z21
G01 X60.01087 Y-60.282609 Z21
G01 X60.146739 Y-60.282609 Z10
G01 X99.548913 Y-60.282609 Z10
G01 X99.548913 Y-60.418478 Z10
G01 X99.548913 Y-60.554348 Z10
G01 X99.548913 Y-60.690217 Z10
G01 X99.548913 Y-60.826087 Z10
G01 X59.875 Y-60.826087 Z10
G01 X59.73913 Y-60.826087 Z21
G01 X39.086957 Y-60.826087 Z21
G01 X38.951087 Y-60.826087 Z10
G01 X0.36413 Y-60.826087 Z10
G01 X0.36413 Y-60.961957 Z10
G01 X0.36413 Y-61.097826 Z10
G01 X0.36413 Y-61.233696 Z10
G01 X0.36413 Y-61.369565 Z10
G01 X39.358696 Y-61.369565 Z10
G01 X39.494565 Y-61.369565 Z21
G01 X59.331522 Y-61.369565 Z21
G01 X59.467391 Y-61.369565 Z10
G01 X99.548913 Y-61.369565 Z10
G01 X99.548913 Y-61.505435 Z10
G01 X99.548913 Y-61.641304 Z10
G01 X99.548913 Y-61.777174 Z10
G01 X99.548913 Y-61.913043 Z10
G01 X56.478261 Y-61.913043 Z10
G01 X56.342391 Y-61.913043 Z21
G01 X42.619565 Y-61.913043 Z21
G01 X42.483696 Y-61.913043 Z10
G01 X41.940217 Y-61.913043 Z10
G01 X41.804348 Y-61.913043 Z21
G01 X40.581522 Y-61.913043 Z21
G01 X40.445652 Y-61.913043 Z10
G01 X0.36413 Y-61.913043 Z10
G01 X0.36413 Y-62.048913 Z10
G01 X0.36413 Y-62.184783 Z10
G01 X0.36413 Y-62.320652 Z10
G01 X0.36413 Y-62.456522 Z10
G01 X42.619565 Y-62.456522 Z10
G01 X42.755435 Y-62.456522 Z21
G01 X56.206522 Y-62.456522 Z21
G01 X56.342391 Y-62.456522 Z10
G01 X99.548913 Y-62.456522 Z10
G01 X99.548913 Y-62.592391 Z10
G01 X99.548913 Y-62.728261 Z10
G01 X99.548913 Y-62.86413 Z10
G01 X99.548913 Y-63 Z10
G01 X56.206522 Y-63 Z10
G01 X56.070652 Y-63 Z21
G01 X42.891304 Y-63 Z21
G01 X42.755435 Y-63 Z10
G01 X0.36413 Y-63 Z10
G01 X0.36413 Y-63.13587 Z10
G01 X0.36413 Y-63.271739 Z10
G01 X0.36413 Y-63.407609 Z10
G01 X0.36413 Y-63.543478 Z10
G01 X42.891304 Y-63.543478 Z10
G01 X43.027174 Y-63.543478 Z21
G01 X55.934783 Y-63.543478 Z21
G01 X56.070652 Y-63.543478 Z10
G01 X99.548913 Y-63.543478 Z10
G01 X99.548913 Y-63.679348 Z10
G01 X99.548913 Y-63.815217 Z10
G01 X99.548913 Y-63.951087 Z10
G01 X99.548913 Y-64.086957 Z10
G01 X56.206522 Y-64.086957 Z10
G01 X56.070652 Y-64.086957 Z21
G01 X43.027174 Y-64.086957 Z21
G01 X42.891304 Y-64.086957 Z10
G01 X0.36413 Y-64.086957 Z10
G01 X0.36413 Y-64.222826 Z10
G01 X0.36413 Y-64.358696 Z10
G01 X0.36413 Y-64.494565 Z10
G01 X0.36413 Y-64.630435 Z10
G01 X42.755435 Y-64.630435 Z10
G01 X42.891304 Y-64.630435 Z21
G01 X56.070652 Y-64.630435 Z21
G01 X56.206522 Y-64.630435 Z10
G01 X99.548913 Y-64.630435 Z10
G01 X99.548913 Y-64.766304 Z10
G01 X99.548913 Y-64.902174 Z10
G01 X99.548913 Y-65.038043 Z10
G01 X99.548913 Y-65.173913 Z10
G01 X56.206522 Y-65.173913 Z10
G01 X56.070652 Y-65.173913 Z21
G01 X42.891304 Y-65.173913 Z21
G01 X42.755435 Y-65.173913 Z10
G01 X0.36413 Y-65.173913 Z10
G01 X0.36413 Y-65.309783 Z10
G01 X0.36413 Y-65.445652 Z10
G01 X0.36413 Y-65.581522 Z10
G01 X0.36413 Y-65.717391 Z10
G01 X43.434783 Y-65.717391 Z10
G01 X43.570652 Y-65.717391 Z21
G01 X49.277174 Y-65.717391 Z21
G01 X49.413043 Y-65.717391 Z10
G01 X49.548913 Y-65.717391 Z21
G01 X55.527174 Y-65.717391 Z21
G01 X55.663043 Y-65.717391 Z10
G01 X99.548913 Y-65.717391 Z10
G01 X99.548913 Y-65.853261 Z10
G01 X99.548913 Y-65.98913 Z10
G01 X99.548913 Y-66.125 Z10
G01 X99.548913 Y-66.26087 Z10
G01 X0.36413 Y-66.26087 Z10
G01 X0.36413 Y-66.396739 Z10
G01 X0.36413 Y-66.532609 Z10
G01 X0.36413 Y-66.668478 Z10
G01 X0.36413 Y-66.804348 Z10
G01 X99.548913 Y-66.804348 Z10
G01 X99.548913 Y-66.940217 Z10
G01 X99.548913 Y-67.076087 Z10
G01 X99.548913 Y-67.211957 Z10
G01 X99.548913 Y-67.347826 Z10
G01 X0.36413 Y-67.347826 Z10
G01 X0.36413 Y-67.483696 Z10
G01 X0.36413 Y-67.619565 Z10
G01 X0.36413 Y-67.755435 Z10
G01 X0.36413 Y-67.891304 Z10
G01 X99.548913 Y-67.891304 Z10
G01 X99.548913 Y-68.027174 Z10
G01 X99.548913 Y-68.163043 Z10
G01 X99.548913 Y-68.298913 Z10
G01 X99.548913 Y-68.434783 Z10
G01 X0.36413 Y-68.434783 Z10
G01 X0.36413 Y-68.570652 Z10
G01 X0.36413 Y-68.706522 Z10
G01 X0.36413 Y-68.842391 Z10
G01 X0.36413 Y-68.978261 Z10
G01 X99.548913 Y-68.978261 Z10
G01 X99.548913 Y-69.11413 Z10
G01 X99.548913 Y-69.25 Z10
G01 X99.548913 Y-69.38587 Z10
G01 X99.548913 Y-69.521739 Z10
G01 X0.36413 Y-69.521739 Z10
G01 X0.36413 Y-69.657609 Z10
G01 X0.36413 Y-69.793478 Z10
G01 X0.36413 Y-69.929348 Z10
G01 X0.36413 Y-70.065217 Z10
G01 X99.548913 Y-70.065217 Z10
G01 X99.548913 Y-70.201087 Z10
G01 X99.548913 Y-70.336957 Z10
G01 X99.548913 Y-70.472826 Z10
G01 X99.548913 Y-70.608696 Z10
G01 X0.36413 Y-70.608696 Z10
G01 X0.36413 Y-70.744565 Z10
G01 X0.36413 Y-70.880435 Z10
G01 X0.36413 Y-71.016304 Z10
G01 X0.36413 Y-71.152174 Z10
G01 X99.548913 Y-71.152174 Z10
G01 X99.548913 Y-71.288043 Z10
G01 X99.548913 Y-71.423913 Z10
G01 X99.548913 Y-71.559783 Z10
G01 X99.548913 Y-71.695652 Z10
G01 X0.36413 Y-71.695652 Z10
G01 X0.36413 Y-71.831522 Z10
G01 X0.36413 Y-71.967391 Z21
G01 X0.5 Y-0.5 Z21
G01 X0.63587 Y-0.5 Z5
G01 X99.548913 Y-0.5 Z5
G01 X99.548913 Y-0.63587 Z5
G01 X99.548913 Y-0.771739 Z5
G01 X99.548913 Y-0.907609 Z5
G01 X99.548913 Y-1.043478 Z5
G01 X54.440217 Y-1.043478 Z5
G01 X54.304348 Y-1.043478 Z21
G01 X41.940217 Y-1.043478 Z21
G01 X41.804348 Y-1.043478 Z5
G01 X0.36413 Y-1.043478 Z5
G01 X0.36413 Y-1.179348 Z5
G01 X0.36413 Y-1.315217 Z5
G01 X0.36413 Y-1.451087 Z5
G01 X0.36413 Y-1.586957 Z5
G01 X38.13587 Y-1.586957 Z5
G01 X38.271739 Y-1.586957 Z21
G01 X59.331522 Y-1.586957 Z21
G01 X59.467391 Y-1.586957 Z5
G01 X99.548913 Y-1.586957 Z5
G01 X99.548913 Y-1.722826 Z5
G01 X99.548913 Y-1.858696 Z5
G01 X99.548913 Y-1.994565 Z5
G01 X99.548913 Y-2.130435 Z5
G01 X61.641304 Y-2.130435 Z5
G01 X61.505435 Y-2.130435 Z21
G01 X35.961957 Y-2.130435 Z21
G01 X35.826087 Y-2.130435 Z5
G01 X0.36413 Y-2.130435 Z5
G01 X0.36413 Y-2.266304 Z5
G01 X0.36413 Y-2.402174 Z5
G01 X0.36413 Y-2.538043 Z5
G01 X0.36413 Y-2.673913 Z5
G01 X34.603261 Y-2.673913 Z5
G01 X34.73913 Y-2.673913 Z21
G01 X63.13587 Y-2.673913 Z21
G01 X63.271739 Y-2.673913 Z5
G01 X99.548913 Y-2.673913 Z5
G01 X99.548913 Y-2.809783 Z5
G01 X99.548913 Y-2.945652 Z5
G01 X99.548913 Y-3.081522 Z5
G01 X99.548913 Y-3.217391 Z5
G01 X64.222826 Y-3.217391 Z5
G01 X64.086957 Y-3.217391 Z21
G01 X32.565217 Y-3.217391 Z21
G01 X32.429348 Y-3.217391 Z5
G01 X0.36413 Y-3.217391 Z5
G01 X0.36413 Y-3.353261 Z5
G01 X0.36413 Y-3.48913 Z5
G01 X0.36413 Y-3.625 Z5
G01 X0.36413 Y-3.76087 Z5
G01 X31.070652 Y-3.76087 Z5
G01 X31.206522 Y-3.76087 Z21
G01 X65.853261 Y-3.76087 Z21
G01 X65.98913 Y-3.76087 Z5
G01 X99.548913 Y-3.76087 Z5
G01 X99.548913 Y-3.896739 Z5
G01 X99.548913 Y-4.032609 Z5
G01 X99.548913 Y-4.168478 Z5
G01 X99.548913 Y-4.304348 Z5
G01 X67.619565 Y-4.304348 Z5
G01 X67.483696 Y-4.304348 Z21
G01 X30.255435 Y-4.304348 Z21
G01 X30.119565 Y-4.304348 Z5
G01 X0.36413 Y-4.304348 Z5
G01 X0.36413 Y-4.440217 Z5
G01 X0.36413 Y-4.576087 Z5
G01 X0.36413 Y-4.711957 Z5
G01 X0.36413 Y-4.847826 Z5
G01 X29.168478 Y-4.847826 Z5
G01 X29.304348 Y-4.847826 Z21
G01 X68.434783 Y-4.847826 Z21
G01 X68.570652 Y-4.847826 Z5
G01 X99.548913 Y-4.847826 Z5
G01 X99.548913 Y-4.983696 Z5
G01 X99.548913 Y-5.119565 Z5
G01 X99.548913 Y-5.255435 Z5
G01 X99.548913 Y-5.391304 Z5
G01 X69.521739 Y-5.391304 Z5
G01 X69.38587 Y-5.391304 Z21
G01 X28.353261 Y-5.391304 Z21
G01 X28.217391 Y-5.391304 Z5
G01 X0.36413 Y-5.391304 Z5
G01 X0.36413 Y-5.527174 Z5
G01 X0.36413 Y-5.663043 Z5
G01 X0.36413 Y-5.798913 Z5
G01 X0.36413 Y-5.934783 Z5
G01 X27.266304 Y-5.934783 Z5
G01 X27.402174 Y-5.934783 Z21
G01 X70.472826 Y-5.934783 Z21
G01 X70.608696 Y-5.934783 Z5
G01 X99.548913 Y-5.934783 Z5
G01 X99.548913 Y-6.070652 Z5
G01 X99.548913 Y-6.206522 Z5
G01 X99.548913 Y-6.342391 Z5
G01 X99.548913 Y-6.478261 Z5
G01 X71.423913 Y-6.478261 Z5
G01 X71.288043 Y-6.478261 Z21
G01 X26.858696 Y-6.478261 Z21
G01 X26.722826 Y-6.478261 Z5
G01 X0.36413 Y-6.478261 Z5
G01 X0.36413 Y-6.61413 Z5
G01 X0.36413 Y-6.75 Z5
G01 X0.36413 Y-6.88587 Z5
G01 X0.36413 Y-7.021739 Z5
G01 X26.043478 Y-7.021739 Z5
G01 X26.179348 Y-7.021739 Z21
G01 X72.23913 Y-7.021739 Z21
G01 X72.375 Y-7.021739 Z5
G01 X99.548913 Y-7.021739 Z5
G01 X99.548913 Y-7.157609 Z5
G01 X99.548913 Y-7.293478 Z5
G01 X99.548913 Y-7.429348 Z5
G01 X99.548913 Y-7.565217 Z5
G01 X72.782609 Y-7.565217 Z5
G01 X72.646739 Y-7.565217 Z21
G01 X21.559783 Y-7.565217 Z21
G01 X21.423913 Y-7.565217 Z5
G01 X0.36413 Y-7.565217 Z5
G01 X0.36413 Y-7.701087 Z5
G01 X0.36413 Y-7.836957 Z5
G01 X0.36413 Y-7.972826 Z5
G01 X0.36413 Y-8.108696 Z5
G01 X20.065217 Y-8.108696 Z5
G01 X20.201087 Y-8.108696 Z21
G01 X73.190217 Y-8.108696 Z21
G01 X73.326087 Y-8.108696 Z5
G01 X99.548913 Y-8.108696 Z5
G01 X99.548913 Y-8.244565 Z5
G01 X99.548913 Y-8.380435 Z5
G01 X99.548913 Y-8.516304 Z5
G01 X99.548913 Y-8.652174 Z5
G01 X74.005435 Y-8.652174 Z5
G01 X73.869565 Y-8.652174 Z21
G01 X19.25 Y-8.652174 Z21
G01 X19.11413 Y-8.652174 Z5
G01 X0.36413 Y-8.652174 Z5
G01 X0.36413 Y-8.788043 Z5
G01 X0.36413 Y-8.923913 Z5
G01 X0.36413 Y-9.059783 Z5
G01 X0.36413 Y-9.195652 Z5
G01 X18.298913 Y-9.195652 Z5
G01 X18.434783 Y-9.195652 Z21
G01 X74.413043 Y-9.195652 Z21
G01 X74.548913 Y-9.195652 Z5
G01 X99.548913 Y-9.195652 Z5
G01 X99.548913 Y-9.331522 Z5
G01 X99.548913 Y-9.467391 Z5
G01 X99.548913 Y-9.603261 Z5
G01 X99.548913 Y-9.73913 Z5
G01 X74.684783 Y-9.73913 Z5
G01 X74.548913 Y-9.73913 Z21
G01 X17.755435 Y-9.73913 Z21
G01 X17.619565 Y-9.73913 Z5
G01 X0.36413 Y-9.73913 Z5
G01 X0.36413 Y-9.875 Z5
G01 X0.36413 Y-10.01087 Z5
G01 X0.36413 Y-10.146739 Z5
G01 X0.36413 Y-10.282609 Z5
G01 X17.076087 Y-10.282609 Z5
G01 X17.211957 Y-10.282609 Z21
G01 X75.092391 Y-10.282609 Z21
G01 X75.228261 Y-10.282609 Z5
G01 X99.548913 Y-10.282609 Z5
G01 X99.548913 Y-10.418478 Z5
G01 X99.548913 Y-10.554348 Z5
G01 X99.548913 Y-10.690217 Z5
G01 X99.548913 Y-10.826087 Z5
G01 X75.5 Y-10.826087 Z5
G01 X75.36413 Y-10.826087 Z21
G01 X16.532609 Y-10.826087 Z21
G01 X16.396739 Y-10.826087 Z5
G01 X0.36413 Y-10.826087 Z5
G01 X0.36413 Y-10.961957 Z5
G01 X0.36413 Y-11.097826 Z5
G01 X0.36413 Y-11.233696 Z5
G01 X0.36413 Y-11.369565 Z5
G01 X15.853261 Y-11.369565 Z5
G01 X15.98913 Y-11.369565 Z21
G01 X75.63587 Y-11.369565 Z21
G01 X75.771739 Y-11.369565 Z5
G01 X99.548913 Y-11.369565 Z5
G01 X99.548913 Y-11.505435 Z5
G01 X99.548913 Y-11.641304 Z5
G01 X99.548913 Y-11.777174 Z5
G01 X99.548913 Y-11.913043 Z5
G01 X76.043478 Y-11.913043 Z5
G01 X75.907609 Y-11.913043 Z21
G01 X15.581522 Y-11.913043 Z21
G01 X15.445652 Y-11.913043 Z5
G01 X0.36413 Y-11.913043 Z5
G01 X0.36413 Y-12.048913 Z5
G01 X0.36413 Y-12.184783 Z5
G01 X0.36413 Y-12.320652 Z5
G01 X0.36413 Y-12.456522 Z5
G01 X15.038043 Y-12.456522 Z5
G01 X15.173913 Y-12.456522 Z21
G01 X76.179348 Y-12.456522 Z21
G01 X76.315217 Y-12.456522 Z5
G01 X99.548913 Y-12.456522 Z5
G01 X99.548913 Y-12.592391 Z5
G01 X99.548913 Y-12.728261 Z5
G01 X99.548913 Y-12.86413 Z5
G01 X99.548913 Y-13 Z5
G01 X76.451087 Y-13 Z5
G01 X76.315217 Y-13 Z21
G01 X14.902174 Y-13 Z21
G01 X14.766304 Y-13 Z5
G01 X0.36413 Y-13 Z5
G01 X0.36413 Y-13.13587 Z5
G01 X0.36413 Y-13.271739 Z5
G01 X0.36413 Y-13.407609 Z5
G01 X0.36413 Y-13.543478 Z5
G01 X14.358696 Y-13.543478 Z5
G01 X14.494565 Y-13.543478 Z21
G01 X76.586957 Y-13.543478 Z21
G01 X76.722826 Y-13.543478 Z5
G01 X99.548913 Y-13.543478 Z5
G01 X99.548913 Y-13.679348 Z5
G01 X99.548913 Y-13.815217 Z5
G01 X99.548913 Y-13.951087 Z5
G01 X99.548913 Y-14.086957 Z5
G01 X76.858696 Y-14.086957 Z5
G01 X76.722826 Y-14.086957 Z21
G01 X14.222826 Y-14.086957 Z21
G01 X14.086957 Y-14.086957 Z5
G01 X0.36413 Y-14.086957 Z5
G01 X0.36413 Y-14.222826 Z5
G01 X0.36413 Y-14.358696 Z5
G01 X0.36413 Y-14.494565 Z5
G01 X0.36413 Y-14.630435 Z5
G01 X13.815217 Y-14.630435 Z5
G01 X13.951087 Y-14.630435 Z21
G01 X76.858696 Y-14.630435 Z21
G01 X76.994565 Y-14.630435 Z5
G01 X99.548913 Y-14.630435 Z5
G01 X99.548913 Y-14.766304 Z5
G01 X99.548913 Y-14.902174 Z5
G01 X99.548913 Y-15.038043 Z5
G01 X99.548913 Y-15.173913 Z5
G01 X77.130435 Y-15.173913 Z5
G01 X76.994565 Y-15.173913 Z21
G01 X13.679348 Y-15.173913 Z21
G01 X13.543478 Y-15.173913 Z5
G01 X0.36413 Y-15.173913 Z5
G01 X0.36413 Y-15.309783 Z5
G01 X0.36413 Y-15.445652 Z5
G01 X0.36413 Y-15.581522 Z5
G01 X0.36413 Y-15.717391 Z5
G01 X13.407609 Y-15.717391 Z5
G01 X13.543478 Y-15.717391 Z21
G01 X77.130435 Y-15.717391 Z21
G01 X77.266304 Y-15.717391 Z5
G01 X99.548913 Y-15.717391 Z5
G01 X99.548913 Y-15.853261 Z5
G01 X99.548913 Y-15.98913 Z5
G01 X99.548913 Y-16.125 Z5
G01 X99.548913 Y-16.26087 Z5
G01 X77.402174 Y-16.26087 Z5
G01 X77.266304 Y-16.26087 Z21
G01 X13.543478 Y-16.26087 Z21
G01 X13.407609 Y-16.26087 Z5
G01 X0.36413 Y-16.26087 Z5
G01 X0.36413 Y-16.396739 Z5
G01 X0.36413 Y-16.532609 Z5
G01 X0.36413 Y-16.668478 Z5
G01 X0.36413 Y-16.804348 Z5
G01 X13.407609 Y-16.804348 Z5
G01 X13.543478 Y-16.804348 Z21
G01 X77.402174 Y-16.804348 Z21
G01 X77.538043 Y-16.804348 Z5
G01 X99.548913 Y-16.804348 Z5
G01 X99.548913 Y-16.940217 Z5
G01 X99.548913 Y-17.076087 Z5
G01 X99.548913 Y-17.211957 Z5
G01 X99.548913 Y-17.347826 Z5
G01 X78.081522 Y-17.347826 Z5
G01 X77.945652 Y-17.347826 Z21
G01 X13.271739 Y-17.347826 Z21
G01 X13.13587 Y-17.347826 Z5
G01 X0.36413 Y-17.347826 Z5
G01 X0.36413 Y-17.483696 Z5
G01 X0.36413 Y-17.619565 Z5
G01 X0.36413 Y-17.755435 Z5
G01 X0.36413 Y-17.891304 Z5
G01 X13.13587 Y-17.891304 Z5
G01 X13.271739 Y-17.891304 Z21
G01 X81.61413 Y-17.891304 Z21
G01 X81.75 Y-17.891304 Z5
G01 X99.548913 Y-17.891304 Z5
G01 X99.548913 Y-18.027174 Z5
G01 X99.548913 Y-18.163043 Z5
G01 X99.548913 Y-18.298913 Z5
G01 X99.548913 Y-18.434783 Z5
G01 X82.701087 Y-18.434783 Z5
G01 X82.565217 Y-18.434783 Z21
G01 X13.271739 Y-18.434783 Z21
G01 X13.13587 Y-18.434783 Z5
G01 X0.36413 Y-18.434783 Z5
G01 X0.36413 Y-18.570652 Z5
G01 X0.36413 Y-18.706522 Z5
G01 X0.36413 Y-18.842391 Z5
G01 X0.36413 Y-18.978261 Z5
G01 X13 Y-18.978261 Z5
G01 X13.13587 Y-18.978261 Z21
G01 X83.244565 Y-18.978261 Z21
G01 X83.380435 Y-18.978261 Z5
G01 X99.548913 Y-18.978261 Z5
G01 X99.548913 Y-19.11413 Z5
G01 X99.548913 Y-19.25 Z5
G01 X99.548913 Y-19.38587 Z5
G01 X99.548913 Y-19.521739 Z5
G01 X83.923913 Y-19.521739 Z5
G01 X83.788043 Y-19.521739 Z21
G01 X13.13587 Y-19.521739 Z21
G01 X13 Y-19.521739 Z5
G01 X0.36413 Y-19.521739 Z5
G01 X0.36413 Y-19.657609 Z5
G01 X0.36413 Y-19.793478 Z5
G01 X0.36413 Y-19.929348 Z5
G01 X0.36413 Y-20.065217 Z5
G01 X13.13587 Y-20.065217 Z5
G01 X13.271739 Y-20.065217 Z21
G01 X83.788043 Y-20.065217 Z21
G01 X83.923913 Y-20.065217 Z5
G01 X99.548913 Y-20.065217 Z5
G01 X99.548913 Y-20.201087 Z5
G01 X99.548913 Y-20.336957 Z5
G01 X99.548913 Y-20.472826 Z5
G01 X99.548913 Y-20.608696 Z5
G01 X84.331522 Y-20.608696 Z5
G01 X84.195652 Y-20.608696 Z21
G01 X13.271739 Y-20.608696 Z21
G01 X13.13587 Y-20.608696 Z5
G01 X0.36413 Y-20.608696 Z5
G01 X0.36413 Y-20.744565 Z5
G01 X0.36413 Y-20.880435 Z5
G01 X0.36413 Y-21.016304 Z5
G01 X0.36413 Y-21.152174 Z5
G01 X13.271739 Y-21.152174 Z5
G01 X13.407609 Y-21.152174 Z21
G01 X84.467391 Y-21.152174 Z21
G01 X84.603261 Y-21.152174 Z5
G01 X99.548913 Y-21.152174 Z5
G01 X99.548913 Y-21.288043 Z5
G01 X99.548913 Y-21.423913 Z5
G01 X99.548913 Y-21.559783 Z5
G01 X99.548913 Y-21.695652 Z5
G01 X84.875 Y-21.695652 Z5
G01 X84.73913 Y-21.695652 Z21
G01 X13.271739 Y-21.695652 Z21
G01 X13.13587 Y-21.695652 Z5
G01 X0.36413 Y-21.695652 Z5
G01 X0.36413 Y-21.831522 Z5
G01 X0.36413 Y-21.967391 Z5
G01 X0.36413 Y-22.103261 Z5
G01 X0.36413 Y-22.23913 Z5
G01 X13.13587 Y-22.23913 Z5
G01 X13.271739 Y-22.23913 Z21
G01 X85.146739 Y-22.23913 Z21
G01 X85.282609 Y-22.23913 Z5
G01 X99.548913 Y-22.23913 Z5
G01 X99.548913 Y-22.375 Z5
G01 X99.548913 Y-22.51087 Z5
G01 X99.548913 Y-22.646739 Z5
G01 X99.548913 Y-22.782609 Z5
G01 X85.282609 Y-22.782609 Z5
G01 X85.146739 Y-22.782609 Z21
G01 X13.407609 Y-22.782609 Z21
G01 X13.271739 Y-22.782609 Z5
G01 X0.36413 Y-22.782609 Z5
G01 X0.36413 Y-22.918478 Z5
G01 X0.36413 Y-23.054348 Z5
G01 X0.36413 Y-23.190217 Z5
G01 X0.36413 Y-23.326087 Z5
G01 X13.407609 Y-23.326087 Z5
G01 X13.543478 Y-23.326087 Z21
G01 X85.01087 Y-23.326087 Z21
G01 X85.146739 Y-23.326087 Z5
G01 X99.548913 Y-23.326087 Z5
G01 X99.548913 Y-23.461957 Z5
G01 X99.548913 Y-23.597826 Z5
G01 X99.548913 Y-23.733696 Z5
G01 X99.548913 Y-23.869565 Z5
G01 X85.282609 Y-23.869565 Z5
G01 X85.146739 Y-23.869565 Z21
G01 X13.679348 Y-23.869565 Z21
G01 X13.543478 Y-23.869565 Z5
G01 X0.36413 Y-23.869565 Z5
G01 X0.36413 Y-24.005435 Z5
G01 X0.36413 Y-24.141304 Z5
G01 X0.36413 Y-24.277174 Z5
G01 X0.36413 Y-24.413043 Z5
G01 X13.679348 Y-24.413043 Z5
G01 X13.815217 Y-24.413043 Z21
G01 X85.146739 Y-24.413043 Z21
G01 X85.282609 Y-24.413043 Z5
G01 X99.548913 Y-24.413043 Z5
G01 X99.548913 Y-24.548913 Z5
G01 X99.548913 Y-24.684783 Z5
G01 X99.548913 Y-24.820652 Z5
G01 X99.548913 Y-24.956522 Z5
G01 X85.282609 Y-24.956522 Z5
G01 X85.146739 Y-24.956522 Z21
G01 X13.951087 Y-24.956522 Z21
G01 X13.815217 Y-24.956522 Z5
G01 X0.36413 Y-24.956522 Z5
G01 X0.36413 Y-25.092391 Z5
G01 X0.36413 Y-25.228261 Z5
G01 X0.36413 Y-25.36413 Z5
G01 X0.36413 Y-25.5 Z5
G01 X13.815217 Y-25.5 Z5
G01 X13.951087 Y-25.5 Z21
G01 X21.016304 Y-25.5 Z21
G01 X21.152174 Y-25.5 Z5
G01 X21.967391 Y-25.5 Z5
G01 X22.103261 Y-25.5 Z21
G01 X84.875 Y-25.5 Z21
G01 X85.01087 Y-25.5 Z5
G01 X99.548913 Y-25.5 Z5
G01 X99.548913 Y-25.63587 Z5
G01 X99.548913 Y-25.771739 Z5
G01 X99.548913 Y-25.907609 Z5
G01 X99.548913 Y-26.043478 Z5
G01 X85.01087 Y-26.043478 Z5
G01 X84.875 Y-26.043478 Z21
G01 X23.461957 Y-26.043478 Z21
G01 X23.326087 Y-26.043478 Z5
G01 X20.744565 Y-26.043478 Z5
G01 X20.608696 Y-26.043478 Z21
G01 X14.358696 Y-26.043478 Z21
G01 X14.222826 Y-26.043478 Z5
G01 X0.36413 Y-26.043478 Z5
G01 X0.36413 Y-26.179348 Z5
G01 X0.36413 Y-26.315217 Z5
G01 X0.36413 Y-26.451087 Z5
G01 X0.36413 Y-26.586957 Z5
G01 X14.494565 Y-26.586957 Z5
G01 X14.630435 Y-26.586957 Z21
G01 X19.657609 Y-26.586957 Z21
G01 X19.793478 Y-26.586957 Z5
G01 X24.141304 Y-26.586957 Z5
G01 X24.277174 Y-26.586957 Z21
G01 X84.73913 Y-26.586957 Z21
G01 X84.875 Y-26.586957 Z5
G01 X99.548913 Y-26.586957 Z5
G01 X99.548913 Y-26.722826 Z5
G01 X99.548913 Y-26.858696 Z5
G01 X99.548913 Y-26.994565 Z5
G01 X99.548913 Y-27.130435 Z5
G01 X84.73913 Y-27.130435 Z5
G01 X84.603261 Y-27.130435 Z21
G01 X25.228261 Y-27.130435 Z21
G01 X25.092391 Y-27.130435 Z5
G01 X17.891304 Y-27.130435 Z5
G01 X17.755435 Y-27.130435 Z21
G01 X15.853261 Y-27.130435 Z21
G01 X15.717391 Y-27.130435 Z5
G01 X0.36413 Y-27.130435 Z5
G01 X0.36413 Y-27.266304 Z5
G01 X0.36413 Y-27.402174 Z5
G01 X0.36413 Y-27.538043 Z5
G01 X0.36413 Y-27.673913 Z5
G01 X25.771739 Y-27.673913 Z5
G01 X25.907609 Y-27.673913 Z21
G01 X84.059783 Y-27.673913 Z21
G01 X84.195652 Y-27.673913 Z5
G01 X99.548913 Y-27.673913 Z5
G01 X99.548913 Y-27.809783 Z5
G01 X99.548913 Y-27.945652 Z5
G01 X99.548913 Y-28.081522 Z5
G01 X99.548913 Y-28.217391 Z5
G01 X83.788043 Y-28.217391 Z5
G01 X83.652174 Y-28.217391 Z21
G01 X26.858696 Y-28.217391 Z21
G01 X26.722826 Y-28.217391 Z5
G01 X0.36413 Y-28.217391 Z5
G01 X0.36413 Y-28.353261 Z5
G01 X0.36413 Y-28.48913 Z5
G01 X0.36413 Y-28.625 Z5
G01 X0.36413 Y-28.76087 Z5
G01 X27.402174 Y-28.76087 Z5
G01 X27.538043 Y-28.76087 Z21
G01 X83.516304 Y-28.76087 Z21
G01 X83.652174 Y-28.76087 Z5
G01 X99.548913 Y-28.76087 Z5
G01 X99.548913 Y-28.896739 Z5
G01 X99.548913 Y-29.032609 Z5
G01 X99.548913 Y-29.168478 Z5
G01 X99.548913 Y-29.304348 Z5
G01 X83.652174 Y-29.304348 Z5
G01 X83.516304 Y-29.304348 Z21
G01 X28.081522 Y-29.304348 Z21
G01 X27.945652 Y-29.304348 Z5
G01 X0.36413 Y-29.304348 Z5
G01 X0.36413 Y-29.440217 Z5
G01 X0.36413 Y-29.576087 Z5
G01 X0.36413 Y-29.711957 Z5
G01 X0.36413 Y-29.847826 Z5
G01 X28.76087 Y-29.847826 Z5
G01 X28.896739 Y-29.847826 Z21
G01 X82.701087 Y-29.847826 Z21
G01 X82.836957 Y-29.847826 Z5
G01 X99.548913 Y-29.847826 Z5
G01 X99.548913 Y-29.983696 Z5
G01 X99.548913 Y-30.119565 Z5
G01 X99.548913 Y-30.255435 Z5
G01 X99.548913 Y-30.391304 Z5
G01 X82.429348 Y-30.391304 Z5
G01 X82.293478 Y-30.391304 Z21
G01 X29.711957 Y-30.391304 Z21
G01 X29.576087 Y-30.391304 Z5
G01 X0.36413 Y-30.391304 Z5
G01 X0.36413 Y-30.527174 Z5
G01 X0.36413 Y-30.663043 Z5
G01 X0.36413 Y-30.798913 Z5
G01 X0.36413 Y-30.934783 Z5
G01 X30.119565 Y-30.934783 Z5
G01 X30.255435 Y-30.934783 Z21
G01 X81.478261 Y-30.934783 Z21
G01 X81.61413 Y-30.934783 Z5
G01 X99.548913 Y-30.934783 Z5
G01 X99.548913 Y-31.070652 Z5
G01 X99.548913 Y-31.206522 Z5
G01 X99.548913 Y-31.342391 Z5
G01 X99.548913 Y-31.478261 Z5
G01 X80.663043 Y-31.478261 Z5
G01 X80.527174 Y-31.478261 Z21
G01 X30.255435 Y-31.478261 Z21
G01 X30.119565 Y-31.478261 Z5
G01 X0.36413 Y-31.478261 Z5
G01 X0.36413 Y-31.61413 Z5
G01 X0.36413 Y-31.75 Z5
G01 X0.36413 Y-31.88587 Z5
G01 X0.36413 Y-32.021739 Z5
G01 X30.934783 Y-32.021739 Z5
G01 X31.070652 Y-32.021739 Z21
G01 X78.353261 Y-32.021739 Z21
G01 X78.48913 Y-32.021739 Z5
G01 X99.548913 Y-32.021739 Z5
G01 X99.548913 Y-32.157609 Z5
G01 X99.548913 Y-32.293478 Z5
G01 X99.548913 Y-32.429348 Z5
G01 X99.548913 Y-32.565217 Z5
G01 X75.771739 Y-32.565217 Z5
G01 X75.63587 Y-32.565217 Z21
G01 X31.070652 Y-32.565217 Z21
G01 X30.934783 Y-32.565217 Z5
G01 X0.36413 Y-32.565217 Z5
G01 X0.36413 Y-32.701087 Z5
G01 X0.36413 Y-32.836957 Z5
G01 X0.36413 Y-32.972826 Z5
G01 X0.36413 Y-33.108696 Z5
G01 X31.206522 Y-33.108696 Z5
G01 X31.342391 Y-33.108696 Z21
G01 X73.733696 Y-33.108696 Z21
G01 X73.869565 Y-33.108696 Z5
G01 X99.548913 Y-33.108696 Z5
G01 X99.548913 Y-33.244565 Z5
G01 X99.548913 Y-33.380435 Z5
G01 X99.548913 Y-33.516304 Z5
G01 X99.548913 Y-33.652174 Z5
G01 X72.782609 Y-33.652174 Z5
G01 X72.646739 Y-33.652174 Z21
G01 X31.342391 Y-33.652174 Z21
G01 X31.206522 Y-33.652174 Z5
G01 X0.36413 Y-33.652174 Z5
G01 X0.36413 Y-33.788043 Z5
G01 X0.36413 Y-33.923913 Z5
G01 X0.36413 Y-34.059783 Z5
G01 X0.36413 Y-34.195652 Z5
G01 X31.206522 Y-34.195652 Z5
G01 X31.342391 Y-34.195652 Z21
G01 X71.423913 Y-34.195652 Z21
G01 X71.559783 Y-34.195652 Z5
G01 X99.548913 Y-34.195652 Z5
G01 X99.548913 Y-34.331522 Z5
G01 X99.548913 Y-34.467391 Z5
G01 X99.548913 Y-34.603261 Z5
G01 X99.548913 Y-34.73913 Z5
G01 X70.065217 Y-34.73913 Z5
G01 X69.929348 Y-34.73913 Z21
G01 X31.342391 Y-34.73913 Z21
G01 X31.206522 Y-34.73913 Z5
G01 X0.36413 Y-34.73913 Z5
G01 X0.36413 Y-34.875 Z5
G01 X0.36413 Y-35.01087 Z5
G01 X0.36413 Y-35.146739 Z5
G01 X0.36413 Y-35.282609 Z5
G01 X31.206522 Y-35.282609 Z5
G01 X31.342391 Y-35.282609 Z21
G01 X68.434783 Y-35.282609 Z21
G01 X68.570652 Y-35.282609 Z5
G01 X99.548913 Y-35.282609 Z5
G01 X99.548913 Y-35.418478 Z5
G01 X99.548913 Y-35.554348 Z5
G01 X99.548913 Y-35.690217 Z5
G01 X99.548913 Y-35.826087 Z5
G01 X68.570652 Y-35.826087 Z5
G01 X68.434783 Y-35.826087 Z21
G01 X31.342391 Y-35.826087 Z21
G01 X31.206522 Y-35.826087 Z5
G01 X0.36413 Y-35.826087 Z5
G01 X0.36413 Y-35.961957 Z5
G01 X0.36413 Y-36.097826 Z5
G01 X0.36413 Y-36.233696 Z5
G01 X0.36413 Y-36.369565 Z5
G01 X18.978261 Y-36.369565 Z5
G01 X19.11413 Y-36.369565 Z21
G01 X22.782609 Y-36.369565 Z21
G01 X22.918478 Y-36.369565 Z5
G01 X31.206522 Y-36.369565 Z5
G01 X31.342391 Y-36.369565 Z21
G01 X67.483696 Y-36.369565 Z21
G01 X67.619565 Y-36.369565 Z5
G01 X99.548913 Y-36.369565 Z5
G01 X99.548913 Y-36.505435 Z5
G01 X99.548913 Y-36.641304 Z5
G01 X99.548913 Y-36.777174 Z5
G01 X99.548913 Y-36.913043 Z5
G01 X81.478261 Y-36.913043 Z5
G01 X81.342391 Y-36.913043 Z21
G01 X77.266304 Y-36.913043 Z21
G01 X77.130435 Y-36.913043 Z5
G01 X67.619565 Y-36.913043 Z5
G01 X67.483696 Y-36.913043 Z21
G01 X31.342391 Y-36.913043 Z21
G01 X31.206522 Y-36.913043 Z5
G01 X23.597826 Y-36.913043 Z5
G01 X23.461957 Y-36.913043 Z21
G01 X19.11413 Y-36.913043 Z21
G01 X18.978261 Y-36.913043 Z5
G01 X0.36413 Y-36.913043 Z5
G01 X0.36413 Y-37.048913 Z5
G01 X0.36413 Y-37.184783 Z5
G01 X0.36413 Y-37.320652 Z5
G01 X0.36413 Y-37.456522 Z5
G01 X18.842391 Y-37.456522 Z5
G01 X18.978261 Y-37.456522 Z21
G01 X23.869565 Y-37.456522 Z21
G01 X24.005435 Y-37.456522 Z5
G01 X31.206522 Y-37.456522 Z5
G01 X31.342391 Y-37.456522 Z21
G01 X67.483696 Y-37.456522 Z21
G01 X67.619565 Y-37.456522 Z5
G01 X72.51087 Y-37.456522 Z5
G01 X72.646739 Y-37.456522 Z21
G01 X81.75 Y-37.456522 Z21
G01 X81.88587 Y-37.456522 Z5
G01 X99.548913 Y-37.456522 Z5
G01 X99.548913 Y-37.592391 Z5
G01 X99.548913 Y-37.728261 Z5
G01 X99.548913 Y-37.86413 Z5
G01 X99.548913 Y-38 Z5
G01 X82.429348 Y-38 Z5
G01 X82.293478 Y-38 Z21
G01 X68.434783 Y-38 Z21
G01 X68.298913 Y-38 Z5
G01 X68.163043 Y-38 Z5
G01 X68.027174 Y-38 Z21
G01 X31.342391 Y-38 Z21
G01 X31.206522 Y-38 Z5
G01 X24.820652 Y-38 Z5
G01 X24.684783 Y-38 Z21
G01 X18.978261 Y-38 Z21
G01 X18.842391 Y-38 Z5
G01 X0.36413 Y-38 Z5
G01 X0.36413 Y-38.13587 Z5
G01 X0.36413 Y-38.271739 Z5
G01 X0.36413 Y-38.407609 Z5
G01 X0.36413 Y-38.543478 Z5
G01 X17.891304 Y-38.543478 Z5
G01 X18.027174 Y-38.543478 Z21
G01 X25.5 Y-38.543478 Z21
G01 X25.63587 Y-38.543478 Z5
G01 X31.206522 Y-38.543478 Z5
G01 X31.342391 Y-38.543478 Z21
G01 X82.293478 Y-38.543478 Z21
G01 X82.429348 Y-38.543478 Z5
G01 X99.548913 Y-38.543478 Z5
G01 X99.548913 Y-38.679348 Z5
G01 X99.548913 Y-38.815217 Z5
G01 X99.548913 Y-38.951087 Z5
G01 X99.548913 Y-39.086957 Z5
G01 X82.429348 Y-39.086957 Z5
G01 X82.293478 Y-39.086957 Z21
G01 X31.342391 Y-39.086957 Z21
G01 X31.206522 Y-39.086957 Z5
G01 X26.858696 Y-39.086957 Z5
G01 X26.722826 Y-39.086957 Z21
G01 X16.668478 Y-39.086957 Z21
G01 X16.532609 Y-39.086957 Z5
G01 X0.36413 Y-39.086957 Z5
G01 X0.36413 Y-39.222826 Z5
G01 X0.36413 Y-39.358696 Z5
G01 X0.36413 Y-39.494565 Z5
G01 X0.36413 Y-39.630435 Z5
G01 X16.125 Y-39.630435 Z5
G01 X16.26087 Y-39.630435 Z21
G01 X27.945652 Y-39.630435 Z21
G01 X28.081522 Y-39.630435 Z5
G01 X31.206522 Y-39.630435 Z5
G01 X31.342391 Y-39.630435 Z21
G01 X82.157609 Y-39.630435 Z21
G01 X82.293478 Y-39.630435 Z5
G01 X99.548913 Y-39.630435 Z5
G01 X99.548913 Y-39.766304 Z5
G01 X99.548913 Y-39.902174 Z5
G01 X99.548913 Y-40.038043 Z5
G01 X99.548913 Y-40.173913 Z5
G01 X82.021739 Y-40.173913 Z5
G01 X81.88587 Y-40.173913 Z21
G01 X16.125 Y-40.173913 Z21
G01 X15.98913 Y-40.173913 Z5
G01 X0.36413 Y-40.173913 Z5
G01 X0.36413 Y-40.309783 Z5
G01 X0.36413 Y-40.445652 Z5
G01 X0.36413 Y-40.581522 Z5
G01 X0.36413 Y-40.717391 Z5
G01 X15.98913 Y-40.717391 Z5
G01 X16.125 Y-40.717391 Z21
G01 X82.429348 Y-40.717391 Z21
G01 X82.565217 Y-40.717391 Z5
G01 X99.548913 Y-40.717391 Z5
G01 X99.548913 Y-40.853261 Z5
G01 X99.548913 Y-40.98913 Z5
G01 X99.548913 Y-41.125 Z5
G01 X99.548913 Y-41.26087 Z5
G01 X82.565217 Y-41.26087 Z5
G01 X82.429348 Y-41.26087 Z21
G01 X16.26087 Y-41.26087 Z21
G01 X16.125 Y-41.26087 Z5
G01 X0.36413 Y-41.26087 Z5
G01 X0.36413 Y-41.396739 Z5
G01 X0.36413 Y-41.532609 Z5
G01 X0.36413 Y-41.668478 Z5
G01 X0.36413 Y-41.804348 Z5
G01 X16.125 Y-41.804348 Z5
G01 X16.26087 Y-41.804348 Z21
G01 X82.565217 Y-41.804348 Z21
G01 X82.701087 Y-41.804348 Z5
G01 X99.548913 Y-41.804348 Z5
G01 X99.548913 Y-41.940217 Z5
G01 X99.548913 Y-42.076087 Z5
G01 X99.548913 Y-42.211957 Z5
G01 X99.548913 Y-42.347826 Z5
G01 X82.701087 Y-42.347826 Z5
G01 X82.565217 Y-42.347826 Z21
G01 X16.804348 Y-42.347826 Z21
G01 X16.668478 Y-42.347826 Z5
G01 X0.36413 Y-42.347826 Z5
G01 X0.36413 Y-42.483696 Z5
G01 X0.36413 Y-42.619565 Z5
G01 X0.36413 Y-42.755435 Z5
G01 X0.36413 Y-42.891304 Z5
G01 X16.804348 Y-42.891304 Z5
G01 X16.940217 Y-42.891304 Z21
G01 X82.429348 Y-42.891304 Z21
G01 X82.565217 Y-42.891304 Z5
G01 X99.548913 Y-42.891304 Z5
G01 X99.548913 Y-43.027174 Z5
G01 X99.548913 Y-43.163043 Z5
G01 X99.548913 Y-43.298913 Z5
G01 X99.548913 Y-43.434783 Z5
G01 X82.701087 Y-43.434783 Z5
G01 X82.565217 Y-43.434783 Z21
G01 X16.940217 Y-43.434783 Z21
G01 X16.804348 Y-43.434783 Z5
G01 X0.36413 Y-43.434783 Z5
G01 X0.36413 Y-43.570652 Z5
G01 X0.36413 Y-43.706522 Z5
G01 X0.36413 Y-43.842391 Z5
G01 X0.36413 Y-43.978261 Z5
G01 X17.347826 Y-43.978261 Z5
G01 X17.483696 Y-43.978261 Z21
G01 X82.565217 Y-43.978261 Z21
G01 X82.701087 Y-43.978261 Z5
G01 X99.548913 Y-43.978261 Z5
G01 X99.548913 Y-44.11413 Z5
G01 X99.548913 Y-44.25 Z5
G01 X99.548913 Y-44.38587 Z5
G01 X99.548913 Y-44.521739 Z5
G01 X82.701087 Y-44.521739 Z5
G01 X82.565217 Y-44.521739 Z21
G01 X17.755435 Y-44.521739 Z21
G01 X17.619565 Y-44.521739 Z5
G01 X0.36413 Y-44.521739 Z5
G01 X0.36413 Y-44.657609 Z5
G01 X0.36413 Y-44.793478 Z5
G01 X0.36413 Y-44.929348 Z5
G01 X0.36413 Y-45.065217 Z5
G01 X18.298913 Y-45.065217 Z5
G01 X18.434783 Y-45.065217 Z21
G01 X81.88587 Y-45.065217 Z21
G01 X82.021739 Y-45.065217 Z5
G01 X99.548913 Y-45.065217 Z5
G01 X99.548913 Y-45.201087 Z5
G01 X99.548913 Y-45.336957 Z5
G01 X99.548913 Y-45.472826 Z5
G01 X99.548913 Y-45.608696 Z5
G01 X81.61413 Y-45.608696 Z5
G01 X81.478261 Y-45.608696 Z21
G01 X19.38587 Y-45.608696 Z21
G01 X19.25 Y-45.608696 Z5
G01 X0.36413 Y-45.608696 Z5
G01 X0.36413 Y-45.744565 Z5
G01 X0.36413 Y-45.880435 Z5
G01 X0.36413 Y-46.016304 Z5
G01 X0.36413 Y-46.152174 Z5
G01 X20.065217 Y-46.152174 Z5
G01 X20.201087 Y-46.152174 Z21
G01 X79.711957 Y-46.152174 Z21
G01 X79.847826 Y-46.152174 Z5
G01 X99.548913 Y-46.152174 Z5
G01 X99.548913 Y-46.288043 Z5
G01 X99.548913 Y-46.423913 Z5
G01 X99.548913 Y-46.559783 Z5
G01 X99.548913 Y-46.695652 Z5
G01 X76.043478 Y-46.695652 Z5
G01 X75.907609 Y-46.695652 Z21
G01 X25.36413 Y-46.695652 Z21
G01 X25.228261 Y-46.695652 Z5
G01 X0.36413 Y-46.695652 Z5
G01 X0.36413 Y-46.831522 Z5
G01 X0.36413 Y-46.967391 Z5
G01 X0.36413 Y-47.103261 Z5
G01 X0.36413 Y-47.23913 Z5
G01 X25.63587 Y-47.23913 Z5
G01 X25.771739 Y-47.23913 Z21
G01 X73.326087 Y-47.23913 Z21
G01 X73.461957 Y-47.23913 Z5
G01 X99.548913 Y-47.23913 Z5
G01 X99.548913 Y-47.375 Z5
G01 X99.548913 Y-47.51087 Z5
G01 X99.548913 Y-47.646739 Z5
G01 X99.548913 Y-47.782609 Z5
G01 X73.461957 Y-47.782609 Z5
G01 X73.326087 Y-47.782609 Z21
G01 X25.5 Y-47.782609 Z21
G01 X25.36413 Y-47.782609 Z5
G01 X0.36413 Y-47.782609 Z5
G01 X0.36413 Y-47.918478 Z5
G01 X0.36413 Y-48.054348 Z5
G01 X0.36413 Y-48.190217 Z5
G01 X0.36413 Y-48.326087 Z5
G01 X25.36413 Y-48.326087 Z5
G01 X25.5 Y-48.326087 Z21
G01 X73.326087 Y-48.326087 Z21
G01 X73.461957 Y-48.326087 Z5
G01 X99.548913 Y-48.326087 Z5
G01 X99.548913 Y-48.461957 Z5
G01 X99.548913 Y-48.597826 Z5
G01 X99.548913 Y-48.733696 Z5
G01 X99.548913 Y-48.869565 Z5
G01 X73.326087 Y-48.869565 Z5
G01 X73.190217 Y-48.869565 Z21
G01 X25.5 Y-48.869565 Z21
G01 X25.36413 Y-48.869565 Z5
G01 X0.36413 Y-48.869565 Z5
G01 X0.36413 Y-49.005435 Z5
G01 X0.36413 Y-49.141304 Z5
G01 X0.36413 Y-49.277174 Z5
G01 X0.36413 Y-49.413043 Z5
G01 X25.63587 Y-49.413043 Z5
G01 X25.771739 Y-49.413043 Z21
G01 X72.918478 Y-49.413043 Z21
G01 X73.054348 Y-49.413043 Z5
G01 X99.548913 Y-49.413043 Z5
G01 X99.548913 Y-49.548913 Z5
G01 X99.548913 Y-49.684783 Z5
G01 X99.548913 Y-49.820652 Z5
G01 X99.548913 Y-49.956522 Z5
G01 X72.918478 Y-49.956522 Z5
G01 X72.782609 Y-49.956522 Z21
G01 X25.771739 Y-49.956522 Z21
G01 X25.63587 Y-49.956522 Z5
G01 X0.36413 Y-49.956522 Z5
G01 X0.36413 Y-50.092391 Z5
G01 X0.36413 Y-50.228261 Z5
G01 X0.36413 Y-50.36413 Z5
G01 X0.36413 Y-50.5 Z5
G01 X25.907609 Y-50.5 Z5
G01 X26.043478 Y-50.5 Z21
G01 X72.646739 Y-50.5 Z21
G01 X72.782609 Y-50.5 Z5
G01 X99.548913 Y-50.5 Z5
G01 X99.548913 Y-50.63587 Z5
G01 X99.548913 Y-50.771739 Z5
G01 X99.548913 Y-50.907609 Z5
G01 X99.548913 Y-51.043478 Z5
G01 X72.51087 Y-51.043478 Z5
G01 X72.375 Y-51.043478 Z21
G01 X26.179348 Y-51.043478 Z21
G01 X26.043478 Y-51.043478 Z5
G01 X0.36413 Y-51.043478 Z5
G01 X0.36413 Y-51.179348 Z5
G01 X0.36413 Y-51.315217 Z5
G01 X0.36413 Y-51.451087 Z5
G01 X0.36413 Y-51.586957 Z5
G01 X26.315217 Y-51.586957 Z5
G01 X26.451087 Y-51.586957 Z21
G01 X72.103261 Y-51.586957 Z21
G01 X72.23913 Y-51.586957 Z5
G01 X99.548913 Y-51.586957 Z5
G01 X99.548913 Y-51.722826 Z5
G01 X99.548913 Y-51.858696 Z5
G01 X99.548913 Y-51.994565 Z5
G01 X99.548913 Y-52.130435 Z5
G01 X71.695652 Y-52.130435 Z5
G01 X71.559783 Y-52.130435 Z21
G01 X26.722826 Y-52.130435 Z21
G01 X26.586957 Y-52.130435 Z5
G01 X0.36413 Y-52.130435 Z5
G01 X0.36413 Y-52.266304 Z5
G01 X0.36413 Y-52.402174 Z5
G01 X0.36413 Y-52.538043 Z5
G01 X0.36413 Y-52.673913 Z5
G01 X27.402174 Y-52.673913 Z5
G01 X27.538043 Y-52.673913 Z21
G01 X71.288043 Y-52.673913 Z21
G01 X71.423913 Y-52.673913 Z5
G01 X99.548913 Y-52.673913 Z5
G01 X99.548913 Y-52.809783 Z5
G01 X99.548913 Y-52.945652 Z5
G01 X99.548913 Y-53.081522 Z5
G01 X99.548913 Y-53.217391 Z5
G01 X71.695652 Y-53.217391 Z5
G01 X71.559783 Y-53.217391 Z21
G01 X27.402174 Y-53.217391 Z21
G01 X27.266304 Y-53.217391 Z5
G01 X0.36413 Y-53.217391 Z5
G01 X0.36413 Y-53.353261 Z5
G01 X0.36413 Y-53.48913 Z5
G01 X0.36413 Y-53.625 Z5
G01 X0.36413 Y-53.76087 Z5
G01 X27.130435 Y-53.76087 Z5
G01 X27.266304 Y-53.76087 Z21
G01 X71.695652 Y-53.76087 Z21
G01 X71.831522 Y-53.76087 Z5
G01 X99.548913 Y-53.76087 Z5
G01 X99.548913 Y-53.896739 Z5
G01 X99.548913 Y-54.032609 Z5
G01 X99.548913 Y-54.168478 Z5
G01 X99.548913 Y-54.304348 Z5
G01 X71.831522 Y-54.304348 Z5
G01 X71.695652 Y-54.304348 Z21
G01 X26.994565 Y-54.304348 Z21
G01 X26.858696 Y-54.304348 Z5
G01 X0.36413 Y-54.304348 Z5
G01 X0.36413 Y-54.440217 Z5
G01 X0.36413 Y-54.576087 Z5
G01 X0.36413 Y-54.711957 Z5
G01 X0.36413 Y-54.847826 Z5
G01 X26.722826 Y-54.847826 Z5
G01 X26.858696 Y-54.847826 Z21
G01 X71.695652 Y-54.847826 Z21
G01 X71.831522 Y-54.847826 Z5
G01 X99.548913 Y-54.847826 Z5
G01 X99.548913 Y-54.983696 Z5
G01 X99.548913 Y-55.119565 Z5
G01 X99.548913 Y-55.255435 Z5
G01 X99.548913 Y-55.391304 Z5
G01 X71.831522 Y-55.391304 Z5
G01 X71.695652 Y-55.391304 Z21
G01 X26.858696 Y-55.391304 Z21
G01 X26.722826 Y-55.391304 Z5
G01 X0.36413 Y-55.391304 Z5
G01 X0.36413 Y-55.527174 Z5
G01 X0.36413 Y-55.663043 Z5
G01 X0.36413 Y-55.798913 Z5
G01 X0.36413 Y-55.934783 Z5
G01 X26.722826 Y-55.934783 Z5
G01 X26.858696 Y-55.934783 Z21
G01 X71.559783 Y-55.934783 Z21
G01 X71.695652 Y-55.934783 Z5
G01 X99.548913 Y-55.934783 Z5
G01 X99.548913 Y-56.070652 Z5
G01 X99.548913 Y-56.206522 Z5
G01 X99.548913 Y-56.342391 Z5
G01 X99.548913 Y-56.478261 Z5
G01 X71.288043 Y-56.478261 Z5
G01 X71.152174 Y-56.478261 Z21
G01 X27.266304 Y-56.478261 Z21
G01 X27.130435 Y-56.478261 Z5
G01 X0.36413 Y-56.478261 Z5
G01 X0.36413 Y-56.61413 Z5
G01 X0.36413 Y-56.75 Z5
G01 X0.36413 Y-56.88587 Z5
G01 X0.36413 Y-57.021739 Z5
G01 X28.353261 Y-57.021739 Z5
G01 X28.48913 Y-57.021739 Z21
G01 X70.880435 Y-57.021739 Z21
G01 X71.016304 Y-57.021739 Z5
G01 X99.548913 Y-57.021739 Z5
G01 X99.548913 Y-57.157609 Z5
G01 X99.548913 Y-57.293478 Z5
G01 X99.548913 Y-57.429348 Z5
G01 X99.548913 Y-57.565217 Z5
G01 X70.744565 Y-57.565217 Z5
G01 X70.608696 Y-57.565217 Z21
G01 X29.032609 Y-57.565217 Z21
G01 X28.896739 Y-57.565217 Z5
G01 X0.36413 Y-57.565217 Z5
G01 X0.36413 Y-57.701087 Z5
G01 X0.36413 Y-57.836957 Z5
G01 X0.36413 Y-57.972826 Z5
G01 X0.36413 Y-58.108696 Z5
G01 X29.168478 Y-58.108696 Z5
G01 X29.304348 Y-58.108696 Z21
G01 X70.472826 Y-58.108696 Z21
G01 X70.608696 Y-58.108696 Z5
G01 X99.548913 Y-58.108696 Z5
G01 X99.548913 Y-58.244565 Z5
G01 X99.548913 Y-58.380435 Z5
G01 X99.548913 Y-58.516304 Z5
G01 X99.548913 Y-58.652174 Z5
G01 X70.472826 Y-58.652174 Z5
G01 X70.336957 Y-58.652174 Z21
G01 X29.304348 Y-58.652174 Z21
G01 X29.168478 Y-58.652174 Z5
G01 X0.36413 Y-58.652174 Z5
G01 X0.36413 Y-58.788043 Z5
G01 X0.36413 Y-58.923913 Z5
G01 X0.36413 Y-59.059783 Z5
G01 X0.36413 Y-59.195652 Z5
G01 X29.168478 Y-59.195652 Z5
G01 X29.304348 Y-59.195652 Z21
G01 X70.336957 Y-59.195652 Z21
G01 X70.472826 Y-59.195652 Z5
G01 X99.548913 Y-59.195652 Z5
G01 X99.548913 Y-59.331522 Z5
G01 X99.548913 Y-59.467391 Z5
G01 X99.548913 Y-59.603261 Z5
G01 X99.548913 Y-59.73913 Z5
G01 X70.336957 Y-59.73913 Z5
G01 X70.201087 Y-59.73913 Z21
G01 X29.304348 Y-59.73913 Z21
G01 X29.168478 Y-59.73913 Z5
G01 X0.36413 Y-59.73913 Z5
G01 X0.36413 Y-59.875 Z5
G01 X0.36413 Y-60.01087 Z5
G01 X0.36413 Y-60.146739 Z5
G01 X0.36413 Y-60.282609 Z5
G01 X29.440217 Y-60.282609 Z5
G01 X29.576087 Y-60.282609 Z21
G01 X69.657609 Y-60.282609 Z21
G01 X69.793478 Y-60.282609 Z5
G01 X99.548913 Y-60.282609 Z5
G01 X99.548913 Y-60.418478 Z5
G01 X99.548913 Y-60.554348 Z5
G01 X99.548913 Y-60.690217 Z5
G01 X99.548913 Y-60.826087 Z5
G01 X68.978261 Y-60.826087 Z5
G01 X68.842391 Y-60.826087 Z21
G01 X29.983696 Y-60.826087 Z21
G01 X29.847826 Y-60.826087 Z5
G01 X0.36413 Y-60.826087 Z5
G01 X0.36413 Y-60.961957 Z5
G01 X0.36413 Y-61.097826 Z5
G01 X0.36413 Y-61.233696 Z5
G01 X0.36413 Y-61.369565 Z5
G01 X30.934783 Y-61.369565 Z5
G01 X31.070652 Y-61.369565 Z21
G01 X68.434783 Y-61.369565 Z21
G01 X68.570652 Y-61.369565 Z5
G01 X99.548913 Y-61.369565 Z5
G01 X99.548913 Y-61.505435 Z5
G01 X99.548913 Y-61.641304 Z5
G01 X99.548913 Y-61.777174 Z5
G01 X99.548913 Y-61.913043 Z5
G01 X67.891304 Y-61.913043 Z5
G01 X67.755435 Y-61.913043 Z21
G01 X31.070652 Y-61.913043 Z21
G01 X30.934783 Y-61.913043 Z5
G01 X0.36413 Y-61.913043 Z5
G01 X0.36413 Y-62.048913 Z5
G01 X0.36413 Y-62.184783 Z5
G01 X0.36413 Y-62.320652 Z5
G01 X0.36413 Y-62.456522 Z5
G01 X30.934783 Y-62.456522 Z5
G01 X31.070652 Y-62.456522 Z21
G01 X67.619565 Y-62.456522 Z21
G01 X67.755435 Y-62.456522 Z5
G01 X99.548913 Y-62.456522 Z5
G01 X99.548913 Y-62.592391 Z5
G01 X99.548913 Y-62.728261 Z5
G01 X99.548913 Y-62.86413 Z5
G01 X99.548913 Y-63 Z5
G01 X67.619565 Y-63 Z5
G01 X67.483696 Y-63 Z21
G01 X31.070652 Y-63 Z21
G01 X30.934783 Y-63 Z5
G01 X0.36413 Y-63 Z5
G01 X0.36413 Y-63.13587 Z5
G01 X0.36413 Y-63.271739 Z5
G01 X0.36413 Y-63.407609 Z5
G01 X0.36413 Y-63.543478 Z5
G01 X31.478261 Y-63.543478 Z5
G01 X31.61413 Y-63.543478 Z21
G01 X67.347826 Y-63.543478 Z21
G01 X67.483696 Y-63.543478 Z5
G01 X99.548913 Y-63.543478 Z5
G01 X99.548913 Y-63.679348 Z5
G01 X99.548913 Y-63.815217 Z5
G01 X99.548913 Y-63.951087 Z5
G01 X99.548913 Y-64.086957 Z5
G01 X67.347826 Y-64.086957 Z5
G01 X67.211957 Y-64.086957 Z21
G01 X31.75 Y-64.086957 Z21
G01 X31.61413 Y-64.086957 Z5
G01 X0.36413 Y-64.086957 Z5
G01 X0.36413 Y-64.222826 Z5
G01 X0.36413 Y-64.358696 Z5
G01 X0.36413 Y-64.494565 Z5
G01 X0.36413 Y-64.630435 Z5
G01 X31.75 Y-64.630435 Z5
G01 X31.88587 Y-64.630435 Z21
G01 X67.076087 Y-64.630435 Z21
G01 X67.211957 Y-64.630435 Z5
G01 X99.548913 Y-64.630435 Z5
G01 X99.548913 Y-64.766304 Z5
G01 X99.548913 Y-64.902174 Z5
G01 X99.548913 Y-65.038043 Z5
G01 X99.548913 Y-65.173913 Z5
G01 X67.076087 Y-65.173913 Z5
G01 X66.940217 Y-65.173913 Z21
G01 X32.021739 Y-65.173913 Z21
G01 X31.88587 Y-65.173913 Z5
G01 X0.36413 Y-65.173913 Z5
G01 X0.36413 Y-65.309783 Z5
G01 X0.36413 Y-65.445652 Z5
G01 X0.36413 Y-65.581522 Z5
G01 X0.36413 Y-65.717391 Z5
G01 X32.157609 Y-65.717391 Z5
G01 X32.293478 Y-65.717391 Z21
G01 X40.717391 Y-65.717391 Z21
G01 X40.853261 Y-65.717391 Z5
G01 X42.891304 Y-65.717391 Z5
G01 X43.027174 Y-65.717391 Z21
G01 X55.798913 Y-65.717391 Z21
G01 X55.934783 Y-65.717391 Z5
G01 X58.108696 Y-65.717391 Z5
G01 X58.244565 Y-65.717391 Z21
G01 X66.668478 Y-65.717391 Z21
G01 X66.804348 Y-65.717391 Z5
G01 X99.548913 Y-65.717391 Z5
G01 X99.548913 Y-65.853261 Z5
G01 X99.548913 Y-65.98913 Z5
G01 X99.548913 Y-66.125 Z5
G01 X99.548913 Y-66.26087 Z5
G01 X66.668478 Y-66.26087 Z5
G01 X66.532609 Y-66.26087 Z21
G01 X58.516304 Y-66.26087 Z21
G01 X58.380435 Y-66.26087 Z5
G01 X40.445652 Y-66.26087 Z5
G01 X40.309783 Y-66.26087 Z21
G01 X32.429348 Y-66.26087 Z21
G01 X32.293478 Y-66.26087 Z5
G01 X0.36413 Y-66.26087 Z5
G01 X0.36413 Y-66.396739 Z5
G01 X0.36413 Y-66.532609 Z5
G01 X0.36413 Y-66.668478 Z5
G01 X0.36413 Y-66.804348 Z5
G01 X32.429348 Y-66.804348 Z5
G01 X32.565217 Y-66.804348 Z21
G01 X40.173913 Y-66.804348 Z21
G01 X40.309783 Y-66.804348 Z5
G01 X58.788043 Y-66.804348 Z5
G01 X58.923913 Y-66.804348 Z21
G01 X66.396739 Y-66.804348 Z21
G01 X66.532609 Y-66.804348 Z5
G01 X99.548913 Y-66.804348 Z5
G01 X99.548913 Y-66.940217 Z5
G01 X99.548913 Y-67.076087 Z5
G01 X99.548913 Y-67.211957 Z5
G01 X99.548913 Y-67.347826 Z5
G01 X66.26087 Y-67.347826 Z5
G01 X66.125 Y-67.347826 Z21
G01 X59.195652 Y-67.347826 Z21
G01 X59.059783 Y-67.347826 Z5
G01 X39.902174 Y-67.347826 Z5
G01 X39.766304 Y-67.347826 Z21
G01 X32.836957 Y-67.347826 Z21
G01 X32.701087 Y-67.347826 Z5
G01 X0.36413 Y-67.347826 Z5
G01 X0.36413 Y-67.483696 Z5
