(www.thuijzer.nl/image2gcode)
(2017-04-16 21:00:11)
(bit size: 1mm)
(x size: 100mm)
(max z: 40mm)

G21 (Programming in millimeters)
G90 (Absolute programming)
G92 X0 Y0 Z41 (Tell the machine it is at 0, 0, 41)
G00 X0 Y-0.5 Z40 (Starting position)

F1000

G01 X0.754453 Y-0.5 Z0
G01 X99.736641 Y-0.5 Z0
G01 X99.736641 Y-0.754453 Z0
G01 X99.736641 Y-1.008906 Z0
G01 X0.245547 Y-1.008906 Z0
G01 X0.245547 Y-1.263359 Z0
G01 X0.245547 Y-1.517812 Z0
G01 X99.736641 Y-1.517812 Z0
G01 X99.736641 Y-1.772265 Z0
G01 X99.736641 Y-2.026718 Z0
G01 X0.245547 Y-2.026718 Z0
G01 X0.245547 Y-2.28117 Z0
G01 X0.245547 Y-2.535623 Z0
G01 X99.736641 Y-2.535623 Z0
G01 X99.736641 Y-2.790076 Z0
G01 X99.736641 Y-3.044529 Z0
G01 X0.245547 Y-3.044529 Z0
G01 X0.245547 Y-3.298982 Z0
G01 X0.245547 Y-3.553435 Z0
G01 X99.736641 Y-3.553435 Z0
G01 X99.736641 Y-3.807888 Z0
G01 X99.736641 Y-4.062341 Z0
G01 X0.245547 Y-4.062341 Z0
G01 X0.245547 Y-4.316794 Z0
G01 X0.245547 Y-4.571247 Z0
G01 X99.736641 Y-4.571247 Z0
G01 X99.736641 Y-4.8257 Z0
G01 X99.736641 Y-5.080153 Z0
G01 X0.245547 Y-5.080153 Z0
G01 X0.245547 Y-5.334606 Z0
G01 X0.245547 Y-5.589059 Z0
G01 X99.736641 Y-5.589059 Z0
G01 X99.736641 Y-5.843511 Z0
G01 X99.736641 Y-6.097964 Z0
G01 X54.189567 Y-6.097964 Z0
G01 X53.935115 Y-6.097964 Z1.882353
G01 X53.680662 Y-6.097964 Z11.921569
G01 X53.171756 Y-6.097964 Z11.921569
G01 X52.917303 Y-6.097964 Z12.078431
G01 X52.408397 Y-6.097964 Z12.078431
G01 X52.153944 Y-6.097964 Z24.156863
G01 X51.899491 Y-6.097964 Z24.627451
G01 X51.645038 Y-6.097964 Z24.627451
G01 X51.390585 Y-6.097964 Z24.784314
G01 X51.136132 Y-6.097964 Z24.784314
G01 X50.881679 Y-6.097964 Z24.941176
G01 X50.627226 Y-6.097964 Z24.941176
G01 X50.372774 Y-6.097964 Z25.098039
G01 X50.118321 Y-6.097964 Z25.098039
G01 X49.863868 Y-6.097964 Z25.254902
G01 X49.100509 Y-6.097964 Z25.254902
G01 X48.846056 Y-6.097964 Z25.098039
G01 X48.591603 Y-6.097964 Z25.098039
G01 X48.33715 Y-6.097964 Z24.941176
G01 X47.828244 Y-6.097964 Z24.941176
G01 X47.573791 Y-6.097964 Z24.784314
G01 X47.319338 Y-6.097964 Z24.627451
G01 X46.810433 Y-6.097964 Z24.627451
G01 X46.55598 Y-6.097964 Z24.470588
G01 X46.301527 Y-6.097964 Z12.078431
G01 X46.047074 Y-6.097964 Z11.921569
G01 X45.029262 Y-6.097964 Z11.921569
G01 X44.774809 Y-6.097964 Z3.137255
G01 X44.520356 Y-6.097964 Z0
G01 X0.245547 Y-6.097964 Z0
G01 X0.245547 Y-6.352417 Z0
G01 X0.245547 Y-6.60687 Z0
G01 X39.685751 Y-6.60687 Z0
G01 X39.940204 Y-6.60687 Z0.156863
G01 X41.212468 Y-6.60687 Z0.156863
G01 X41.466921 Y-6.60687 Z21.647059
G01 X41.721374 Y-6.60687 Z24.470588
G01 X42.23028 Y-6.60687 Z24.470588
G01 X42.484733 Y-6.60687 Z24.627451
G01 X42.993639 Y-6.60687 Z24.627451
G01 X43.248092 Y-6.60687 Z24.784314
G01 X43.502545 Y-6.60687 Z24.784314
G01 X43.756997 Y-6.60687 Z24.941176
G01 X44.01145 Y-6.60687 Z25.098039
G01 X44.265903 Y-6.60687 Z25.098039
G01 X44.520356 Y-6.60687 Z25.254902
G01 X44.774809 Y-6.60687 Z25.254902
G01 X45.029262 Y-6.60687 Z25.411765
G01 X45.283715 Y-6.60687 Z25.411765
G01 X45.538168 Y-6.60687 Z25.568627
G01 X45.792621 Y-6.60687 Z25.568627
G01 X46.047074 Y-6.60687 Z25.72549
G01 X46.301527 Y-6.60687 Z25.882353
G01 X46.55598 Y-6.60687 Z25.882353
G01 X46.810433 Y-6.60687 Z26.039216
G01 X47.064885 Y-6.60687 Z26.039216
G01 X47.319338 Y-6.60687 Z26.196078
G01 X47.573791 Y-6.60687 Z26.196078
G01 X47.828244 Y-6.60687 Z26.352941
G01 X48.082697 Y-6.60687 Z26.509804
G01 X48.33715 Y-6.60687 Z26.509804
G01 X48.591603 Y-6.60687 Z26.666667
G01 X50.118321 Y-6.60687 Z26.666667
G01 X50.372774 Y-6.60687 Z26.509804
G01 X50.627226 Y-6.60687 Z26.509804
G01 X50.881679 Y-6.60687 Z26.352941
G01 X51.136132 Y-6.60687 Z26.352941
G01 X51.390585 Y-6.60687 Z26.196078
G01 X51.645038 Y-6.60687 Z26.196078
G01 X51.899491 Y-6.60687 Z26.039216
G01 X52.153944 Y-6.60687 Z26.039216
G01 X52.408397 Y-6.60687 Z25.882353
G01 X52.66285 Y-6.60687 Z25.72549
G01 X52.917303 Y-6.60687 Z25.72549
G01 X53.171756 Y-6.60687 Z25.568627
G01 X53.426209 Y-6.60687 Z25.568627
G01 X53.680662 Y-6.60687 Z25.411765
G01 X53.935115 Y-6.60687 Z25.254902
G01 X54.44402 Y-6.60687 Z25.254902
G01 X54.698473 Y-6.60687 Z25.098039
G01 X54.952926 Y-6.60687 Z24.941176
G01 X55.207379 Y-6.60687 Z24.941176
G01 X55.461832 Y-6.60687 Z24.784314
G01 X55.716285 Y-6.60687 Z24.627451
G01 X56.479644 Y-6.60687 Z24.627451
G01 X56.734097 Y-6.60687 Z24.470588
G01 X56.98855 Y-6.60687 Z24.470588
G01 X57.243003 Y-6.60687 Z18.823529
G01 X57.497455 Y-6.60687 Z0.156863
G01 X58.76972 Y-6.60687 Z0.156863
G01 X59.024173 Y-6.60687 Z0
G01 X99.736641 Y-6.60687 Z0
G01 X99.736641 Y-6.861323 Z0
G01 X99.736641 Y-7.115776 Z0
G01 X62.586514 Y-7.115776 Z0
G01 X62.332061 Y-7.115776 Z7.529412
G01 X62.077608 Y-7.115776 Z12.862745
G01 X61.823155 Y-7.115776 Z12.862745
G01 X61.568702 Y-7.115776 Z13.019608
G01 X60.805344 Y-7.115776 Z13.019608
G01 X60.550891 Y-7.115776 Z17.72549
G01 X60.296438 Y-7.115776 Z24.784314
G01 X60.041985 Y-7.115776 Z24.784314
G01 X59.787532 Y-7.115776 Z24.941176
G01 X59.278626 Y-7.115776 Z24.941176
G01 X59.024173 Y-7.115776 Z25.098039
G01 X58.76972 Y-7.115776 Z25.098039
G01 X58.515267 Y-7.115776 Z25.254902
G01 X58.260814 Y-7.115776 Z25.411765
G01 X58.006361 Y-7.115776 Z25.411765
G01 X57.751908 Y-7.115776 Z25.568627
G01 X57.497455 Y-7.115776 Z25.568627
G01 X57.243003 Y-7.115776 Z25.72549
G01 X56.98855 Y-7.115776 Z25.72549
G01 X56.734097 Y-7.115776 Z25.882353
G01 X56.479644 Y-7.115776 Z26.039216
G01 X56.225191 Y-7.115776 Z26.039216
G01 X55.970738 Y-7.115776 Z26.196078
G01 X55.716285 Y-7.115776 Z26.196078
G01 X55.461832 Y-7.115776 Z26.352941
G01 X55.207379 Y-7.115776 Z26.352941
G01 X54.952926 Y-7.115776 Z26.509804
G01 X54.698473 Y-7.115776 Z26.509804
G01 X54.44402 Y-7.115776 Z26.666667
G01 X54.189567 Y-7.115776 Z26.823529
G01 X53.935115 Y-7.115776 Z26.823529
G01 X53.680662 Y-7.115776 Z26.980392
G01 X53.426209 Y-7.115776 Z26.980392
G01 X53.171756 Y-7.115776 Z27.137255
G01 X52.917303 Y-7.115776 Z27.137255
G01 X52.66285 Y-7.115776 Z27.294118
G01 X52.408397 Y-7.115776 Z27.294118
G01 X52.153944 Y-7.115776 Z27.45098
G01 X51.899491 Y-7.115776 Z27.45098
G01 X51.645038 Y-7.115776 Z27.607843
G01 X51.390585 Y-7.115776 Z27.607843
G01 X51.136132 Y-7.115776 Z27.764706
G01 X50.881679 Y-7.115776 Z27.764706
G01 X50.627226 Y-7.115776 Z27.921569
G01 X50.372774 Y-7.115776 Z27.921569
G01 X50.118321 Y-7.115776 Z28.078431
G01 X48.591603 Y-7.115776 Z28.078431
G01 X48.33715 Y-7.115776 Z27.921569
G01 X48.082697 Y-7.115776 Z27.764706
G01 X47.573791 Y-7.115776 Z27.764706
G01 X47.319338 Y-7.115776 Z27.607843
G01 X47.064885 Y-7.115776 Z27.45098
G01 X46.55598 Y-7.115776 Z27.45098
G01 X46.301527 Y-7.115776 Z27.294118
G01 X46.047074 Y-7.115776 Z27.137255
G01 X45.792621 Y-7.115776 Z27.137255
G01 X45.538168 Y-7.115776 Z26.980392
G01 X45.283715 Y-7.115776 Z26.980392
G01 X45.029262 Y-7.115776 Z26.823529
G01 X44.774809 Y-7.115776 Z26.823529
G01 X44.520356 Y-7.115776 Z26.666667
G01 X44.265903 Y-7.115776 Z26.666667
G01 X44.01145 Y-7.115776 Z26.509804
G01 X43.756997 Y-7.115776 Z26.509804
G01 X43.502545 Y-7.115776 Z26.352941
G01 X43.248092 Y-7.115776 Z26.196078
G01 X42.993639 Y-7.115776 Z26.196078
G01 X42.739186 Y-7.115776 Z26.039216
G01 X42.484733 Y-7.115776 Z26.039216
G01 X42.23028 Y-7.115776 Z25.882353
G01 X41.975827 Y-7.115776 Z25.882353
G01 X41.721374 Y-7.115776 Z25.72549
G01 X41.466921 Y-7.115776 Z25.72549
G01 X41.212468 Y-7.115776 Z25.568627
G01 X40.958015 Y-7.115776 Z25.411765
G01 X40.703562 Y-7.115776 Z25.411765
G01 X40.449109 Y-7.115776 Z25.254902
G01 X40.194656 Y-7.115776 Z25.254902
G01 X39.940204 Y-7.115776 Z25.098039
G01 X39.685751 Y-7.115776 Z24.941176
G01 X38.922392 Y-7.115776 Z24.941176
G01 X38.667939 Y-7.115776 Z24.784314
G01 X38.413486 Y-7.115776 Z24.627451
G01 X38.159033 Y-7.115776 Z18.980392
G01 X37.90458 Y-7.115776 Z13.019608
G01 X37.141221 Y-7.115776 Z13.019608
G01 X36.886768 Y-7.115776 Z12.862745
G01 X36.632316 Y-7.115776 Z12.235294
G01 X36.377863 Y-7.115776 Z0
G01 X0.245547 Y-7.115776 Z0
G01 X0.245547 Y-7.370229 Z0
G01 X0.245547 Y-7.624682 Z0
G01 X33.57888 Y-7.624682 Z0
G01 X33.833333 Y-7.624682 Z0.156863
G01 X34.087786 Y-7.624682 Z9.411765
G01 X34.342239 Y-7.624682 Z24.627451
G01 X34.851145 Y-7.624682 Z24.627451
G01 X35.105598 Y-7.624682 Z24.784314
G01 X35.360051 Y-7.624682 Z24.941176
G01 X35.614504 Y-7.624682 Z24.941176
G01 X35.868957 Y-7.624682 Z25.098039
G01 X36.12341 Y-7.624682 Z25.254902
G01 X36.377863 Y-7.624682 Z25.411765
G01 X36.632316 Y-7.624682 Z25.411765
G01 X36.886768 Y-7.624682 Z25.568627
G01 X37.141221 Y-7.624682 Z25.72549
G01 X37.395674 Y-7.624682 Z25.72549
G01 X37.650127 Y-7.624682 Z25.882353
G01 X37.90458 Y-7.624682 Z25.882353
G01 X38.159033 Y-7.624682 Z26.039216
G01 X38.413486 Y-7.624682 Z26.039216
G01 X38.667939 Y-7.624682 Z26.196078
G01 X38.922392 Y-7.624682 Z26.196078
G01 X39.176845 Y-7.624682 Z26.352941
G01 X39.431298 Y-7.624682 Z26.509804
G01 X39.685751 Y-7.624682 Z26.509804
G01 X39.940204 Y-7.624682 Z26.666667
G01 X40.194656 Y-7.624682 Z26.666667
G01 X40.449109 Y-7.624682 Z26.823529
G01 X40.703562 Y-7.624682 Z26.823529
G01 X40.958015 Y-7.624682 Z26.980392
G01 X41.212468 Y-7.624682 Z26.980392
G01 X41.466921 Y-7.624682 Z27.137255
G01 X41.721374 Y-7.624682 Z27.137255
G01 X41.975827 Y-7.624682 Z27.294118
G01 X42.23028 Y-7.624682 Z27.45098
G01 X42.739186 Y-7.624682 Z27.45098
G01 X42.993639 Y-7.624682 Z27.607843
G01 X43.248092 Y-7.624682 Z27.764706
G01 X43.756997 Y-7.624682 Z27.764706
G01 X44.01145 Y-7.624682 Z27.921569
G01 X44.265903 Y-7.624682 Z28.078431
G01 X44.774809 Y-7.624682 Z28.078431
G01 X45.029262 Y-7.624682 Z28.235294
G01 X45.283715 Y-7.624682 Z28.392157
G01 X45.792621 Y-7.624682 Z28.392157
G01 X46.047074 Y-7.624682 Z28.54902
G01 X46.301527 Y-7.624682 Z28.705882
G01 X46.55598 Y-7.624682 Z28.705882
G01 X46.810433 Y-7.624682 Z28.862745
G01 X47.064885 Y-7.624682 Z28.862745
G01 X47.319338 Y-7.624682 Z29.019608
G01 X47.573791 Y-7.624682 Z29.019608
G01 X47.828244 Y-7.624682 Z29.176471
G01 X48.33715 Y-7.624682 Z29.176471
G01 X48.591603 Y-7.624682 Z29.333333
G01 X48.846056 Y-7.624682 Z29.490196
G01 X49.863868 Y-7.624682 Z29.490196
G01 X50.118321 Y-7.624682 Z29.333333
G01 X50.372774 Y-7.624682 Z29.333333
G01 X50.627226 Y-7.624682 Z29.176471
G01 X50.881679 Y-7.624682 Z29.176471
G01 X51.136132 Y-7.624682 Z29.019608
G01 X51.645038 Y-7.624682 Z29.019608
G01 X51.899491 Y-7.624682 Z28.862745
G01 X52.153944 Y-7.624682 Z28.705882
G01 X52.66285 Y-7.624682 Z28.705882
G01 X52.917303 Y-7.624682 Z28.54902
G01 X53.171756 Y-7.624682 Z28.392157
G01 X53.680662 Y-7.624682 Z28.392157
G01 X53.935115 Y-7.624682 Z28.235294
G01 X54.189567 Y-7.624682 Z28.078431
G01 X54.698473 Y-7.624682 Z28.078431
G01 X54.952926 Y-7.624682 Z27.921569
G01 X55.207379 Y-7.624682 Z27.764706
G01 X55.716285 Y-7.624682 Z27.764706
G01 X55.970738 Y-7.624682 Z27.607843
G01 X56.225191 Y-7.624682 Z27.45098
G01 X56.479644 Y-7.624682 Z27.45098
G01 X56.734097 Y-7.624682 Z27.294118
G01 X56.98855 Y-7.624682 Z27.294118
G01 X57.243003 Y-7.624682 Z27.137255
G01 X57.497455 Y-7.624682 Z27.137255
G01 X57.751908 Y-7.624682 Z26.980392
G01 X58.006361 Y-7.624682 Z26.980392
G01 X58.260814 Y-7.624682 Z26.823529
G01 X58.515267 Y-7.624682 Z26.823529
G01 X58.76972 Y-7.624682 Z26.666667
G01 X59.024173 Y-7.624682 Z26.509804
G01 X59.533079 Y-7.624682 Z26.509804
G01 X59.787532 Y-7.624682 Z26.352941
G01 X60.041985 Y-7.624682 Z26.196078
G01 X60.296438 Y-7.624682 Z26.196078
G01 X60.550891 Y-7.624682 Z26.039216
G01 X60.805344 Y-7.624682 Z25.882353
G01 X61.314249 Y-7.624682 Z25.882353
G01 X61.568702 Y-7.624682 Z25.72549
G01 X61.823155 Y-7.624682 Z25.568627
G01 X62.077608 Y-7.624682 Z25.568627
G01 X62.332061 Y-7.624682 Z25.411765
G01 X62.586514 Y-7.624682 Z25.411765
G01 X62.840967 Y-7.624682 Z25.098039
G01 X63.09542 Y-7.624682 Z25.098039
G01 X63.349873 Y-7.624682 Z24.941176
G01 X63.604326 Y-7.624682 Z24.941176
G01 X63.858779 Y-7.624682 Z24.627451
G01 X64.367684 Y-7.624682 Z24.627451
G01 X64.622137 Y-7.624682 Z6.745098
G01 X64.87659 Y-7.624682 Z0
G01 X99.736641 Y-7.624682 Z0
G01 X99.736641 Y-7.879135 Z0
G01 X99.736641 Y-8.133588 Z0
G01 X65.385496 Y-8.133588 Z0
G01 X65.131043 Y-8.133588 Z10.196078
G01 X64.87659 Y-8.133588 Z24.784314
G01 X64.622137 Y-8.133588 Z25.568627
G01 X64.367684 Y-8.133588 Z26.039216
G01 X64.113232 Y-8.133588 Z26.196078
G01 X63.858779 Y-8.133588 Z26.352941
G01 X63.604326 Y-8.133588 Z26.352941
G01 X63.349873 Y-8.133588 Z26.509804
G01 X63.09542 Y-8.133588 Z26.666667
G01 X62.840967 Y-8.133588 Z26.666667
G01 X62.586514 Y-8.133588 Z26.823529
G01 X62.332061 Y-8.133588 Z26.823529
G01 X62.077608 Y-8.133588 Z26.980392
G01 X61.823155 Y-8.133588 Z26.980392
G01 X61.568702 Y-8.133588 Z27.137255
G01 X61.314249 Y-8.133588 Z27.294118
G01 X61.059796 Y-8.133588 Z27.294118
G01 X60.805344 Y-8.133588 Z27.45098
G01 X60.550891 Y-8.133588 Z27.45098
G01 X60.296438 Y-8.133588 Z27.607843
G01 X60.041985 Y-8.133588 Z27.607843
G01 X59.787532 Y-8.133588 Z27.764706
G01 X59.533079 Y-8.133588 Z27.764706
G01 X59.278626 Y-8.133588 Z27.921569
G01 X59.024173 Y-8.133588 Z28.078431
G01 X58.260814 Y-8.133588 Z28.078431
G01 X58.006361 Y-8.133588 Z28.235294
G01 X57.751908 Y-8.133588 Z28.392157
G01 X57.497455 Y-8.133588 Z28.392157
G01 X57.243003 Y-8.133588 Z28.54902
G01 X56.98855 Y-8.133588 Z28.54902
G01 X56.734097 Y-8.133588 Z28.705882
G01 X56.479644 Y-8.133588 Z28.862745
G01 X55.716285 Y-8.133588 Z28.862745
G01 X55.461832 Y-8.133588 Z29.019608
G01 X55.207379 Y-8.133588 Z29.019608
G01 X54.952926 Y-8.133588 Z29.176471
G01 X54.698473 Y-8.133588 Z29.176471
G01 X54.44402 Y-8.133588 Z29.333333
G01 X54.189567 Y-8.133588 Z29.490196
G01 X53.935115 Y-8.133588 Z29.490196
G01 X53.680662 Y-8.133588 Z29.647059
G01 X53.426209 Y-8.133588 Z29.647059
G01 X53.171756 Y-8.133588 Z29.803922
G01 X52.917303 Y-8.133588 Z29.803922
G01 X52.66285 Y-8.133588 Z29.960784
G01 X52.408397 Y-8.133588 Z29.960784
G01 X52.153944 Y-8.133588 Z30.117647
G01 X51.899491 Y-8.133588 Z30.117647
G01 X51.645038 Y-8.133588 Z30.27451
G01 X51.390585 Y-8.133588 Z30.27451
G01 X51.136132 Y-8.133588 Z30.431373
G01 X50.627226 Y-8.133588 Z30.431373
G01 X50.372774 Y-8.133588 Z30.588235
G01 X50.118321 Y-8.133588 Z30.745098
G01 X48.846056 Y-8.133588 Z30.745098
G01 X48.591603 Y-8.133588 Z30.588235
G01 X48.33715 Y-8.133588 Z30.588235
G01 X48.082697 Y-8.133588 Z30.431373
G01 X47.828244 Y-8.133588 Z30.431373
G01 X47.573791 Y-8.133588 Z30.27451
G01 X47.319338 Y-8.133588 Z30.27451
G01 X47.064885 Y-8.133588 Z30.117647
G01 X46.55598 Y-8.133588 Z30.117647
G01 X46.301527 Y-8.133588 Z29.960784
G01 X46.047074 Y-8.133588 Z29.960784
G01 X45.792621 Y-8.133588 Z29.803922
G01 X45.538168 Y-8.133588 Z29.803922
G01 X45.283715 Y-8.133588 Z29.647059
G01 X45.029262 Y-8.133588 Z29.490196
G01 X44.774809 Y-8.133588 Z29.490196
G01 X44.520356 Y-8.133588 Z29.333333
G01 X44.265903 Y-8.133588 Z29.333333
G01 X44.01145 Y-8.133588 Z29.176471
G01 X43.756997 Y-8.133588 Z29.176471
G01 X43.502545 Y-8.133588 Z29.019608
G01 X43.248092 Y-8.133588 Z28.862745
G01 X42.484733 Y-8.133588 Z28.862745
G01 X42.23028 Y-8.133588 Z28.705882
G01 X41.975827 Y-8.133588 Z28.54902
G01 X41.721374 Y-8.133588 Z28.54902
G01 X41.466921 Y-8.133588 Z28.392157
G01 X41.212468 Y-8.133588 Z28.392157
G01 X40.958015 Y-8.133588 Z28.235294
G01 X40.703562 Y-8.133588 Z28.078431
G01 X40.194656 Y-8.133588 Z28.078431
G01 X39.940204 Y-8.133588 Z27.921569
G01 X39.431298 Y-8.133588 Z27.921569
G01 X39.176845 Y-8.133588 Z27.764706
G01 X38.922392 Y-8.133588 Z27.607843
G01 X38.667939 Y-8.133588 Z27.607843
G01 X38.413486 Y-8.133588 Z27.45098
G01 X38.159033 Y-8.133588 Z27.45098
G01 X37.90458 Y-8.133588 Z27.294118
G01 X37.650127 Y-8.133588 Z27.294118
G01 X37.395674 Y-8.133588 Z27.137255
G01 X37.141221 Y-8.133588 Z26.980392
G01 X36.886768 Y-8.133588 Z26.980392
G01 X36.632316 Y-8.133588 Z26.823529
G01 X36.377863 Y-8.133588 Z26.823529
G01 X36.12341 Y-8.133588 Z26.666667
G01 X35.868957 Y-8.133588 Z26.666667
G01 X35.614504 Y-8.133588 Z26.509804
G01 X35.360051 Y-8.133588 Z26.509804
G01 X35.105598 Y-8.133588 Z26.352941
G01 X34.851145 Y-8.133588 Z26.196078
G01 X34.596692 Y-8.133588 Z26.196078
G01 X34.342239 Y-8.133588 Z25.882353
G01 X34.087786 Y-8.133588 Z25.098039
G01 X33.833333 Y-8.133588 Z24.470588
G01 X33.57888 Y-8.133588 Z11.607843
G01 X33.324427 Y-8.133588 Z0
G01 X0.245547 Y-8.133588 Z0
G01 X0.245547 Y-8.388041 Z0
G01 X0.245547 Y-8.642494 Z0
G01 X32.561069 Y-8.642494 Z0
G01 X32.815522 Y-8.642494 Z0.156863
G01 X33.069975 Y-8.642494 Z9.098039
G01 X33.324427 Y-8.642494 Z24.470588
G01 X33.57888 Y-8.642494 Z24.784314
G01 X33.833333 Y-8.642494 Z25.882353
G01 X34.087786 Y-8.642494 Z26.509804
G01 X34.342239 Y-8.642494 Z27.137255
G01 X34.596692 Y-8.642494 Z27.45098
G01 X34.851145 Y-8.642494 Z27.45098
G01 X35.105598 Y-8.642494 Z27.607843
G01 X35.360051 Y-8.642494 Z27.764706
G01 X35.614504 Y-8.642494 Z27.764706
G01 X35.868957 Y-8.642494 Z27.921569
G01 X36.12341 Y-8.642494 Z27.921569
G01 X36.377863 Y-8.642494 Z28.078431
G01 X36.632316 Y-8.642494 Z28.078431
G01 X36.886768 Y-8.642494 Z28.235294
G01 X37.141221 Y-8.642494 Z28.392157
G01 X37.650127 Y-8.642494 Z28.392157
G01 X37.90458 Y-8.642494 Z28.54902
G01 X38.159033 Y-8.642494 Z28.705882
G01 X38.667939 Y-8.642494 Z28.705882
G01 X38.922392 Y-8.642494 Z28.862745
G01 X39.176845 Y-8.642494 Z29.019608
G01 X39.685751 Y-8.642494 Z29.019608
G01 X39.940204 Y-8.642494 Z29.176471
G01 X40.194656 Y-8.642494 Z29.333333
G01 X40.703562 Y-8.642494 Z29.333333
G01 X40.958015 Y-8.642494 Z29.490196
G01 X41.212468 Y-8.642494 Z29.647059
G01 X41.721374 Y-8.642494 Z29.647059
G01 X41.975827 Y-8.642494 Z29.803922
G01 X42.23028 Y-8.642494 Z29.960784
G01 X42.739186 Y-8.642494 Z29.960784
G01 X42.993639 Y-8.642494 Z30.117647
G01 X43.248092 Y-8.642494 Z30.27451
G01 X43.756997 Y-8.642494 Z30.27451
G01 X44.01145 Y-8.642494 Z30.431373
G01 X44.265903 Y-8.642494 Z30.431373
G01 X44.520356 Y-8.642494 Z30.588235
G01 X44.774809 Y-8.642494 Z30.588235
G01 X45.029262 Y-8.642494 Z30.745098
G01 X45.283715 Y-8.642494 Z30.745098
G01 X45.538168 Y-8.642494 Z30.901961
G01 X45.792621 Y-8.642494 Z30.901961
G01 X46.047074 Y-8.642494 Z31.058824
G01 X46.301527 Y-8.642494 Z31.058824
G01 X46.55598 Y-8.642494 Z31.215686
G01 X46.810433 Y-8.642494 Z31.215686
G01 X47.064885 Y-8.642494 Z31.372549
G01 X47.573791 Y-8.642494 Z31.372549
G01 X47.828244 Y-8.642494 Z31.529412
G01 X48.33715 Y-8.642494 Z31.529412
G01 X48.591603 Y-8.642494 Z31.686275
G01 X50.372774 Y-8.642494 Z31.686275
G01 X50.627226 Y-8.642494 Z31.529412
G01 X51.136132 Y-8.642494 Z31.529412
G01 X51.390585 Y-8.642494 Z31.372549
G01 X51.645038 Y-8.642494 Z31.372549
G01 X51.899491 Y-8.642494 Z31.215686
G01 X52.408397 Y-8.642494 Z31.215686
G01 X52.66285 Y-8.642494 Z31.058824
G01 X52.917303 Y-8.642494 Z30.901961
G01 X53.426209 Y-8.642494 Z30.901961
G01 X53.680662 Y-8.642494 Z30.745098
G01 X53.935115 Y-8.642494 Z30.745098
G01 X54.189567 Y-8.642494 Z30.588235
G01 X54.44402 Y-8.642494 Z30.588235
G01 X54.698473 Y-8.642494 Z30.431373
G01 X54.952926 Y-8.642494 Z30.431373
G01 X55.207379 Y-8.642494 Z30.27451
G01 X55.716285 Y-8.642494 Z30.27451
G01 X55.970738 Y-8.642494 Z30.117647
G01 X56.225191 Y-8.642494 Z29.960784
G01 X56.734097 Y-8.642494 Z29.960784
G01 X56.98855 Y-8.642494 Z29.803922
G01 X57.243003 Y-8.642494 Z29.647059
G01 X57.751908 Y-8.642494 Z29.647059
G01 X58.006361 Y-8.642494 Z29.490196
G01 X58.260814 Y-8.642494 Z29.333333
G01 X58.515267 Y-8.642494 Z29.333333
G01 X58.76972 Y-8.642494 Z29.176471
G01 X59.024173 Y-8.642494 Z29.176471
G01 X59.278626 Y-8.642494 Z29.019608
G01 X59.533079 Y-8.642494 Z29.019608
G01 X59.787532 Y-8.642494 Z28.862745
G01 X60.041985 Y-8.642494 Z28.862745
G01 X60.296438 Y-8.642494 Z28.705882
G01 X60.550891 Y-8.642494 Z28.705882
G01 X60.805344 Y-8.642494 Z28.54902
G01 X61.059796 Y-8.642494 Z28.54902
G01 X61.314249 Y-8.642494 Z28.392157
G01 X61.568702 Y-8.642494 Z28.392157
G01 X61.823155 Y-8.642494 Z28.235294
G01 X62.077608 Y-8.642494 Z28.235294
G01 X62.332061 Y-8.642494 Z28.078431
G01 X62.586514 Y-8.642494 Z28.078431
G01 X62.840967 Y-8.642494 Z27.921569
G01 X63.09542 Y-8.642494 Z27.764706
G01 X63.604326 Y-8.642494 Z27.764706
G01 X63.858779 Y-8.642494 Z27.607843
G01 X64.113232 Y-8.642494 Z27.45098
G01 X64.367684 Y-8.642494 Z27.45098
G01 X64.622137 Y-8.642494 Z26.980392
G01 X64.87659 Y-8.642494 Z26.196078
G01 X65.131043 Y-8.642494 Z25.568627
G01 X65.385496 Y-8.642494 Z24.627451
G01 X65.639949 Y-8.642494 Z24
G01 X65.894402 Y-8.642494 Z2.039216
G01 X66.148855 Y-8.642494 Z0
G01 X99.736641 Y-8.642494 Z0
G01 X99.736641 Y-8.896947 Z0
G01 X99.736641 Y-9.151399 Z0
G01 X66.657761 Y-9.151399 Z0
G01 X66.403308 Y-9.151399 Z5.960784
G01 X66.148855 Y-9.151399 Z20.862745
G01 X65.894402 Y-9.151399 Z24.784314
G01 X65.639949 Y-9.151399 Z25.568627
G01 X65.385496 Y-9.151399 Z26.196078
G01 X65.131043 Y-9.151399 Z26.980392
G01 X64.87659 Y-9.151399 Z27.607843
G01 X64.622137 Y-9.151399 Z28.235294
G01 X64.367684 Y-9.151399 Z28.705882
G01 X64.113232 Y-9.151399 Z28.862745
G01 X63.858779 Y-9.151399 Z28.862745
G01 X63.604326 Y-9.151399 Z29.019608
G01 X63.349873 Y-9.151399 Z29.019608
G01 X63.09542 Y-9.151399 Z29.176471
G01 X62.840967 Y-9.151399 Z29.176471
G01 X62.586514 Y-9.151399 Z29.333333
G01 X62.332061 Y-9.151399 Z29.333333
G01 X62.077608 Y-9.151399 Z29.490196
G01 X61.823155 Y-9.151399 Z29.490196
G01 X61.568702 Y-9.151399 Z29.647059
G01 X61.314249 Y-9.151399 Z29.647059
G01 X61.059796 Y-9.151399 Z29.803922
G01 X60.550891 Y-9.151399 Z29.803922
G01 X60.296438 Y-9.151399 Z29.960784
G01 X60.041985 Y-9.151399 Z30.117647
G01 X59.533079 Y-9.151399 Z30.117647
G01 X59.278626 Y-9.151399 Z30.27451
G01 X59.024173 Y-9.151399 Z30.431373
G01 X58.515267 Y-9.151399 Z30.431373
G01 X58.260814 Y-9.151399 Z30.588235
G01 X58.006361 Y-9.151399 Z30.588235
G01 X57.751908 Y-9.151399 Z30.745098
G01 X57.497455 Y-9.151399 Z30.745098
G01 X57.243003 Y-9.151399 Z30.901961
G01 X56.734097 Y-9.151399 Z30.901961
G01 X56.479644 Y-9.151399 Z31.058824
G01 X55.970738 Y-9.151399 Z31.058824
G01 X55.716285 Y-9.151399 Z31.215686
G01 X55.461832 Y-9.151399 Z31.215686
G01 X55.207379 Y-9.151399 Z31.372549
G01 X54.44402 Y-9.151399 Z31.372549
G01 X54.189567 Y-9.151399 Z31.529412
G01 X53.680662 Y-9.151399 Z31.529412
G01 X53.426209 Y-9.151399 Z31.686275
G01 X52.408397 Y-9.151399 Z31.686275
G01 X52.153944 Y-9.151399 Z31.843137
G01 X51.136132 Y-9.151399 Z31.843137
G01 X50.881679 Y-9.151399 Z32
G01 X48.591603 Y-9.151399 Z32
G01 X48.33715 Y-9.151399 Z31.843137
G01 X47.319338 Y-9.151399 Z31.843137
G01 X47.064885 Y-9.151399 Z31.686275
G01 X45.538168 Y-9.151399 Z31.686275
G01 X45.283715 Y-9.151399 Z31.529412
G01 X44.520356 Y-9.151399 Z31.529412
G01 X44.265903 Y-9.151399 Z31.372549
G01 X43.502545 Y-9.151399 Z31.372549
G01 X43.248092 Y-9.151399 Z31.215686
G01 X42.993639 Y-9.151399 Z31.058824
G01 X42.23028 Y-9.151399 Z31.058824
G01 X41.975827 Y-9.151399 Z30.901961
G01 X41.466921 Y-9.151399 Z30.901961
G01 X41.212468 Y-9.151399 Z30.745098
G01 X40.958015 Y-9.151399 Z30.588235
G01 X40.449109 Y-9.151399 Z30.588235
G01 X40.194656 Y-9.151399 Z30.431373
G01 X39.940204 Y-9.151399 Z30.431373
G01 X39.685751 Y-9.151399 Z30.27451
G01 X39.431298 Y-9.151399 Z30.27451
G01 X39.176845 Y-9.151399 Z30.117647
G01 X38.922392 Y-9.151399 Z30.117647
G01 X38.667939 Y-9.151399 Z29.960784
G01 X38.413486 Y-9.151399 Z29.960784
G01 X38.159033 Y-9.151399 Z29.803922
G01 X37.90458 Y-9.151399 Z29.803922
G01 X37.650127 Y-9.151399 Z29.647059
G01 X37.395674 Y-9.151399 Z29.647059
G01 X37.141221 Y-9.151399 Z29.490196
G01 X36.886768 Y-9.151399 Z29.490196
G01 X36.632316 Y-9.151399 Z29.333333
G01 X36.377863 Y-9.151399 Z29.333333
G01 X36.12341 Y-9.151399 Z29.176471
G01 X35.868957 Y-9.151399 Z29.176471
G01 X35.614504 Y-9.151399 Z29.019608
G01 X35.360051 Y-9.151399 Z29.019608
G01 X35.105598 Y-9.151399 Z28.862745
G01 X34.851145 Y-9.151399 Z28.862745
G01 X34.596692 Y-9.151399 Z28.705882
G01 X34.342239 Y-9.151399 Z28.392157
G01 X34.087786 Y-9.151399 Z27.921569
G01 X33.833333 Y-9.151399 Z27.137255
G01 X33.57888 Y-9.151399 Z26.509804
G01 X33.324427 Y-9.151399 Z25.72549
G01 X33.069975 Y-9.151399 Z24.941176
G01 X32.815522 Y-9.151399 Z24
G01 X32.561069 Y-9.151399 Z11.45098
G01 X32.306616 Y-9.151399 Z0
G01 X0.245547 Y-9.151399 Z0
G01 X0.245547 Y-9.405852 Z0
G01 X0.245547 Y-9.660305 Z0
G01 X31.79771 Y-9.660305 Z0
G01 X32.052163 Y-9.660305 Z8.627451
G01 X32.306616 Y-9.660305 Z24
G01 X32.561069 Y-9.660305 Z24.627451
G01 X32.815522 Y-9.660305 Z25.411765
G01 X33.069975 Y-9.660305 Z26.509804
G01 X33.324427 Y-9.660305 Z27.137255
G01 X33.57888 Y-9.660305 Z27.764706
G01 X33.833333 Y-9.660305 Z28.54902
G01 X34.087786 Y-9.660305 Z29.019608
G01 X34.342239 Y-9.660305 Z29.647059
G01 X34.596692 Y-9.660305 Z29.803922
G01 X34.851145 Y-9.660305 Z29.960784
G01 X35.105598 Y-9.660305 Z29.960784
G01 X35.360051 Y-9.660305 Z30.117647
G01 X35.614504 Y-9.660305 Z30.117647
G01 X35.868957 Y-9.660305 Z30.27451
G01 X36.12341 Y-9.660305 Z30.27451
G01 X36.377863 Y-9.660305 Z30.431373
G01 X36.632316 Y-9.660305 Z30.431373
G01 X36.886768 Y-9.660305 Z30.588235
G01 X37.141221 Y-9.660305 Z30.588235
G01 X37.395674 Y-9.660305 Z30.745098
G01 X37.90458 Y-9.660305 Z30.745098
G01 X38.159033 Y-9.660305 Z30.901961
G01 X38.922392 Y-9.660305 Z30.901961
G01 X39.176845 Y-9.660305 Z31.058824
G01 X39.431298 Y-9.660305 Z31.058824
G01 X39.685751 Y-9.660305 Z31.215686
G01 X40.958015 Y-9.660305 Z31.215686
G01 X41.212468 Y-9.660305 Z31.372549
G01 X42.484733 Y-9.660305 Z31.372549
G01 X42.739186 Y-9.660305 Z31.529412
G01 X43.756997 Y-9.660305 Z31.529412
G01 X44.01145 Y-9.660305 Z31.686275
G01 X45.538168 Y-9.660305 Z31.686275
G01 X45.792621 Y-9.660305 Z31.843137
G01 X47.064885 Y-9.660305 Z31.843137
G01 X47.319338 Y-9.660305 Z32
G01 X48.082697 Y-9.660305 Z32
G01 X48.33715 Y-9.660305 Z32.156863
G01 X51.136132 Y-9.660305 Z32.156863
G01 X51.390585 Y-9.660305 Z32
G01 X52.66285 Y-9.660305 Z32
G01 X52.917303 Y-9.660305 Z31.843137
G01 X53.935115 Y-9.660305 Z31.843137
G01 X54.189567 Y-9.660305 Z31.686275
G01 X55.461832 Y-9.660305 Z31.686275
G01 X55.716285 Y-9.660305 Z31.529412
G01 X56.734097 Y-9.660305 Z31.529412
G01 X56.98855 Y-9.660305 Z31.372549
G01 X58.006361 Y-9.660305 Z31.372549
G01 X58.260814 Y-9.660305 Z31.215686
G01 X59.278626 Y-9.660305 Z31.215686
G01 X59.533079 Y-9.660305 Z31.058824
G01 X59.787532 Y-9.660305 Z31.058824
G01 X60.041985 Y-9.660305 Z30.901961
G01 X60.805344 Y-9.660305 Z30.901961
G01 X61.059796 Y-9.660305 Z30.745098
G01 X61.568702 Y-9.660305 Z30.745098
G01 X61.823155 Y-9.660305 Z30.588235
G01 X62.077608 Y-9.660305 Z30.431373
G01 X62.586514 Y-9.660305 Z30.431373
G01 X62.840967 Y-9.660305 Z30.27451
G01 X63.09542 Y-9.660305 Z30.27451
G01 X63.349873 Y-9.660305 Z30.117647
G01 X63.604326 Y-9.660305 Z30.117647
G01 X63.858779 Y-9.660305 Z29.960784
G01 X64.113232 Y-9.660305 Z29.960784
G01 X64.367684 Y-9.660305 Z29.803922
G01 X64.622137 Y-9.660305 Z29.490196
G01 X64.87659 Y-9.660305 Z28.862745
G01 X65.131043 Y-9.660305 Z28.235294
G01 X65.385496 Y-9.660305 Z27.607843
G01 X65.639949 Y-9.660305 Z26.823529
G01 X65.894402 Y-9.660305 Z26.196078
G01 X66.148855 Y-9.660305 Z25.411765
G01 X66.403308 Y-9.660305 Z24.470588
G01 X66.657761 Y-9.660305 Z23.686275
G01 X66.912214 Y-9.660305 Z2.666667
G01 X67.166667 Y-9.660305 Z0
G01 X99.736641 Y-9.660305 Z0
G01 X99.736641 Y-9.914758 Z0
G01 X99.736641 Y-10.169211 Z0
G01 X67.675573 Y-10.169211 Z0
G01 X67.42112 Y-10.169211 Z5.803922
G01 X67.166667 Y-10.169211 Z20.54902
G01 X66.912214 Y-10.169211 Z24.313725
G01 X66.657761 Y-10.169211 Z25.411765
G01 X66.403308 Y-10.169211 Z26.039216
G01 X66.148855 Y-10.169211 Z26.823529
G01 X65.894402 Y-10.169211 Z27.45098
G01 X65.639949 Y-10.169211 Z28.235294
G01 X65.385496 Y-10.169211 Z28.705882
G01 X65.131043 Y-10.169211 Z29.333333
G01 X64.87659 Y-10.169211 Z29.960784
G01 X64.622137 Y-10.169211 Z30.588235
G01 X64.367684 Y-10.169211 Z30.745098
G01 X64.113232 Y-10.169211 Z30.901961
G01 X63.349873 Y-10.169211 Z30.901961
G01 X63.09542 Y-10.169211 Z31.058824
G01 X62.332061 Y-10.169211 Z31.058824
G01 X62.077608 Y-10.169211 Z31.215686
G01 X60.805344 Y-10.169211 Z31.215686
G01 X60.550891 Y-10.169211 Z31.372549
G01 X59.278626 Y-10.169211 Z31.372549
G01 X59.024173 Y-10.169211 Z31.529412
G01 X58.006361 Y-10.169211 Z31.529412
G01 X57.751908 Y-10.169211 Z31.686275
G01 X56.479644 Y-10.169211 Z31.686275
G01 X56.225191 Y-10.169211 Z31.843137
G01 X55.207379 Y-10.169211 Z31.843137
G01 X54.952926 Y-10.169211 Z32
G01 X53.680662 Y-10.169211 Z32
G01 X53.426209 Y-10.169211 Z32.156863
G01 X52.408397 Y-10.169211 Z32.156863
G01 X52.153944 Y-10.169211 Z32.313725
G01 X50.881679 Y-10.169211 Z32.313725
G01 X50.627226 Y-10.169211 Z32.470588
G01 X48.591603 Y-10.169211 Z32.470588
G01 X48.33715 Y-10.169211 Z32.313725
G01 X47.828244 Y-10.169211 Z32.313725
G01 X47.573791 Y-10.169211 Z32.156863
G01 X47.319338 Y-10.169211 Z32.156863
G01 X47.064885 Y-10.169211 Z32
G01 X45.538168 Y-10.169211 Z32
G01 X45.283715 Y-10.169211 Z31.843137
G01 X44.01145 Y-10.169211 Z31.843137
G01 X43.756997 Y-10.169211 Z31.686275
G01 X42.484733 Y-10.169211 Z31.686275
G01 X42.23028 Y-10.169211 Z31.529412
G01 X40.703562 Y-10.169211 Z31.529412
G01 X40.449109 Y-10.169211 Z31.372549
G01 X39.176845 Y-10.169211 Z31.372549
G01 X38.922392 Y-10.169211 Z31.215686
G01 X37.650127 Y-10.169211 Z31.215686
G01 X37.395674 Y-10.169211 Z31.058824
G01 X35.868957 Y-10.169211 Z31.058824
G01 X35.614504 Y-10.169211 Z30.901961
G01 X34.851145 Y-10.169211 Z30.901961
G01 X34.596692 Y-10.169211 Z30.745098
G01 X34.342239 Y-10.169211 Z30.588235
G01 X34.087786 Y-10.169211 Z30.117647
G01 X33.833333 Y-10.169211 Z29.647059
G01 X33.57888 Y-10.169211 Z29.019608
G01 X33.324427 Y-10.169211 Z28.392157
G01 X33.069975 Y-10.169211 Z27.764706
G01 X32.815522 Y-10.169211 Z27.137255
G01 X32.561069 Y-10.169211 Z26.352941
G01 X32.306616 Y-10.169211 Z25.568627
G01 X32.052163 Y-10.169211 Z24.627451
G01 X31.79771 Y-10.169211 Z23.686275
G01 X31.543257 Y-10.169211 Z11.294118
G01 X31.288804 Y-10.169211 Z0
G01 X0.245547 Y-10.169211 Z0
G01 X0.245547 Y-10.423664 Z0
G01 X0.245547 Y-10.678117 Z0
G01 X30.779898 Y-10.678117 Z0
G01 X31.034351 Y-10.678117 Z8.313725
G01 X31.288804 Y-10.678117 Z23.529412
G01 X31.543257 Y-10.678117 Z24.470588
G01 X31.79771 Y-10.678117 Z25.411765
G01 X32.052163 Y-10.678117 Z26.352941
G01 X32.306616 Y-10.678117 Z26.980392
G01 X32.561069 Y-10.678117 Z27.764706
G01 X32.815522 Y-10.678117 Z28.392157
G01 X33.069975 Y-10.678117 Z28.862745
G01 X33.324427 Y-10.678117 Z29.490196
G01 X33.57888 Y-10.678117 Z30.117647
G01 X33.833333 Y-10.678117 Z30.431373
G01 X34.087786 Y-10.678117 Z30.745098
G01 X34.342239 Y-10.678117 Z30.901961
G01 X34.596692 Y-10.678117 Z31.058824
G01 X35.868957 Y-10.678117 Z31.058824
G01 X36.12341 Y-10.678117 Z31.215686
G01 X37.395674 Y-10.678117 Z31.215686
G01 X37.650127 Y-10.678117 Z31.372549
G01 X38.922392 Y-10.678117 Z31.372549
G01 X39.176845 Y-10.678117 Z31.529412
G01 X40.703562 Y-10.678117 Z31.529412
G01 X40.958015 Y-10.678117 Z31.686275
G01 X42.23028 Y-10.678117 Z31.686275
G01 X42.484733 Y-10.678117 Z31.843137
G01 X43.756997 Y-10.678117 Z31.843137
G01 X44.01145 Y-10.678117 Z32
G01 X45.538168 Y-10.678117 Z32
G01 X45.792621 Y-10.678117 Z32.156863
G01 X46.810433 Y-10.678117 Z32.156863
G01 X47.064885 Y-10.678117 Z32.313725
G01 X47.573791 Y-10.678117 Z32.313725
G01 X47.828244 Y-10.678117 Z32.470588
G01 X48.33715 Y-10.678117 Z32.470588
G01 X48.591603 Y-10.678117 Z32.627451
G01 X50.881679 Y-10.678117 Z32.627451
G01 X51.136132 Y-10.678117 Z32.470588
G01 X52.408397 Y-10.678117 Z32.470588
G01 X52.66285 Y-10.678117 Z32.313725
G01 X53.680662 Y-10.678117 Z32.313725
G01 X53.935115 Y-10.678117 Z32.156863
G01 X55.207379 Y-10.678117 Z32.156863
G01 X55.461832 Y-10.678117 Z32
G01 X56.479644 Y-10.678117 Z32
G01 X56.734097 Y-10.678117 Z31.843137
G01 X58.006361 Y-10.678117 Z31.843137
G01 X58.260814 Y-10.678117 Z31.686275
G01 X59.533079 Y-10.678117 Z31.686275
G01 X59.787532 Y-10.678117 Z31.529412
G01 X60.805344 Y-10.678117 Z31.529412
G01 X61.059796 Y-10.678117 Z31.372549
G01 X62.332061 Y-10.678117 Z31.372549
G01 X62.586514 Y-10.678117 Z31.215686
G01 X63.349873 Y-10.678117 Z31.215686
G01 X63.604326 Y-10.678117 Z31.058824
G01 X64.367684 Y-10.678117 Z31.058824
G01 X64.622137 Y-10.678117 Z30.901961
G01 X64.87659 Y-10.678117 Z30.745098
G01 X65.131043 Y-10.678117 Z30.431373
G01 X65.385496 Y-10.678117 Z30.117647
G01 X65.639949 Y-10.678117 Z29.333333
G01 X65.894402 Y-10.678117 Z28.705882
G01 X66.148855 Y-10.678117 Z28.078431
G01 X66.403308 Y-10.678117 Z27.45098
G01 X66.657761 Y-10.678117 Z26.823529
G01 X66.912214 Y-10.678117 Z26.039216
G01 X67.166667 Y-10.678117 Z25.254902
G01 X67.42112 Y-10.678117 Z24.156863
G01 X67.675573 Y-10.678117 Z23.372549
G01 X67.930025 Y-10.678117 Z3.294118
G01 X68.184478 Y-10.678117 Z0
G01 X99.736641 Y-10.678117 Z0
G01 X99.736641 Y-10.93257 Z0
G01 X99.736641 Y-11.187023 Z0
G01 X68.693384 Y-11.187023 Z0
G01 X68.438931 Y-11.187023 Z5.333333
G01 X68.184478 Y-11.187023 Z20.078431
G01 X67.930025 Y-11.187023 Z24
G01 X67.675573 Y-11.187023 Z24.941176
G01 X67.42112 Y-11.187023 Z25.72549
G01 X67.166667 Y-11.187023 Z26.666667
G01 X66.912214 Y-11.187023 Z27.45098
G01 X66.657761 Y-11.187023 Z28.078431
G01 X66.403308 Y-11.187023 Z28.705882
G01 X66.148855 Y-11.187023 Z29.333333
G01 X65.894402 Y-11.187023 Z29.803922
G01 X65.639949 Y-11.187023 Z30.27451
G01 X65.385496 Y-11.187023 Z30.431373
G01 X65.131043 Y-11.187023 Z30.745098
G01 X64.87659 Y-11.187023 Z30.901961
G01 X64.622137 Y-11.187023 Z31.058824
G01 X64.367684 Y-11.187023 Z31.215686
G01 X63.858779 Y-11.187023 Z31.215686
G01 X63.604326 Y-11.187023 Z31.372549
G01 X63.349873 Y-11.187023 Z31.372549
G01 X63.09542 Y-11.187023 Z31.529412
G01 X62.332061 Y-11.187023 Z31.529412
G01 X62.077608 Y-11.187023 Z31.686275
G01 X60.805344 Y-11.187023 Z31.686275
G01 X60.550891 Y-11.187023 Z31.843137
G01 X59.278626 Y-11.187023 Z31.843137
G01 X59.024173 Y-11.187023 Z32
G01 X58.006361 Y-11.187023 Z32
G01 X57.751908 Y-11.187023 Z32.156863
G01 X56.479644 Y-11.187023 Z32.156863
G01 X56.225191 Y-11.187023 Z32.313725
G01 X54.952926 Y-11.187023 Z32.313725
G01 X54.698473 Y-11.187023 Z32.470588
G01 X53.426209 Y-11.187023 Z32.470588
G01 X53.171756 Y-11.187023 Z32.627451
G01 X52.153944 Y-11.187023 Z32.627451
G01 X51.899491 Y-11.187023 Z32.784314
G01 X50.627226 Y-11.187023 Z32.784314
G01 X50.372774 Y-11.187023 Z32.941176
G01 X48.846056 Y-11.187023 Z32.941176
G01 X48.591603 Y-11.187023 Z32.784314
G01 X48.082697 Y-11.187023 Z32.784314
G01 X47.828244 Y-11.187023 Z32.627451
G01 X47.319338 Y-11.187023 Z32.627451
G01 X47.064885 Y-11.187023 Z32.470588
G01 X46.301527 Y-11.187023 Z32.470588
G01 X46.047074 Y-11.187023 Z32.313725
G01 X45.283715 Y-11.187023 Z32.313725
G01 X45.029262 Y-11.187023 Z32.156863
G01 X43.756997 Y-11.187023 Z32.156863
G01 X43.502545 Y-11.187023 Z32
G01 X42.23028 Y-11.187023 Z32
G01 X41.975827 Y-11.187023 Z31.843137
G01 X40.449109 Y-11.187023 Z31.843137
G01 X40.194656 Y-11.187023 Z31.686275
G01 X38.922392 Y-11.187023 Z31.686275
G01 X38.667939 Y-11.187023 Z31.529412
G01 X37.395674 Y-11.187023 Z31.529412
G01 X37.141221 Y-11.187023 Z31.372549
G01 X35.868957 Y-11.187023 Z31.372549
G01 X35.614504 Y-11.187023 Z31.215686
G01 X34.596692 Y-11.187023 Z31.215686
G01 X34.342239 Y-11.187023 Z31.058824
G01 X34.087786 Y-11.187023 Z30.901961
G01 X33.833333 Y-11.187023 Z30.745098
G01 X33.57888 Y-11.187023 Z30.588235
G01 X33.324427 Y-11.187023 Z30.27451
G01 X33.069975 Y-11.187023 Z29.960784
G01 X32.815522 Y-11.187023 Z29.490196
G01 X32.561069 Y-11.187023 Z28.862745
G01 X32.306616 Y-11.187023 Z28.392157
G01 X32.052163 Y-11.187023 Z27.607843
G01 X31.79771 Y-11.187023 Z26.980392
G01 X31.543257 Y-11.187023 Z26.196078
G01 X31.288804 Y-11.187023 Z25.254902
G01 X31.034351 Y-11.187023 Z24.313725
G01 X30.779898 Y-11.187023 Z23.215686
G01 X30.525445 Y-11.187023 Z15.529412
G01 X30.270992 Y-11.187023 Z7.058824
G01 X30.016539 Y-11.187023 Z0
G01 X0.245547 Y-11.187023 Z0
G01 X0.245547 Y-11.441476 Z0
G01 X0.245547 Y-11.695929 Z0
G01 X29.507634 Y-11.695929 Z0
G01 X29.762087 Y-11.695929 Z4.235294
G01 X30.016539 Y-11.695929 Z22.431373
G01 X30.270992 Y-11.695929 Z23.058824
G01 X30.525445 Y-11.695929 Z24.156863
G01 X30.779898 Y-11.695929 Z25.254902
G01 X31.034351 Y-11.695929 Z26.196078
G01 X31.288804 Y-11.695929 Z26.980392
G01 X31.543257 Y-11.695929 Z27.607843
G01 X31.79771 Y-11.695929 Z28.235294
G01 X32.052163 Y-11.695929 Z28.862745
G01 X32.306616 Y-11.695929 Z29.333333
G01 X32.561069 Y-11.695929 Z29.803922
G01 X32.815522 Y-11.695929 Z30.117647
G01 X33.069975 Y-11.695929 Z30.27451
G01 X33.324427 Y-11.695929 Z30.588235
G01 X33.57888 Y-11.695929 Z30.745098
G01 X33.833333 Y-11.695929 Z30.901961
G01 X34.087786 Y-11.695929 Z31.058824
G01 X34.342239 Y-11.695929 Z31.215686
G01 X34.596692 Y-11.695929 Z31.372549
G01 X35.868957 Y-11.695929 Z31.372549
G01 X36.12341 Y-11.695929 Z31.529412
G01 X37.395674 Y-11.695929 Z31.529412
G01 X37.650127 Y-11.695929 Z31.686275
G01 X38.922392 Y-11.695929 Z31.686275
G01 X39.176845 Y-11.695929 Z31.843137
G01 X40.703562 Y-11.695929 Z31.843137
G01 X40.958015 Y-11.695929 Z32
G01 X42.23028 Y-11.695929 Z32
G01 X42.484733 Y-11.695929 Z32.156863
G01 X43.756997 Y-11.695929 Z32.156863
G01 X44.01145 Y-11.695929 Z32.313725
G01 X45.283715 Y-11.695929 Z32.313725
G01 X45.538168 Y-11.695929 Z32.470588
G01 X46.047074 Y-11.695929 Z32.470588
G01 X46.301527 Y-11.695929 Z32.627451
G01 X46.810433 Y-11.695929 Z32.627451
G01 X47.064885 Y-11.695929 Z32.784314
G01 X47.573791 Y-11.695929 Z32.784314
G01 X47.828244 Y-11.695929 Z32.941176
G01 X48.33715 Y-11.695929 Z32.941176
G01 X48.591603 Y-11.695929 Z33.098039
G01 X50.627226 Y-11.695929 Z33.098039
G01 X50.881679 Y-11.695929 Z32.941176
G01 X52.153944 Y-11.695929 Z32.941176
G01 X52.408397 Y-11.695929 Z32.784314
G01 X53.680662 Y-11.695929 Z32.784314
G01 X53.935115 Y-11.695929 Z32.627451
G01 X54.952926 Y-11.695929 Z32.627451
G01 X55.207379 Y-11.695929 Z32.470588
G01 X56.479644 Y-11.695929 Z32.470588
G01 X56.734097 Y-11.695929 Z32.313725
G01 X58.006361 Y-11.695929 Z32.313725
G01 X58.260814 Y-11.695929 Z32.156863
G01 X59.533079 Y-11.695929 Z32.156863
G01 X59.787532 Y-11.695929 Z32
G01 X60.805344 Y-11.695929 Z32
G01 X61.059796 Y-11.695929 Z31.843137
G01 X61.823155 Y-11.695929 Z31.843137
G01 X62.077608 Y-11.695929 Z31.686275
G01 X62.840967 Y-11.695929 Z31.686275
G01 X63.09542 Y-11.695929 Z31.529412
G01 X63.604326 Y-11.695929 Z31.529412
G01 X63.858779 Y-11.695929 Z31.372549
G01 X64.367684 Y-11.695929 Z31.372549
G01 X64.622137 Y-11.695929 Z31.215686
G01 X64.87659 Y-11.695929 Z31.058824
G01 X65.131043 Y-11.695929 Z30.901961
G01 X65.385496 Y-11.695929 Z30.745098
G01 X65.639949 Y-11.695929 Z30.431373
G01 X65.894402 Y-11.695929 Z30.27451
G01 X66.148855 Y-11.695929 Z29.960784
G01 X66.403308 Y-11.695929 Z29.803922
G01 X66.657761 Y-11.695929 Z29.333333
G01 X66.912214 Y-11.695929 Z28.54902
G01 X67.166667 Y-11.695929 Z28.078431
G01 X67.42112 Y-11.695929 Z27.294118
G01 X67.675573 Y-11.695929 Z26.666667
G01 X67.930025 Y-11.695929 Z26.196078
G01 X68.184478 Y-11.695929 Z24.941176
G01 X68.438931 Y-11.695929 Z23.686275
G01 X68.693384 Y-11.695929 Z22.588235
G01 X68.947837 Y-11.695929 Z3.764706
G01 X69.20229 Y-11.695929 Z0
G01 X99.736641 Y-11.695929 Z0
G01 X99.736641 Y-11.950382 Z0
G01 X99.736641 Y-12.204835 Z0
G01 X69.711196 Y-12.204835 Z0
G01 X69.456743 Y-12.204835 Z4.862745
G01 X69.20229 Y-12.204835 Z19.921569
G01 X68.947837 Y-12.204835 Z23.529412
G01 X68.693384 Y-12.204835 Z24.627451
G01 X68.438931 Y-12.204835 Z25.72549
G01 X68.184478 Y-12.204835 Z26.509804
G01 X67.930025 Y-12.204835 Z27.294118
G01 X67.675573 Y-12.204835 Z28.078431
G01 X67.42112 Y-12.204835 Z28.705882
G01 X67.166667 Y-12.204835 Z29.176471
G01 X66.912214 Y-12.204835 Z29.490196
G01 X66.657761 Y-12.204835 Z29.803922
G01 X66.403308 Y-12.204835 Z29.960784
G01 X66.148855 Y-12.204835 Z30.27451
G01 X65.894402 Y-12.204835 Z30.588235
G01 X65.639949 Y-12.204835 Z30.745098
G01 X65.385496 Y-12.204835 Z30.901961
G01 X65.131043 Y-12.204835 Z31.058824
G01 X64.87659 Y-12.204835 Z31.215686
G01 X64.622137 Y-12.204835 Z31.372549
G01 X64.367684 Y-12.204835 Z31.529412
G01 X64.113232 Y-12.204835 Z31.529412
G01 X63.858779 Y-12.204835 Z31.686275
G01 X63.349873 Y-12.204835 Z31.686275
G01 X63.09542 Y-12.204835 Z31.843137
G01 X62.332061 Y-12.204835 Z31.843137
G01 X62.077608 Y-12.204835 Z32
G01 X61.568702 Y-12.204835 Z32
G01 X61.314249 Y-12.204835 Z32.156863
G01 X60.550891 Y-12.204835 Z32.156863
G01 X60.296438 Y-12.204835 Z32.313725
G01 X59.278626 Y-12.204835 Z32.313725
G01 X59.024173 Y-12.204835 Z32.470588
G01 X57.751908 Y-12.204835 Z32.470588
G01 X57.497455 Y-12.204835 Z32.627451
G01 X56.479644 Y-12.204835 Z32.627451
G01 X56.225191 Y-12.204835 Z32.784314
G01 X54.698473 Y-12.204835 Z32.784314
G01 X54.44402 Y-12.204835 Z32.941176
G01 X53.426209 Y-12.204835 Z32.941176
G01 X53.171756 Y-12.204835 Z33.098039
G01 X51.899491 Y-12.204835 Z33.098039
G01 X51.645038 Y-12.204835 Z33.254902
G01 X50.372774 Y-12.204835 Z33.254902
G01 X50.118321 Y-12.204835 Z33.411765
G01 X49.100509 Y-12.204835 Z33.411765
G01 X48.846056 Y-12.204835 Z33.254902
G01 X48.33715 Y-12.204835 Z33.254902
G01 X48.082697 Y-12.204835 Z33.098039
G01 X47.319338 Y-12.204835 Z33.098039
G01 X47.064885 Y-12.204835 Z32.941176
G01 X46.55598 Y-12.204835 Z32.941176
G01 X46.301527 Y-12.204835 Z32.784314
G01 X45.792621 Y-12.204835 Z32.784314
G01 X45.538168 Y-12.204835 Z32.627451
G01 X45.029262 Y-12.204835 Z32.627451
G01 X44.774809 Y-12.204835 Z32.470588
G01 X43.756997 Y-12.204835 Z32.470588
G01 X43.502545 Y-12.204835 Z32.313725
G01 X42.23028 Y-12.204835 Z32.313725
G01 X41.975827 Y-12.204835 Z32.156863
G01 X40.449109 Y-12.204835 Z32.156863
G01 X40.194656 Y-12.204835 Z32
G01 X38.922392 Y-12.204835 Z32
G01 X38.667939 Y-12.204835 Z31.843137
G01 X37.395674 Y-12.204835 Z31.843137
G01 X37.141221 Y-12.204835 Z31.686275
G01 X35.614504 Y-12.204835 Z31.686275
G01 X35.360051 Y-12.204835 Z31.529412
G01 X34.596692 Y-12.204835 Z31.529412
G01 X34.342239 Y-12.204835 Z31.372549
G01 X34.087786 Y-12.204835 Z31.215686
G01 X33.833333 Y-12.204835 Z31.215686
G01 X33.57888 Y-12.204835 Z31.058824
G01 X33.324427 Y-12.204835 Z30.745098
G01 X33.069975 Y-12.204835 Z30.588235
G01 X32.815522 Y-12.204835 Z30.431373
G01 X32.561069 Y-12.204835 Z30.117647
G01 X32.306616 Y-12.204835 Z29.803922
G01 X32.052163 Y-12.204835 Z29.647059
G01 X31.79771 Y-12.204835 Z29.176471
G01 X31.543257 Y-12.204835 Z28.705882
G01 X31.288804 Y-12.204835 Z28.235294
G01 X31.034351 Y-12.204835 Z27.607843
G01 X30.779898 Y-12.204835 Z26.666667
G01 X30.525445 Y-12.204835 Z25.882353
G01 X30.270992 Y-12.204835 Z25.098039
G01 X30.016539 Y-12.204835 Z24
G01 X29.762087 Y-12.204835 Z22.901961
G01 X29.507634 Y-12.204835 Z20.235294
G01 X29.253181 Y-12.204835 Z6.588235
G01 X28.998728 Y-12.204835 Z0
G01 X0.245547 Y-12.204835 Z0
G01 X0.245547 Y-12.459288 Z0
G01 X0.245547 Y-12.71374 Z0
G01 X28.489822 Y-12.71374 Z0
G01 X28.744275 Y-12.71374 Z4.862745
G01 X28.998728 Y-12.71374 Z21.960784
G01 X29.253181 Y-12.71374 Z22.745098
G01 X29.507634 Y-12.71374 Z23.843137
G01 X29.762087 Y-12.71374 Z24.941176
G01 X30.016539 Y-12.71374 Z25.882353
G01 X30.270992 Y-12.71374 Z26.666667
G01 X30.525445 Y-12.71374 Z27.607843
G01 X30.779898 Y-12.71374 Z28.235294
G01 X31.034351 Y-12.71374 Z28.705882
G01 X31.288804 Y-12.71374 Z29.019608
G01 X31.543257 Y-12.71374 Z29.333333
G01 X31.79771 Y-12.71374 Z29.647059
G01 X32.052163 Y-12.71374 Z29.960784
G01 X32.306616 Y-12.71374 Z30.117647
G01 X32.561069 Y-12.71374 Z30.431373
G01 X32.815522 Y-12.71374 Z30.588235
G01 X33.069975 Y-12.71374 Z30.745098
G01 X33.324427 Y-12.71374 Z31.058824
G01 X33.57888 Y-12.71374 Z31.215686
G01 X33.833333 Y-12.71374 Z31.372549
G01 X34.087786 Y-12.71374 Z31.529412
G01 X34.342239 Y-12.71374 Z31.686275
G01 X35.614504 Y-12.71374 Z31.686275
G01 X35.868957 Y-12.71374 Z31.843137
G01 X37.141221 Y-12.71374 Z31.843137
G01 X37.395674 Y-12.71374 Z32
G01 X38.922392 Y-12.71374 Z32
G01 X39.176845 Y-12.71374 Z32.156863
G01 X40.449109 Y-12.71374 Z32.156863
G01 X40.703562 Y-12.71374 Z32.313725
G01 X41.975827 Y-12.71374 Z32.313725
G01 X42.23028 Y-12.71374 Z32.470588
G01 X44.01145 Y-12.71374 Z32.470588
G01 X44.265903 Y-12.71374 Z32.627451
G01 X44.774809 Y-12.71374 Z32.627451
G01 X45.029262 Y-12.71374 Z32.784314
G01 X45.538168 Y-12.71374 Z32.784314
G01 X45.792621 Y-12.71374 Z32.941176
G01 X46.047074 Y-12.71374 Z32.941176
G01 X46.301527 Y-12.71374 Z33.098039
G01 X46.810433 Y-12.71374 Z33.098039
G01 X47.064885 Y-12.71374 Z33.254902
G01 X47.573791 Y-12.71374 Z33.254902
G01 X47.828244 Y-12.71374 Z33.411765
G01 X48.591603 Y-12.71374 Z33.411765
G01 X48.846056 Y-12.71374 Z33.568627
G01 X50.372774 Y-12.71374 Z33.568627
G01 X50.627226 Y-12.71374 Z33.411765
G01 X51.899491 Y-12.71374 Z33.411765
G01 X52.153944 Y-12.71374 Z33.254902
G01 X53.426209 Y-12.71374 Z33.254902
G01 X53.680662 Y-12.71374 Z33.098039
G01 X54.698473 Y-12.71374 Z33.098039
G01 X54.952926 Y-12.71374 Z32.941176
G01 X56.479644 Y-12.71374 Z32.941176
G01 X56.734097 Y-12.71374 Z32.784314
G01 X57.751908 Y-12.71374 Z32.784314
G01 X58.006361 Y-12.71374 Z32.627451
G01 X59.278626 Y-12.71374 Z32.627451
G01 X59.533079 Y-12.71374 Z32.470588
G01 X60.550891 Y-12.71374 Z32.470588
G01 X60.805344 Y-12.71374 Z32.313725
G01 X61.314249 Y-12.71374 Z32.313725
G01 X61.568702 Y-12.71374 Z32.156863
G01 X62.077608 Y-12.71374 Z32.156863
G01 X62.332061 Y-12.71374 Z32
G01 X62.840967 Y-12.71374 Z32
G01 X63.09542 Y-12.71374 Z31.843137
G01 X63.604326 Y-12.71374 Z31.843137
G01 X63.858779 Y-12.71374 Z31.686275
G01 X64.367684 Y-12.71374 Z31.686275
G01 X64.622137 Y-12.71374 Z31.529412
G01 X64.87659 Y-12.71374 Z31.372549
G01 X65.131043 Y-12.71374 Z31.215686
G01 X65.385496 Y-12.71374 Z31.058824
G01 X65.639949 Y-12.71374 Z30.901961
G01 X65.894402 Y-12.71374 Z30.745098
G01 X66.148855 Y-12.71374 Z30.431373
G01 X66.403308 Y-12.71374 Z30.27451
G01 X66.657761 Y-12.71374 Z29.960784
G01 X66.912214 Y-12.71374 Z29.803922
G01 X67.166667 Y-12.71374 Z29.490196
G01 X67.42112 Y-12.71374 Z29.333333
G01 X67.675573 Y-12.71374 Z28.862745
G01 X67.930025 Y-12.71374 Z28.54902
G01 X68.184478 Y-12.71374 Z27.921569
G01 X68.438931 Y-12.71374 Z27.294118
G01 X68.693384 Y-12.71374 Z26.823529
G01 X68.947837 Y-12.71374 Z25.72549
G01 X69.20229 Y-12.71374 Z24.627451
G01 X69.456743 Y-12.71374 Z23.372549
G01 X69.711196 Y-12.71374 Z22.27451
G01 X69.965649 Y-12.71374 Z4.235294
G01 X70.220102 Y-12.71374 Z0
G01 X99.736641 Y-12.71374 Z0
G01 X99.736641 Y-12.968193 Z0
G01 X99.736641 Y-13.222646 Z0
G01 X70.729008 Y-13.222646 Z0
G01 X70.474555 Y-13.222646 Z16.313725
G01 X70.220102 Y-13.222646 Z19.764706
G01 X69.965649 Y-13.222646 Z23.215686
G01 X69.711196 Y-13.222646 Z24.313725
G01 X69.456743 Y-13.222646 Z25.411765
G01 X69.20229 Y-13.222646 Z26.352941
G01 X68.947837 Y-13.222646 Z27.294118
G01 X68.693384 Y-13.222646 Z27.921569
G01 X68.438931 Y-13.222646 Z28.392157
G01 X68.184478 Y-13.222646 Z28.862745
G01 X67.930025 Y-13.222646 Z29.176471
G01 X67.675573 Y-13.222646 Z29.333333
G01 X67.42112 Y-13.222646 Z29.490196
G01 X67.166667 Y-13.222646 Z29.803922
G01 X66.912214 Y-13.222646 Z30.117647
G01 X66.657761 Y-13.222646 Z30.27451
G01 X66.403308 Y-13.222646 Z30.431373
G01 X66.148855 Y-13.222646 Z30.745098
G01 X65.894402 Y-13.222646 Z31.058824
G01 X65.639949 Y-13.222646 Z31.058824
G01 X65.385496 Y-13.222646 Z31.215686
G01 X65.131043 Y-13.222646 Z31.529412
G01 X64.87659 Y-13.222646 Z31.686275
G01 X64.622137 Y-13.222646 Z31.686275
G01 X64.367684 Y-13.222646 Z31.843137
G01 X64.113232 Y-13.222646 Z31.843137
G01 X63.858779 Y-13.222646 Z32
G01 X63.349873 Y-13.222646 Z32
G01 X63.09542 Y-13.222646 Z32.156863
G01 X62.332061 Y-13.222646 Z32.156863
G01 X62.077608 Y-13.222646 Z32.313725
G01 X61.568702 Y-13.222646 Z32.313725
G01 X61.314249 Y-13.222646 Z32.470588
G01 X60.805344 Y-13.222646 Z32.470588
G01 X60.550891 Y-13.222646 Z34.352941
G01 X60.296438 Y-13.222646 Z37.960784
G01 X59.533079 Y-13.222646 Z37.960784
G01 X59.278626 Y-13.222646 Z37.333333
G01 X59.024173 Y-13.222646 Z32.784314
G01 X58.76972 Y-13.222646 Z32.941176
G01 X57.497455 Y-13.222646 Z32.941176
G01 X57.243003 Y-13.222646 Z33.098039
G01 X55.970738 Y-13.222646 Z33.098039
G01 X55.716285 Y-13.222646 Z33.254902
G01 X54.44402 Y-13.222646 Z33.254902
G01 X54.189567 Y-13.222646 Z33.411765
G01 X52.917303 Y-13.222646 Z33.411765
G01 X52.66285 Y-13.222646 Z33.568627
G01 X51.645038 Y-13.222646 Z33.568627
G01 X51.390585 Y-13.222646 Z33.72549
G01 X48.33715 Y-13.222646 Z33.72549
G01 X48.082697 Y-13.222646 Z33.568627
G01 X47.573791 Y-13.222646 Z33.568627
G01 X47.319338 Y-13.222646 Z33.411765
G01 X46.810433 Y-13.222646 Z33.411765
G01 X46.55598 Y-13.222646 Z33.254902
G01 X46.047074 Y-13.222646 Z33.254902
G01 X45.792621 Y-13.222646 Z33.098039
G01 X45.283715 Y-13.222646 Z33.098039
G01 X45.029262 Y-13.222646 Z32.941176
G01 X44.265903 Y-13.222646 Z32.941176
G01 X44.01145 Y-13.222646 Z32.784314
G01 X43.502545 Y-13.222646 Z32.784314
G01 X43.248092 Y-13.222646 Z32.627451
G01 X42.23028 Y-13.222646 Z32.627451
G01 X41.975827 Y-13.222646 Z32.470588
G01 X40.703562 Y-13.222646 Z32.470588
G01 X40.449109 Y-13.222646 Z36.705882
G01 X39.685751 Y-13.222646 Z36.705882
G01 X39.431298 Y-13.222646 Z37.019608
G01 X38.667939 Y-13.222646 Z37.019608
G01 X38.413486 Y-13.222646 Z32.156863
G01 X37.141221 Y-13.222646 Z32.156863
G01 X36.886768 Y-13.222646 Z32
G01 X35.614504 Y-13.222646 Z32
G01 X35.360051 Y-13.222646 Z31.843137
G01 X34.596692 Y-13.222646 Z31.843137
G01 X34.342239 Y-13.222646 Z31.686275
G01 X34.087786 Y-13.222646 Z31.686275
G01 X33.833333 Y-13.222646 Z31.529412
G01 X33.57888 Y-13.222646 Z31.372549
G01 X33.324427 Y-13.222646 Z31.215686
G01 X33.069975 Y-13.222646 Z31.058824
G01 X32.815522 Y-13.222646 Z30.901961
G01 X32.561069 Y-13.222646 Z30.588235
G01 X32.306616 Y-13.222646 Z30.27451
G01 X32.052163 Y-13.222646 Z30.117647
G01 X31.79771 Y-13.222646 Z29.960784
G01 X31.543257 Y-13.222646 Z29.647059
G01 X31.288804 Y-13.222646 Z29.333333
G01 X31.034351 Y-13.222646 Z29.176471
G01 X30.779898 Y-13.222646 Z28.862745
G01 X30.525445 Y-13.222646 Z28.54902
G01 X30.270992 Y-13.222646 Z28.078431
G01 X30.016539 Y-13.222646 Z27.45098
G01 X29.762087 Y-13.222646 Z26.509804
G01 X29.507634 Y-13.222646 Z25.72549
G01 X29.253181 Y-13.222646 Z24.784314
G01 X28.998728 Y-13.222646 Z23.686275
G01 X28.744275 Y-13.222646 Z22.431373
G01 X28.489822 Y-13.222646 Z19.921569
G01 X28.235369 Y-13.222646 Z6.27451
G01 X27.980916 Y-13.222646 Z0
G01 X0.245547 Y-13.222646 Z0
G01 X0.245547 Y-13.477099 Z0
G01 X0.245547 Y-13.731552 Z0
G01 X27.47201 Y-13.731552 Z0
G01 X27.726463 Y-13.731552 Z5.333333
G01 X27.980916 Y-13.731552 Z21.647059
G01 X28.235369 Y-13.731552 Z22.117647
G01 X28.489822 Y-13.731552 Z23.372549
G01 X28.744275 Y-13.731552 Z24.627451
G01 X28.998728 Y-13.731552 Z25.568627
G01 X29.253181 Y-13.731552 Z26.509804
G01 X29.507634 Y-13.731552 Z27.294118
G01 X29.762087 Y-13.731552 Z27.921569
G01 X30.016539 Y-13.731552 Z28.392157
G01 X30.270992 Y-13.731552 Z28.705882
G01 X30.525445 Y-13.731552 Z28.862745
G01 X30.779898 Y-13.731552 Z29.176471
G01 X31.034351 Y-13.731552 Z29.490196
G01 X31.288804 Y-13.731552 Z29.647059
G01 X31.543257 Y-13.731552 Z29.960784
G01 X31.79771 Y-13.731552 Z30.117647
G01 X32.052163 Y-13.731552 Z30.431373
G01 X32.306616 Y-13.731552 Z30.588235
G01 X32.561069 Y-13.731552 Z30.901961
G01 X32.815522 Y-13.731552 Z30.901961
G01 X33.069975 Y-13.731552 Z31.215686
G01 X33.324427 Y-13.731552 Z31.372549
G01 X33.57888 Y-13.731552 Z31.529412
G01 X33.833333 Y-13.731552 Z31.686275
G01 X34.087786 Y-13.731552 Z31.843137
G01 X34.342239 Y-13.731552 Z32
G01 X35.614504 Y-13.731552 Z32
G01 X35.868957 Y-13.731552 Z32.156863
G01 X37.141221 Y-13.731552 Z32.156863
G01 X37.395674 Y-13.731552 Z32.313725
G01 X37.650127 Y-13.731552 Z32.313725
G01 X37.90458 Y-13.731552 Z32.784314
G01 X38.159033 Y-13.731552 Z36.392157
G01 X38.413486 Y-13.731552 Z38.588235
G01 X38.667939 Y-13.731552 Z38.588235
G01 X38.922392 Y-13.731552 Z38.745098
G01 X39.940204 Y-13.731552 Z38.745098
G01 X40.194656 Y-13.731552 Z38.588235
G01 X41.212468 Y-13.731552 Z38.588235
G01 X41.466921 Y-13.731552 Z38.117647
G01 X41.721374 Y-13.731552 Z34.352941
G01 X42.23028 Y-13.731552 Z34.352941
G01 X42.484733 Y-13.731552 Z32.784314
G01 X43.248092 Y-13.731552 Z32.784314
G01 X43.502545 Y-13.731552 Z32.941176
G01 X44.01145 Y-13.731552 Z32.941176
G01 X44.265903 Y-13.731552 Z33.098039
G01 X44.774809 Y-13.731552 Z33.098039
G01 X45.029262 Y-13.731552 Z33.254902
G01 X45.538168 Y-13.731552 Z33.254902
G01 X45.792621 Y-13.731552 Z33.411765
G01 X46.301527 Y-13.731552 Z33.411765
G01 X46.55598 Y-13.731552 Z33.568627
G01 X47.064885 Y-13.731552 Z33.568627
G01 X47.319338 Y-13.731552 Z33.72549
G01 X47.828244 Y-13.731552 Z33.72549
G01 X48.082697 Y-13.731552 Z33.882353
G01 X48.591603 Y-13.731552 Z33.882353
G01 X48.846056 Y-13.731552 Z34.039216
G01 X49.863868 Y-13.731552 Z34.039216
G01 X50.118321 Y-13.731552 Z33.882353
G01 X51.645038 Y-13.731552 Z33.882353
G01 X51.899491 Y-13.731552 Z33.72549
G01 X52.917303 Y-13.731552 Z33.72549
G01 X53.171756 Y-13.731552 Z33.568627
G01 X54.698473 Y-13.731552 Z33.568627
G01 X54.952926 Y-13.731552 Z33.411765
G01 X55.970738 Y-13.731552 Z33.411765
G01 X56.225191 Y-13.731552 Z33.254902
G01 X56.479644 Y-13.731552 Z33.568627
G01 X56.734097 Y-13.731552 Z34.823529
G01 X57.243003 Y-13.731552 Z34.823529
G01 X57.497455 Y-13.731552 Z38.588235
G01 X58.76972 Y-13.731552 Z38.588235
G01 X59.024173 Y-13.731552 Z38.745098
G01 X60.041985 Y-13.731552 Z38.745098
G01 X60.296438 Y-13.731552 Z38.588235
G01 X60.550891 Y-13.731552 Z38.588235
G01 X60.805344 Y-13.731552 Z38.431373
G01 X61.059796 Y-13.731552 Z34.039216
G01 X61.314249 Y-13.731552 Z32.627451
G01 X61.568702 Y-13.731552 Z32.470588
G01 X62.077608 Y-13.731552 Z32.470588
G01 X62.332061 Y-13.731552 Z32.313725
G01 X62.840967 Y-13.731552 Z32.313725
G01 X63.09542 Y-13.731552 Z32.156863
G01 X63.604326 Y-13.731552 Z32.156863
G01 X63.858779 Y-13.731552 Z32
G01 X64.367684 Y-13.731552 Z32
G01 X64.622137 Y-13.731552 Z31.843137
G01 X64.87659 Y-13.731552 Z31.686275
G01 X65.131043 Y-13.731552 Z31.686275
G01 X65.385496 Y-13.731552 Z31.529412
G01 X65.639949 Y-13.731552 Z31.215686
G01 X65.894402 Y-13.731552 Z31.215686
G01 X66.148855 Y-13.731552 Z31.058824
G01 X66.403308 Y-13.731552 Z30.745098
G01 X66.657761 Y-13.731552 Z30.431373
G01 X66.912214 Y-13.731552 Z30.27451
G01 X67.166667 Y-13.731552 Z30.117647
G01 X67.42112 Y-13.731552 Z29.803922
G01 X67.675573 Y-13.731552 Z29.490196
G01 X67.930025 Y-13.731552 Z29.333333
G01 X68.184478 Y-13.731552 Z29.019608
G01 X68.438931 Y-13.731552 Z28.862745
G01 X68.693384 Y-13.731552 Z28.54902
G01 X68.947837 Y-13.731552 Z28.235294
G01 X69.20229 Y-13.731552 Z27.921569
G01 X69.456743 Y-13.731552 Z27.294118
G01 X69.711196 Y-13.731552 Z26.352941
G01 X69.965649 Y-13.731552 Z25.254902
G01 X70.220102 Y-13.731552 Z24.156863
G01 X70.474555 Y-13.731552 Z23.215686
G01 X70.729008 Y-13.731552 Z22.117647
G01 X70.983461 Y-13.731552 Z17.568627
G01 X71.237913 Y-13.731552 Z2.980392
G01 X71.492366 Y-13.731552 Z0
G01 X99.736641 Y-13.731552 Z0
G01 X99.736641 Y-13.986005 Z0
G01 X99.736641 Y-14.240458 Z0
G01 X71.746819 Y-14.240458 Z0
G01 X71.492366 Y-14.240458 Z18.823529
G01 X71.237913 Y-14.240458 Z22.745098
G01 X70.983461 Y-14.240458 Z23.529412
G01 X70.729008 Y-14.240458 Z24.313725
G01 X70.474555 Y-14.240458 Z25.254902
G01 X70.220102 Y-14.240458 Z26.352941
G01 X69.965649 Y-14.240458 Z27.137255
G01 X69.711196 Y-14.240458 Z27.607843
G01 X69.456743 Y-14.240458 Z28.078431
G01 X69.20229 Y-14.240458 Z28.235294
G01 X68.947837 Y-14.240458 Z28.54902
G01 X68.693384 Y-14.240458 Z28.862745
G01 X68.438931 Y-14.240458 Z29.019608
G01 X68.184478 Y-14.240458 Z29.333333
G01 X67.930025 Y-14.240458 Z29.647059
G01 X67.675573 Y-14.240458 Z29.803922
G01 X67.42112 Y-14.240458 Z29.960784
G01 X67.166667 Y-14.240458 Z30.27451
G01 X66.912214 Y-14.240458 Z30.588235
G01 X66.657761 Y-14.240458 Z30.745098
G01 X66.403308 Y-14.240458 Z30.901961
G01 X66.148855 Y-14.240458 Z31.215686
G01 X65.894402 Y-14.240458 Z31.372549
G01 X65.639949 Y-14.240458 Z31.529412
G01 X65.385496 Y-14.240458 Z31.529412
G01 X65.131043 Y-14.240458 Z31.843137
G01 X64.87659 Y-14.240458 Z32
G01 X64.622137 Y-14.240458 Z32
G01 X64.367684 Y-14.240458 Z32.156863
G01 X64.113232 Y-14.240458 Z32.156863
G01 X63.858779 Y-14.240458 Z32.313725
G01 X63.349873 Y-14.240458 Z32.313725
G01 X63.09542 Y-14.240458 Z32.470588
G01 X62.332061 Y-14.240458 Z32.470588
G01 X62.077608 Y-14.240458 Z32.627451
G01 X61.568702 Y-14.240458 Z32.627451
G01 X61.314249 Y-14.240458 Z35.45098
G01 X61.059796 Y-14.240458 Z38.27451
G01 X60.805344 Y-14.240458 Z38.588235
G01 X60.550891 Y-14.240458 Z38.745098
G01 X60.296438 Y-14.240458 Z38.901961
G01 X56.479644 Y-14.240458 Z38.901961
G01 X56.225191 Y-14.240458 Z38.745098
G01 X55.970738 Y-14.240458 Z38.745098
G01 X55.716285 Y-14.240458 Z38.117647
G01 X55.461832 Y-14.240458 Z37.803922
G01 X55.207379 Y-14.240458 Z37.803922
G01 X54.952926 Y-14.240458 Z36.392157
G01 X54.698473 Y-14.240458 Z33.72549
G01 X54.189567 Y-14.240458 Z33.72549
G01 X53.935115 Y-14.240458 Z33.882353
G01 X52.66285 Y-14.240458 Z33.882353
G01 X52.408397 Y-14.240458 Z34.039216
G01 X51.136132 Y-14.240458 Z34.039216
G01 X50.881679 Y-14.240458 Z34.196078
G01 X48.591603 Y-14.240458 Z34.196078
G01 X48.33715 Y-14.240458 Z34.039216
G01 X47.828244 Y-14.240458 Z34.039216
G01 X47.573791 Y-14.240458 Z33.882353
G01 X47.064885 Y-14.240458 Z33.882353
G01 X46.810433 Y-14.240458 Z33.72549
G01 X46.301527 Y-14.240458 Z33.72549
G01 X46.047074 Y-14.240458 Z33.568627
G01 X45.283715 Y-14.240458 Z33.568627
G01 X45.029262 Y-14.240458 Z33.411765
G01 X44.774809 Y-14.240458 Z35.45098
G01 X44.01145 Y-14.240458 Z35.45098
G01 X43.756997 Y-14.240458 Z37.647059
G01 X43.248092 Y-14.240458 Z37.647059
G01 X42.993639 Y-14.240458 Z38.745098
G01 X42.739186 Y-14.240458 Z38.745098
G01 X42.484733 Y-14.240458 Z38.901961
G01 X38.667939 Y-14.240458 Z38.901961
G01 X38.413486 Y-14.240458 Z38.745098
G01 X38.159033 Y-14.240458 Z38.588235
G01 X37.90458 Y-14.240458 Z38.588235
G01 X37.650127 Y-14.240458 Z37.176471
G01 X37.395674 Y-14.240458 Z32.470588
G01 X37.141221 Y-14.240458 Z32.470588
G01 X36.886768 Y-14.240458 Z32.313725
G01 X35.360051 Y-14.240458 Z32.313725
G01 X35.105598 Y-14.240458 Z32.156863
G01 X34.342239 Y-14.240458 Z32.156863
G01 X34.087786 Y-14.240458 Z32
G01 X33.833333 Y-14.240458 Z31.843137
G01 X33.57888 Y-14.240458 Z31.686275
G01 X33.324427 Y-14.240458 Z31.529412
G01 X33.069975 Y-14.240458 Z31.372549
G01 X32.815522 Y-14.240458 Z31.215686
G01 X32.561069 Y-14.240458 Z31.058824
G01 X32.306616 Y-14.240458 Z30.901961
G01 X32.052163 Y-14.240458 Z30.588235
G01 X31.79771 Y-14.240458 Z30.431373
G01 X31.543257 Y-14.240458 Z30.117647
G01 X31.288804 Y-14.240458 Z29.803922
G01 X31.034351 Y-14.240458 Z29.647059
G01 X30.779898 Y-14.240458 Z29.490196
G01 X30.525445 Y-14.240458 Z29.176471
G01 X30.270992 Y-14.240458 Z28.862745
G01 X30.016539 Y-14.240458 Z28.705882
G01 X29.762087 Y-14.240458 Z28.392157
G01 X29.507634 Y-14.240458 Z28.078431
G01 X29.253181 Y-14.240458 Z27.764706
G01 X28.998728 Y-14.240458 Z27.294118
G01 X28.744275 Y-14.240458 Z26.509804
G01 X28.489822 Y-14.240458 Z25.411765
G01 X28.235369 Y-14.240458 Z24.470588
G01 X27.980916 Y-14.240458 Z23.686275
G01 X27.726463 Y-14.240458 Z22.745098
G01 X27.47201 Y-14.240458 Z22.117647
G01 X27.217557 Y-14.240458 Z19.137255
G01 X26.963104 Y-14.240458 Z1.254902
G01 X26.708651 Y-14.240458 Z0
G01 X0.245547 Y-14.240458 Z0
G01 X0.245547 Y-14.494911 Z0
G01 X0.245547 Y-14.749364 Z0
G01 X26.199746 Y-14.749364 Z0
G01 X26.454198 Y-14.749364 Z4.078431
G01 X26.708651 Y-14.749364 Z19.45098
G01 X26.963104 Y-14.749364 Z22.431373
G01 X27.217557 Y-14.749364 Z23.058824
G01 X27.47201 Y-14.749364 Z24
G01 X27.726463 Y-14.749364 Z24.941176
G01 X27.980916 Y-14.749364 Z25.72549
G01 X28.235369 Y-14.749364 Z26.509804
G01 X28.489822 Y-14.749364 Z27.137255
G01 X28.744275 Y-14.749364 Z27.607843
G01 X28.998728 Y-14.749364 Z27.921569
G01 X29.253181 Y-14.749364 Z28.235294
G01 X29.507634 Y-14.749364 Z28.392157
G01 X29.762087 Y-14.749364 Z28.705882
G01 X30.016539 Y-14.749364 Z29.019608
G01 X30.270992 Y-14.749364 Z29.176471
G01 X30.525445 Y-14.749364 Z29.490196
G01 X30.779898 Y-14.749364 Z29.647059
G01 X31.034351 Y-14.749364 Z29.960784
G01 X31.288804 Y-14.749364 Z30.117647
G01 X31.543257 Y-14.749364 Z30.431373
G01 X31.79771 Y-14.749364 Z30.588235
G01 X32.052163 Y-14.749364 Z30.901961
G01 X32.306616 Y-14.749364 Z31.058824
G01 X32.561069 Y-14.749364 Z31.215686
G01 X32.815522 Y-14.749364 Z31.372549
G01 X33.069975 Y-14.749364 Z31.529412
G01 X33.324427 Y-14.749364 Z31.686275
G01 X33.57888 Y-14.749364 Z31.843137
G01 X33.833333 Y-14.749364 Z32
G01 X34.087786 Y-14.749364 Z32.156863
G01 X34.342239 Y-14.749364 Z32.313725
G01 X35.614504 Y-14.749364 Z32.313725
G01 X35.868957 Y-14.749364 Z32.470588
G01 X36.632316 Y-14.749364 Z32.470588
G01 X36.886768 Y-14.749364 Z32.941176
G01 X37.141221 Y-14.749364 Z36.392157
G01 X37.395674 Y-14.749364 Z38.431373
G01 X37.650127 Y-14.749364 Z38.588235
G01 X37.90458 Y-14.749364 Z38.588235
G01 X38.159033 Y-14.749364 Z38.745098
G01 X38.413486 Y-14.749364 Z38.901961
G01 X38.667939 Y-14.749364 Z39.058824
G01 X41.975827 Y-14.749364 Z39.058824
G01 X42.23028 Y-14.749364 Z38.901961
G01 X44.774809 Y-14.749364 Z38.901961
G01 X45.029262 Y-14.749364 Z34.823529
G01 X45.283715 Y-14.749364 Z33.72549
G01 X45.538168 Y-14.749364 Z33.72549
G01 X45.792621 Y-14.749364 Z33.882353
G01 X46.55598 Y-14.749364 Z33.882353
G01 X46.810433 Y-14.749364 Z34.039216
G01 X47.573791 Y-14.749364 Z34.039216
G01 X47.828244 Y-14.749364 Z34.196078
G01 X48.33715 Y-14.749364 Z34.196078
G01 X48.591603 Y-14.749364 Z34.352941
G01 X50.881679 Y-14.749364 Z34.352941
G01 X51.136132 Y-14.749364 Z34.196078
G01 X52.66285 Y-14.749364 Z34.196078
G01 X52.917303 Y-14.749364 Z34.039216
G01 X53.680662 Y-14.749364 Z34.039216
G01 X53.935115 Y-14.749364 Z34.980392
G01 X54.189567 Y-14.749364 Z38.588235
G01 X54.44402 Y-14.749364 Z38.901961
G01 X56.479644 Y-14.749364 Z38.901961
G01 X56.734097 Y-14.749364 Z39.058824
G01 X60.041985 Y-14.749364 Z39.058824
G01 X60.296438 Y-14.749364 Z38.901961
G01 X60.550891 Y-14.749364 Z38.901961
G01 X60.805344 Y-14.749364 Z38.745098
G01 X61.059796 Y-14.749364 Z38.588235
G01 X61.314249 Y-14.749364 Z38.588235
G01 X61.568702 Y-14.749364 Z38.431373
G01 X61.823155 Y-14.749364 Z34.980392
G01 X62.077608 Y-14.749364 Z32.784314
G01 X62.332061 Y-14.749364 Z32.627451
G01 X63.09542 Y-14.749364 Z32.627451
G01 X63.349873 Y-14.749364 Z32.470588
G01 X63.858779 Y-14.749364 Z32.470588
G01 X64.113232 Y-14.749364 Z32.313725
G01 X64.367684 Y-14.749364 Z32.313725
G01 X64.622137 Y-14.749364 Z32.156863
G01 X64.87659 Y-14.749364 Z32.156863
G01 X65.131043 Y-14.749364 Z32
G01 X65.385496 Y-14.749364 Z31.843137
G01 X65.639949 Y-14.749364 Z31.686275
G01 X65.894402 Y-14.749364 Z31.529412
G01 X66.148855 Y-14.749364 Z31.372549
G01 X66.403308 Y-14.749364 Z31.215686
G01 X66.657761 Y-14.749364 Z30.901961
G01 X66.912214 Y-14.749364 Z30.745098
G01 X67.166667 Y-14.749364 Z30.588235
G01 X67.42112 Y-14.749364 Z30.27451
G01 X67.675573 Y-14.749364 Z30.117647
G01 X67.930025 Y-14.749364 Z29.803922
G01 X68.184478 Y-14.749364 Z29.647059
G01 X68.438931 Y-14.749364 Z29.333333
G01 X68.693384 Y-14.749364 Z29.019608
G01 X68.947837 Y-14.749364 Z28.862745
G01 X69.20229 Y-14.749364 Z28.54902
G01 X69.456743 Y-14.749364 Z28.392157
G01 X69.711196 Y-14.749364 Z28.078431
G01 X69.965649 Y-14.749364 Z27.764706
G01 X70.220102 Y-14.749364 Z27.45098
G01 X70.474555 Y-14.749364 Z26.980392
G01 X70.729008 Y-14.749364 Z26.352941
G01 X70.983461 Y-14.749364 Z25.568627
G01 X71.237913 Y-14.749364 Z24.784314
G01 X71.492366 Y-14.749364 Z24.156863
G01 X71.746819 Y-14.749364 Z23.215686
G01 X72.001272 Y-14.749364 Z22.431373
G01 X72.255725 Y-14.749364 Z13.803922
G01 X72.510178 Y-14.749364 Z1.254902
G01 X72.764631 Y-14.749364 Z0
G01 X99.736641 Y-14.749364 Z0
G01 X99.736641 Y-15.003817 Z0
G01 X99.736641 Y-15.25827 Z0
G01 X73.019084 Y-15.25827 Z0
G01 X72.764631 Y-15.25827 Z17.411765
G01 X72.510178 Y-15.25827 Z22.901961
G01 X72.255725 Y-15.25827 Z23.686275
G01 X72.001272 Y-15.25827 Z24.470588
G01 X71.746819 Y-15.25827 Z25.254902
G01 X71.492366 Y-15.25827 Z26.039216
G01 X71.237913 Y-15.25827 Z26.509804
G01 X70.983461 Y-15.25827 Z27.137255
G01 X70.729008 Y-15.25827 Z27.45098
G01 X70.474555 Y-15.25827 Z27.607843
G01 X70.220102 Y-15.25827 Z27.764706
G01 X69.965649 Y-15.25827 Z28.078431
G01 X69.711196 Y-15.25827 Z28.392157
G01 X69.456743 Y-15.25827 Z28.54902
G01 X69.20229 Y-15.25827 Z28.862745
G01 X68.947837 Y-15.25827 Z29.176471
G01 X68.693384 Y-15.25827 Z29.333333
G01 X68.438931 Y-15.25827 Z29.647059
G01 X68.184478 Y-15.25827 Z29.803922
G01 X67.930025 Y-15.25827 Z30.117647
G01 X67.675573 Y-15.25827 Z30.27451
G01 X67.42112 Y-15.25827 Z30.588235
G01 X67.166667 Y-15.25827 Z30.745098
G01 X66.912214 Y-15.25827 Z31.058824
G01 X66.657761 Y-15.25827 Z31.215686
G01 X66.403308 Y-15.25827 Z31.372549
G01 X66.148855 Y-15.25827 Z31.529412
G01 X65.894402 Y-15.25827 Z31.686275
G01 X65.639949 Y-15.25827 Z31.843137
G01 X65.385496 Y-15.25827 Z32
G01 X65.131043 Y-15.25827 Z32.156863
G01 X64.87659 Y-15.25827 Z32.313725
G01 X64.622137 Y-15.25827 Z32.470588
G01 X64.113232 Y-15.25827 Z32.470588
G01 X63.858779 Y-15.25827 Z32.627451
G01 X63.349873 Y-15.25827 Z32.627451
G01 X63.09542 Y-15.25827 Z32.784314
G01 X62.840967 Y-15.25827 Z33.098039
G01 X62.586514 Y-15.25827 Z37.647059
G01 X62.332061 Y-15.25827 Z37.803922
G01 X62.077608 Y-15.25827 Z38.27451
G01 X61.823155 Y-15.25827 Z38.431373
G01 X61.568702 Y-15.25827 Z38.588235
G01 X61.314249 Y-15.25827 Z38.745098
G01 X61.059796 Y-15.25827 Z38.901961
G01 X60.805344 Y-15.25827 Z38.901961
G01 X60.550891 Y-15.25827 Z39.058824
G01 X60.296438 Y-15.25827 Z39.215686
G01 X54.698473 Y-15.25827 Z39.215686
G01 X54.44402 Y-15.25827 Z39.058824
G01 X54.189567 Y-15.25827 Z39.058824
G01 X53.935115 Y-15.25827 Z37.176471
G01 X53.680662 Y-15.25827 Z34.196078
G01 X53.426209 Y-15.25827 Z34.352941
G01 X52.153944 Y-15.25827 Z34.352941
G01 X51.899491 Y-15.25827 Z34.509804
G01 X50.627226 Y-15.25827 Z34.509804
G01 X50.372774 Y-15.25827 Z34.666667
G01 X48.846056 Y-15.25827 Z34.666667
G01 X48.591603 Y-15.25827 Z34.509804
G01 X48.082697 Y-15.25827 Z34.509804
G01 X47.828244 Y-15.25827 Z34.352941
G01 X47.064885 Y-15.25827 Z34.352941
G01 X46.810433 Y-15.25827 Z34.196078
G01 X46.301527 Y-15.25827 Z34.196078
G01 X46.047074 Y-15.25827 Z34.039216
G01 X45.538168 Y-15.25827 Z34.039216
G01 X45.283715 Y-15.25827 Z33.882353
G01 X45.029262 Y-15.25827 Z37.176471
G01 X44.774809 Y-15.25827 Z38.901961
G01 X44.520356 Y-15.25827 Z39.058824
G01 X44.265903 Y-15.25827 Z39.058824
G01 X44.01145 Y-15.25827 Z39.215686
G01 X38.667939 Y-15.25827 Z39.215686
G01 X38.413486 Y-15.25827 Z39.058824
G01 X38.159033 Y-15.25827 Z38.901961
G01 X37.90458 Y-15.25827 Z38.901961
G01 X37.650127 Y-15.25827 Z38.745098
G01 X37.395674 Y-15.25827 Z38.745098
G01 X37.141221 Y-15.25827 Z38.588235
G01 X36.886768 Y-15.25827 Z38.431373
G01 X36.632316 Y-15.25827 Z37.490196
G01 X36.377863 Y-15.25827 Z35.921569
G01 X36.12341 Y-15.25827 Z32.627451
G01 X35.360051 Y-15.25827 Z32.627451
G01 X35.105598 Y-15.25827 Z32.470588
G01 X34.342239 Y-15.25827 Z32.470588
G01 X34.087786 Y-15.25827 Z32.313725
G01 X33.833333 Y-15.25827 Z32.156863
G01 X33.57888 Y-15.25827 Z32
G01 X33.324427 Y-15.25827 Z31.843137
G01 X33.069975 Y-15.25827 Z31.686275
G01 X32.815522 Y-15.25827 Z31.529412
G01 X32.561069 Y-15.25827 Z31.529412
G01 X32.306616 Y-15.25827 Z31.215686
G01 X32.052163 Y-15.25827 Z31.058824
G01 X31.79771 Y-15.25827 Z30.901961
G01 X31.543257 Y-15.25827 Z30.745098
G01 X31.288804 Y-15.25827 Z30.431373
G01 X31.034351 Y-15.25827 Z30.117647
G01 X30.779898 Y-15.25827 Z29.960784
G01 X30.525445 Y-15.25827 Z29.647059
G01 X30.270992 Y-15.25827 Z29.333333
G01 X30.016539 Y-15.25827 Z29.176471
G01 X29.762087 Y-15.25827 Z29.019608
G01 X29.507634 Y-15.25827 Z28.705882
G01 X29.253181 Y-15.25827 Z28.392157
G01 X28.998728 Y-15.25827 Z28.235294
G01 X28.744275 Y-15.25827 Z27.921569
G01 X28.489822 Y-15.25827 Z27.607843
G01 X28.235369 Y-15.25827 Z27.45098
G01 X27.980916 Y-15.25827 Z27.294118
G01 X27.726463 Y-15.25827 Z26.823529
G01 X27.47201 Y-15.25827 Z26.196078
G01 X27.217557 Y-15.25827 Z25.411765
G01 X26.963104 Y-15.25827 Z24.470588
G01 X26.708651 Y-15.25827 Z23.529412
G01 X26.454198 Y-15.25827 Z23.058824
G01 X26.199746 Y-15.25827 Z22.588235
G01 X25.945293 Y-15.25827 Z18.980392
G01 X25.69084 Y-15.25827 Z0
G01 X0.245547 Y-15.25827 Z0
G01 X0.245547 Y-15.512723 Z0
G01 X0.245547 Y-15.767176 Z0
G01 X24.927481 Y-15.767176 Z0
G01 X25.181934 Y-15.767176 Z2.196078
G01 X25.436387 Y-15.767176 Z15.686275
G01 X25.69084 Y-15.767176 Z22.901961
G01 X25.945293 Y-15.767176 Z23.529412
G01 X26.199746 Y-15.767176 Z24
G01 X26.454198 Y-15.767176 Z24.784314
G01 X26.708651 Y-15.767176 Z25.72549
G01 X26.963104 Y-15.767176 Z26.352941
G01 X27.217557 Y-15.767176 Z26.980392
G01 X27.47201 Y-15.767176 Z27.45098
G01 X27.726463 Y-15.767176 Z27.607843
G01 X27.980916 Y-15.767176 Z27.607843
G01 X28.235369 Y-15.767176 Z27.764706
G01 X28.489822 Y-15.767176 Z27.921569
G01 X28.744275 Y-15.767176 Z28.235294
G01 X28.998728 Y-15.767176 Z28.54902
G01 X29.253181 Y-15.767176 Z28.705882
G01 X29.507634 Y-15.767176 Z29.019608
G01 X29.762087 Y-15.767176 Z29.176471
G01 X30.016539 Y-15.767176 Z29.490196
G01 X30.270992 Y-15.767176 Z29.647059
G01 X30.525445 Y-15.767176 Z29.960784
G01 X30.779898 Y-15.767176 Z30.117647
G01 X31.034351 Y-15.767176 Z30.431373
G01 X31.288804 Y-15.767176 Z30.588235
G01 X31.543257 Y-15.767176 Z30.901961
G01 X31.79771 Y-15.767176 Z31.058824
G01 X32.052163 Y-15.767176 Z31.215686
G01 X32.306616 Y-15.767176 Z31.529412
G01 X32.561069 Y-15.767176 Z31.529412
G01 X32.815522 Y-15.767176 Z31.686275
G01 X33.069975 Y-15.767176 Z31.843137
G01 X33.324427 Y-15.767176 Z32
G01 X33.57888 Y-15.767176 Z32.156863
G01 X33.833333 Y-15.767176 Z32.313725
G01 X34.087786 Y-15.767176 Z32.470588
G01 X34.342239 Y-15.767176 Z32.627451
G01 X35.614504 Y-15.767176 Z32.627451
G01 X35.868957 Y-15.767176 Z35.45098
G01 X36.12341 Y-15.767176 Z38.27451
G01 X36.377863 Y-15.767176 Z38.431373
G01 X36.632316 Y-15.767176 Z38.431373
G01 X36.886768 Y-15.767176 Z38.588235
G01 X37.141221 Y-15.767176 Z38.745098
G01 X37.395674 Y-15.767176 Z38.745098
G01 X37.650127 Y-15.767176 Z38.901961
G01 X37.90458 Y-15.767176 Z39.058824
G01 X38.159033 Y-15.767176 Z39.058824
G01 X38.413486 Y-15.767176 Z39.215686
G01 X38.667939 Y-15.767176 Z39.372549
G01 X44.01145 Y-15.767176 Z39.372549
G01 X44.265903 Y-15.767176 Z39.215686
G01 X44.520356 Y-15.767176 Z39.215686
G01 X44.774809 Y-15.767176 Z39.058824
G01 X45.029262 Y-15.767176 Z38.901961
G01 X45.283715 Y-15.767176 Z38.745098
G01 X45.538168 Y-15.767176 Z35.294118
G01 X45.792621 Y-15.767176 Z34.196078
G01 X46.047074 Y-15.767176 Z34.196078
G01 X46.301527 Y-15.767176 Z34.352941
G01 X46.810433 Y-15.767176 Z34.352941
G01 X47.064885 Y-15.767176 Z34.509804
G01 X47.573791 Y-15.767176 Z34.509804
G01 X47.828244 Y-15.767176 Z34.666667
G01 X48.591603 Y-15.767176 Z34.666667
G01 X48.846056 Y-15.767176 Z34.823529
G01 X50.372774 Y-15.767176 Z34.823529
G01 X50.627226 Y-15.767176 Z34.666667
G01 X51.899491 Y-15.767176 Z34.666667
G01 X52.153944 Y-15.767176 Z34.509804
G01 X53.426209 Y-15.767176 Z34.509804
G01 X53.680662 Y-15.767176 Z37.019608
G01 X53.935115 Y-15.767176 Z38.901961
G01 X54.189567 Y-15.767176 Z39.058824
G01 X54.44402 Y-15.767176 Z39.215686
G01 X54.698473 Y-15.767176 Z39.215686
G01 X54.952926 Y-15.767176 Z39.372549
G01 X60.296438 Y-15.767176 Z39.372549
G01 X60.550891 Y-15.767176 Z39.215686
G01 X60.805344 Y-15.767176 Z39.058824
G01 X61.059796 Y-15.767176 Z38.901961
G01 X61.314249 Y-15.767176 Z38.901961
G01 X61.568702 Y-15.767176 Z38.745098
G01 X61.823155 Y-15.767176 Z38.588235
G01 X62.077608 Y-15.767176 Z38.588235
G01 X62.332061 Y-15.767176 Z38.431373
G01 X62.586514 Y-15.767176 Z38.431373
G01 X62.840967 Y-15.767176 Z38.27451
G01 X63.09542 Y-15.767176 Z37.490196
G01 X63.349873 Y-15.767176 Z33.882353
G01 X63.604326 Y-15.767176 Z32.784314
G01 X63.858779 Y-15.767176 Z32.784314
G01 X64.113232 Y-15.767176 Z32.627451
G01 X64.622137 Y-15.767176 Z32.627451
G01 X64.87659 Y-15.767176 Z32.470588
G01 X65.131043 Y-15.767176 Z32.313725
G01 X65.385496 Y-15.767176 Z32.156863
G01 X65.639949 Y-15.767176 Z32
G01 X65.894402 Y-15.767176 Z31.843137
G01 X66.148855 Y-15.767176 Z31.686275
G01 X66.403308 Y-15.767176 Z31.529412
G01 X66.657761 Y-15.767176 Z31.372549
G01 X66.912214 Y-15.767176 Z31.215686
G01 X67.166667 Y-15.767176 Z31.058824
G01 X67.42112 Y-15.767176 Z30.745098
G01 X67.675573 Y-15.767176 Z30.588235
G01 X67.930025 Y-15.767176 Z30.27451
G01 X68.184478 Y-15.767176 Z30.117647
G01 X68.438931 Y-15.767176 Z29.803922
G01 X68.693384 Y-15.767176 Z29.490196
G01 X68.947837 Y-15.767176 Z29.333333
G01 X69.20229 Y-15.767176 Z29.176471
G01 X69.456743 Y-15.767176 Z28.862745
G01 X69.711196 Y-15.767176 Z28.54902
G01 X69.965649 Y-15.767176 Z28.392157
G01 X70.220102 Y-15.767176 Z28.078431
G01 X70.474555 Y-15.767176 Z27.921569
G01 X70.729008 Y-15.767176 Z27.764706
G01 X70.983461 Y-15.767176 Z27.607843
G01 X71.237913 Y-15.767176 Z27.607843
G01 X71.492366 Y-15.767176 Z27.45098
G01 X71.746819 Y-15.767176 Z27.137255
G01 X72.001272 Y-15.767176 Z26.352941
G01 X72.255725 Y-15.767176 Z25.882353
G01 X72.510178 Y-15.767176 Z24.941176
G01 X72.764631 Y-15.767176 Z24.156863
G01 X73.019084 Y-15.767176 Z23.372549
G01 X73.273537 Y-15.767176 Z22.745098
G01 X73.52799 Y-15.767176 Z10.352941
G01 X73.782443 Y-15.767176 Z0
G01 X99.736641 Y-15.767176 Z0
G01 X99.736641 Y-16.021628 Z0
G01 X99.736641 Y-16.276081 Z0
G01 X74.291349 Y-16.276081 Z0
G01 X74.036896 Y-16.276081 Z12.54902
G01 X73.782443 Y-16.276081 Z22.901961
G01 X73.52799 Y-16.276081 Z24
G01 X73.273537 Y-16.276081 Z24.784314
G01 X73.019084 Y-16.276081 Z25.254902
G01 X72.764631 Y-16.276081 Z26.039216
G01 X72.510178 Y-16.276081 Z26.666667
G01 X72.255725 Y-16.276081 Z27.294118
G01 X72.001272 Y-16.276081 Z27.764706
G01 X71.746819 Y-16.276081 Z27.764706
G01 X71.492366 Y-16.276081 Z27.921569
G01 X71.237913 Y-16.276081 Z27.921569
G01 X70.983461 Y-16.276081 Z28.078431
G01 X70.474555 Y-16.276081 Z28.078431
G01 X70.220102 Y-16.276081 Z28.392157
G01 X69.965649 Y-16.276081 Z28.705882
G01 X69.711196 Y-16.276081 Z28.862745
G01 X69.456743 Y-16.276081 Z29.176471
G01 X69.20229 Y-16.276081 Z29.333333
G01 X68.947837 Y-16.276081 Z29.647059
G01 X68.693384 Y-16.276081 Z29.803922
G01 X68.438931 Y-16.276081 Z30.117647
G01 X68.184478 Y-16.276081 Z30.27451
G01 X67.930025 Y-16.276081 Z30.588235
G01 X67.675573 Y-16.276081 Z30.745098
G01 X67.42112 Y-16.276081 Z31.058824
G01 X67.166667 Y-16.276081 Z31.215686
G01 X66.912214 Y-16.276081 Z31.372549
G01 X66.657761 Y-16.276081 Z31.529412
G01 X66.403308 Y-16.276081 Z31.686275
G01 X66.148855 Y-16.276081 Z31.843137
G01 X65.894402 Y-16.276081 Z32
G01 X65.639949 Y-16.276081 Z32.156863
G01 X65.385496 Y-16.276081 Z32.313725
G01 X65.131043 Y-16.276081 Z32.470588
G01 X64.87659 Y-16.276081 Z32.627451
G01 X64.622137 Y-16.276081 Z32.784314
G01 X64.113232 Y-16.276081 Z32.784314
G01 X63.858779 Y-16.276081 Z32.941176
G01 X63.604326 Y-16.276081 Z34.196078
G01 X63.349873 Y-16.276081 Z37.960784
G01 X63.09542 Y-16.276081 Z38.27451
G01 X62.840967 Y-16.276081 Z38.431373
G01 X62.586514 Y-16.276081 Z38.431373
G01 X62.332061 Y-16.276081 Z38.588235
G01 X62.077608 Y-16.276081 Z38.745098
G01 X61.823155 Y-16.276081 Z38.901961
G01 X61.568702 Y-16.276081 Z38.901961
G01 X61.314249 Y-16.276081 Z39.058824
G01 X61.059796 Y-16.276081 Z39.215686
G01 X60.805344 Y-16.276081 Z39.215686
G01 X60.550891 Y-16.276081 Z39.372549
G01 X60.296438 Y-16.276081 Z39.529412
G01 X60.041985 Y-16.276081 Z39.686275
G01 X59.278626 Y-16.276081 Z39.686275
G01 X59.024173 Y-16.276081 Z39.529412
G01 X54.952926 Y-16.276081 Z39.529412
G01 X54.698473 Y-16.276081 Z39.372549
G01 X54.44402 Y-16.276081 Z39.215686
G01 X54.189567 Y-16.276081 Z39.215686
G01 X53.935115 Y-16.276081 Z39.058824
G01 X53.680662 Y-16.276081 Z38.901961
G01 X53.426209 Y-16.276081 Z38.27451
G01 X53.171756 Y-16.276081 Z34.666667
G01 X52.917303 Y-16.276081 Z34.823529
G01 X51.645038 Y-16.276081 Z34.823529
G01 X51.390585 Y-16.276081 Z34.980392
G01 X48.33715 Y-16.276081 Z34.980392
G01 X48.082697 Y-16.276081 Z34.823529
G01 X47.573791 Y-16.276081 Z34.823529
G01 X47.319338 Y-16.276081 Z34.666667
G01 X46.55598 Y-16.276081 Z34.666667
G01 X46.301527 Y-16.276081 Z34.509804
G01 X45.792621 Y-16.276081 Z34.509804
G01 X45.538168 Y-16.276081 Z37.490196
G01 X45.283715 Y-16.276081 Z38.901961
G01 X45.029262 Y-16.276081 Z39.058824
G01 X44.774809 Y-16.276081 Z39.058824
G01 X44.520356 Y-16.276081 Z39.215686
G01 X44.265903 Y-16.276081 Z39.372549
G01 X44.01145 Y-16.276081 Z39.372549
G01 X43.756997 Y-16.276081 Z39.529412
G01 X38.667939 Y-16.276081 Z39.529412
G01 X38.413486 Y-16.276081 Z39.372549
G01 X38.159033 Y-16.276081 Z39.215686
G01 X37.90458 Y-16.276081 Z39.215686
G01 X37.650127 Y-16.276081 Z39.058824
G01 X37.395674 Y-16.276081 Z39.058824
G01 X37.141221 Y-16.276081 Z38.901961
G01 X36.886768 Y-16.276081 Z38.745098
G01 X36.632316 Y-16.276081 Z38.745098
G01 X36.377863 Y-16.276081 Z38.588235
G01 X36.12341 Y-16.276081 Z38.431373
G01 X35.868957 Y-16.276081 Z38.27451
G01 X35.614504 Y-16.276081 Z38.117647
G01 X35.360051 Y-16.276081 Z35.921569
G01 X35.105598 Y-16.276081 Z32.784314
G01 X34.342239 Y-16.276081 Z32.784314
G01 X34.087786 Y-16.276081 Z32.627451
G01 X33.833333 Y-16.276081 Z32.470588
G01 X33.57888 Y-16.276081 Z32.313725
G01 X33.324427 Y-16.276081 Z32.156863
G01 X33.069975 Y-16.276081 Z32
G01 X32.815522 Y-16.276081 Z31.843137
G01 X32.561069 Y-16.276081 Z31.843137
G01 X32.306616 Y-16.276081 Z31.529412
G01 X32.052163 Y-16.276081 Z31.372549
G01 X31.79771 Y-16.276081 Z31.372549
G01 X31.543257 Y-16.276081 Z31.058824
G01 X31.288804 Y-16.276081 Z30.901961
G01 X31.034351 Y-16.276081 Z30.588235
G01 X30.779898 Y-16.276081 Z30.431373
G01 X30.525445 Y-16.276081 Z30.27451
G01 X30.270992 Y-16.276081 Z29.960784
G01 X30.016539 Y-16.276081 Z29.647059
G01 X29.762087 Y-16.276081 Z29.490196
G01 X29.507634 Y-16.276081 Z29.176471
G01 X29.253181 Y-16.276081 Z28.862745
G01 X28.998728 Y-16.276081 Z28.705882
G01 X28.744275 Y-16.276081 Z28.54902
G01 X28.489822 Y-16.276081 Z28.235294
G01 X28.235369 Y-16.276081 Z28.078431
G01 X27.980916 Y-16.276081 Z28.078431
G01 X27.726463 Y-16.276081 Z27.921569
G01 X27.47201 Y-16.276081 Z27.921569
G01 X27.217557 Y-16.276081 Z27.764706
G01 X26.963104 Y-16.276081 Z27.764706
G01 X26.708651 Y-16.276081 Z27.294118
G01 X26.454198 Y-16.276081 Z26.823529
G01 X26.199746 Y-16.276081 Z25.882353
G01 X25.945293 Y-16.276081 Z25.098039
G01 X25.69084 Y-16.276081 Z24.627451
G01 X25.436387 Y-16.276081 Z24
G01 X25.181934 Y-16.276081 Z23.372549
G01 X24.927481 Y-16.276081 Z20.235294
G01 X24.673028 Y-16.276081 Z14.745098
G01 X24.418575 Y-16.276081 Z0
G01 X0.245547 Y-16.276081 Z0
G01 X0.245547 Y-16.530534 Z0
G01 X0.245547 Y-16.784987 Z0
G01 X23.909669 Y-16.784987 Z0
G01 X24.164122 Y-16.784987 Z12.392157
G01 X24.418575 Y-16.784987 Z23.372549
G01 X24.673028 Y-16.784987 Z23.843137
G01 X24.927481 Y-16.784987 Z24.470588
G01 X25.181934 Y-16.784987 Z24.941176
G01 X25.436387 Y-16.784987 Z25.568627
G01 X25.69084 Y-16.784987 Z26.352941
G01 X25.945293 Y-16.784987 Z27.137255
G01 X26.199746 Y-16.784987 Z27.607843
G01 X26.454198 Y-16.784987 Z27.921569
G01 X26.708651 Y-16.784987 Z27.921569
G01 X26.963104 Y-16.784987 Z28.078431
G01 X27.217557 Y-16.784987 Z28.078431
G01 X27.47201 Y-16.784987 Z28.235294
G01 X27.980916 Y-16.784987 Z28.235294
G01 X28.235369 Y-16.784987 Z28.392157
G01 X28.489822 Y-16.784987 Z28.54902
G01 X28.744275 Y-16.784987 Z28.705882
G01 X28.998728 Y-16.784987 Z29.019608
G01 X29.253181 Y-16.784987 Z29.176471
G01 X29.507634 Y-16.784987 Z29.490196
G01 X29.762087 Y-16.784987 Z29.647059
G01 X30.016539 Y-16.784987 Z29.960784
G01 X30.270992 Y-16.784987 Z30.27451
G01 X30.525445 Y-16.784987 Z30.431373
G01 X30.779898 Y-16.784987 Z30.588235
G01 X31.034351 Y-16.784987 Z30.901961
G01 X31.288804 Y-16.784987 Z31.058824
G01 X31.543257 Y-16.784987 Z31.372549
G01 X31.79771 Y-16.784987 Z31.372549
G01 X32.052163 Y-16.784987 Z31.686275
G01 X32.306616 Y-16.784987 Z31.843137
G01 X32.561069 Y-16.784987 Z32
G01 X32.815522 Y-16.784987 Z32
G01 X33.069975 Y-16.784987 Z32.156863
G01 X33.324427 Y-16.784987 Z32.470588
G01 X33.57888 Y-16.784987 Z32.470588
G01 X33.833333 Y-16.784987 Z32.627451
G01 X34.087786 Y-16.784987 Z32.784314
G01 X34.342239 Y-16.784987 Z32.941176
G01 X34.596692 Y-16.784987 Z32.941176
G01 X34.851145 Y-16.784987 Z35.45098
G01 X35.105598 Y-16.784987 Z38.27451
G01 X35.360051 Y-16.784987 Z38.27451
G01 X35.614504 Y-16.784987 Z38.431373
G01 X35.868957 Y-16.784987 Z38.431373
G01 X36.12341 Y-16.784987 Z38.588235
G01 X36.377863 Y-16.784987 Z38.745098
G01 X36.632316 Y-16.784987 Z38.745098
G01 X36.886768 Y-16.784987 Z38.901961
G01 X37.141221 Y-16.784987 Z39.058824
G01 X37.395674 Y-16.784987 Z39.215686
G01 X37.650127 Y-16.784987 Z39.215686
G01 X37.90458 Y-16.784987 Z39.372549
G01 X38.159033 Y-16.784987 Z39.529412
G01 X38.413486 Y-16.784987 Z39.529412
G01 X38.667939 Y-16.784987 Z39.686275
G01 X43.756997 Y-16.784987 Z39.686275
G01 X44.01145 Y-16.784987 Z39.529412
G01 X44.265903 Y-16.784987 Z39.372549
G01 X44.520356 Y-16.784987 Z39.372549
G01 X44.774809 Y-16.784987 Z39.215686
G01 X45.029262 Y-16.784987 Z39.058824
G01 X45.283715 Y-16.784987 Z38.901961
G01 X45.538168 Y-16.784987 Z38.901961
G01 X45.792621 Y-16.784987 Z37.490196
G01 X46.047074 Y-16.784987 Z34.980392
G01 X46.301527 Y-16.784987 Z34.666667
G01 X46.55598 Y-16.784987 Z34.823529
G01 X47.064885 Y-16.784987 Z34.823529
G01 X47.319338 Y-16.784987 Z34.980392
G01 X48.082697 Y-16.784987 Z34.980392
G01 X48.33715 Y-16.784987 Z35.137255
G01 X51.390585 Y-16.784987 Z35.137255
G01 X51.645038 Y-16.784987 Z34.980392
G01 X52.917303 Y-16.784987 Z34.980392
G01 X53.171756 Y-16.784987 Z36.235294
G01 X53.426209 Y-16.784987 Z38.901961
G01 X53.680662 Y-16.784987 Z39.058824
G01 X53.935115 Y-16.784987 Z39.215686
G01 X54.189567 Y-16.784987 Z39.215686
G01 X54.44402 Y-16.784987 Z39.372549
G01 X54.698473 Y-16.784987 Z39.529412
G01 X54.952926 Y-16.784987 Z39.529412
G01 X55.207379 Y-16.784987 Z39.686275
G01 X60.296438 Y-16.784987 Z39.686275
G01 X60.550891 Y-16.784987 Z39.529412
G01 X60.805344 Y-16.784987 Z39.372549
G01 X61.059796 Y-16.784987 Z39.372549
G01 X61.314249 Y-16.784987 Z39.215686
G01 X61.568702 Y-16.784987 Z39.058824
G01 X61.823155 Y-16.784987 Z38.901961
G01 X62.077608 Y-16.784987 Z38.901961
G01 X62.332061 Y-16.784987 Z38.745098
G01 X62.586514 Y-16.784987 Z38.745098
G01 X62.840967 Y-16.784987 Z38.588235
G01 X63.09542 Y-16.784987 Z38.431373
G01 X63.349873 Y-16.784987 Z38.431373
G01 X63.604326 Y-16.784987 Z38.27451
G01 X63.858779 Y-16.784987 Z38.117647
G01 X64.113232 Y-16.784987 Z34.509804
G01 X64.367684 Y-16.784987 Z32.941176
G01 X64.622137 Y-16.784987 Z32.941176
G01 X64.87659 Y-16.784987 Z32.784314
G01 X65.131043 Y-16.784987 Z32.627451
G01 X65.385496 Y-16.784987 Z32.470588
G01 X65.639949 Y-16.784987 Z32.313725
G01 X65.894402 Y-16.784987 Z32.156863
G01 X66.148855 Y-16.784987 Z32
G01 X66.403308 Y-16.784987 Z31.843137
G01 X66.657761 Y-16.784987 Z31.686275
G01 X66.912214 Y-16.784987 Z31.529412
G01 X67.166667 Y-16.784987 Z31.372549
G01 X67.42112 Y-16.784987 Z31.215686
G01 X67.675573 Y-16.784987 Z31.058824
G01 X67.930025 Y-16.784987 Z30.745098
G01 X68.184478 Y-16.784987 Z30.588235
G01 X68.438931 Y-16.784987 Z30.27451
G01 X68.693384 Y-16.784987 Z30.117647
G01 X68.947837 Y-16.784987 Z29.803922
G01 X69.20229 Y-16.784987 Z29.647059
G01 X69.456743 Y-16.784987 Z29.333333
G01 X69.711196 Y-16.784987 Z29.019608
G01 X69.965649 Y-16.784987 Z28.862745
G01 X70.220102 Y-16.784987 Z28.705882
G01 X70.474555 Y-16.784987 Z28.54902
G01 X70.729008 Y-16.784987 Z28.235294
G01 X71.237913 Y-16.784987 Z28.235294
G01 X71.492366 Y-16.784987 Z28.078431
G01 X72.001272 Y-16.784987 Z28.078431
G01 X72.255725 Y-16.784987 Z27.921569
G01 X72.510178 Y-16.784987 Z27.921569
G01 X72.764631 Y-16.784987 Z27.607843
G01 X73.019084 Y-16.784987 Z26.980392
G01 X73.273537 Y-16.784987 Z26.509804
G01 X73.52799 Y-16.784987 Z25.72549
G01 X73.782443 Y-16.784987 Z24.941176
G01 X74.036896 Y-16.784987 Z24.470588
G01 X74.291349 Y-16.784987 Z23.686275
G01 X74.545802 Y-16.784987 Z10.980392
G01 X74.800254 Y-16.784987 Z7.843137
G01 X75.054707 Y-16.784987 Z0
G01 X99.736641 Y-16.784987 Z0
G01 X99.736641 Y-17.03944 Z0
G01 X99.736641 Y-17.293893 Z0
G01 X75.563613 Y-17.293893 Z0
G01 X75.30916 Y-17.293893 Z6.901961
G01 X75.054707 Y-17.293893 Z22.745098
G01 X74.800254 Y-17.293893 Z24.156863
G01 X74.545802 Y-17.293893 Z24.784314
G01 X74.291349 Y-17.293893 Z25.568627
G01 X74.036896 Y-17.293893 Z26.196078
G01 X73.782443 Y-17.293893 Z26.666667
G01 X73.52799 Y-17.293893 Z27.294118
G01 X73.273537 Y-17.293893 Z27.764706
G01 X73.019084 Y-17.293893 Z27.921569
G01 X72.764631 Y-17.293893 Z28.235294
G01 X72.255725 Y-17.293893 Z28.235294
G01 X72.001272 Y-17.293893 Z28.392157
G01 X71.492366 Y-17.293893 Z28.392157
G01 X71.237913 Y-17.293893 Z28.54902
G01 X70.729008 Y-17.293893 Z28.54902
G01 X70.474555 Y-17.293893 Z28.705882
G01 X70.220102 Y-17.293893 Z28.862745
G01 X69.965649 Y-17.293893 Z29.176471
G01 X69.711196 Y-17.293893 Z29.333333
G01 X69.456743 Y-17.293893 Z29.647059
G01 X69.20229 Y-17.293893 Z29.803922
G01 X68.947837 Y-17.293893 Z30.117647
G01 X68.693384 Y-17.293893 Z30.27451
G01 X68.438931 Y-17.293893 Z30.588235
G01 X68.184478 Y-17.293893 Z30.901961
G01 X67.930025 Y-17.293893 Z31.058824
G01 X67.675573 Y-17.293893 Z31.215686
G01 X67.42112 Y-17.293893 Z31.372549
G01 X67.166667 Y-17.293893 Z31.686275
G01 X66.912214 Y-17.293893 Z31.686275
G01 X66.657761 Y-17.293893 Z31.843137
G01 X66.403308 Y-17.293893 Z32
G01 X66.148855 Y-17.293893 Z32.156863
G01 X65.894402 Y-17.293893 Z32.313725
G01 X65.639949 Y-17.293893 Z32.470588
G01 X65.385496 Y-17.293893 Z32.627451
G01 X65.131043 Y-17.293893 Z32.784314
G01 X64.87659 Y-17.293893 Z37.490196
G01 X64.622137 Y-17.293893 Z37.647059
G01 X64.367684 Y-17.293893 Z37.960784
G01 X64.113232 Y-17.293893 Z38.27451
G01 X63.858779 Y-17.293893 Z38.27451
G01 X63.604326 Y-17.293893 Z38.431373
G01 X63.349873 Y-17.293893 Z38.588235
G01 X63.09542 Y-17.293893 Z38.745098
G01 X62.840967 Y-17.293893 Z38.745098
G01 X62.586514 Y-17.293893 Z38.901961
G01 X62.332061 Y-17.293893 Z39.058824
G01 X62.077608 Y-17.293893 Z39.058824
G01 X61.823155 Y-17.293893 Z39.215686
G01 X61.568702 Y-17.293893 Z39.215686
G01 X61.314249 Y-17.293893 Z39.372549
G01 X61.059796 Y-17.293893 Z39.529412
G01 X60.805344 Y-17.293893 Z39.529412
G01 X60.550891 Y-17.293893 Z39.686275
G01 X60.296438 Y-17.293893 Z39.686275
G01 X60.041985 Y-17.293893 Z39.843137
G01 X55.207379 Y-17.293893 Z39.843137
G01 X54.952926 Y-17.293893 Z39.686275
G01 X54.698473 Y-17.293893 Z39.529412
G01 X54.44402 Y-17.293893 Z39.372549
G01 X54.189567 Y-17.293893 Z39.372549
G01 X53.935115 Y-17.293893 Z39.215686
G01 X53.680662 Y-17.293893 Z39.058824
G01 X53.426209 Y-17.293893 Z39.058824
G01 X53.171756 Y-17.293893 Z38.901961
G01 X52.917303 Y-17.293893 Z37.019608
G01 X52.66285 Y-17.293893 Z35.137255
G01 X52.408397 Y-17.293893 Z35.294118
G01 X50.881679 Y-17.293893 Z35.294118
G01 X50.627226 Y-17.293893 Z35.45098
G01 X48.591603 Y-17.293893 Z35.45098
G01 X48.33715 Y-17.293893 Z35.294118
G01 X47.828244 Y-17.293893 Z35.294118
G01 X47.573791 Y-17.293893 Z35.137255
G01 X47.064885 Y-17.293893 Z35.137255
G01 X46.810433 Y-17.293893 Z34.980392
G01 X46.301527 Y-17.293893 Z34.980392
G01 X46.047074 Y-17.293893 Z35.607843
G01 X45.792621 Y-17.293893 Z38.745098
G01 X45.538168 Y-17.293893 Z38.901961
G01 X45.283715 Y-17.293893 Z39.058824
G01 X45.029262 Y-17.293893 Z39.215686
G01 X44.774809 Y-17.293893 Z39.215686
G01 X44.520356 Y-17.293893 Z39.372549
G01 X44.265903 Y-17.293893 Z39.529412
G01 X44.01145 Y-17.293893 Z39.529412
G01 X43.756997 Y-17.293893 Z39.686275
G01 X43.502545 Y-17.293893 Z39.843137
G01 X38.922392 Y-17.293893 Z39.843137
G01 X38.667939 Y-17.293893 Z39.686275
G01 X38.413486 Y-17.293893 Z39.686275
G01 X38.159033 Y-17.293893 Z39.529412
G01 X37.90458 Y-17.293893 Z39.529412
G01 X37.650127 Y-17.293893 Z39.372549
G01 X37.395674 Y-17.293893 Z39.372549
G01 X37.141221 Y-17.293893 Z39.215686
G01 X36.886768 Y-17.293893 Z39.058824
G01 X36.632316 Y-17.293893 Z39.058824
G01 X36.377863 Y-17.293893 Z38.901961
G01 X36.12341 Y-17.293893 Z38.745098
G01 X35.868957 Y-17.293893 Z38.745098
G01 X35.614504 Y-17.293893 Z38.588235
G01 X35.360051 Y-17.293893 Z38.588235
G01 X35.105598 Y-17.293893 Z38.27451
G01 X34.851145 Y-17.293893 Z38.27451
G01 X34.596692 Y-17.293893 Z38.117647
G01 X34.342239 Y-17.293893 Z37.647059
G01 X34.087786 Y-17.293893 Z34.509804
G01 X33.833333 Y-17.293893 Z32.784314
G01 X33.57888 Y-17.293893 Z32.784314
G01 X33.324427 Y-17.293893 Z32.627451
G01 X33.069975 Y-17.293893 Z32.313725
G01 X32.815522 Y-17.293893 Z32.313725
G01 X32.561069 Y-17.293893 Z32.156863
G01 X32.306616 Y-17.293893 Z32
G01 X32.052163 Y-17.293893 Z31.686275
G01 X31.79771 Y-17.293893 Z31.686275
G01 X31.543257 Y-17.293893 Z31.529412
G01 X31.288804 Y-17.293893 Z31.215686
G01 X31.034351 Y-17.293893 Z31.058824
G01 X30.779898 Y-17.293893 Z30.901961
G01 X30.525445 Y-17.293893 Z30.745098
G01 X30.270992 Y-17.293893 Z30.431373
G01 X30.016539 Y-17.293893 Z30.117647
G01 X29.762087 Y-17.293893 Z29.960784
G01 X29.507634 Y-17.293893 Z29.803922
G01 X29.253181 Y-17.293893 Z29.490196
G01 X28.998728 Y-17.293893 Z29.176471
G01 X28.744275 Y-17.293893 Z29.019608
G01 X28.489822 Y-17.293893 Z28.862745
G01 X28.235369 Y-17.293893 Z28.705882
G01 X27.980916 Y-17.293893 Z28.54902
G01 X27.47201 Y-17.293893 Z28.54902
G01 X27.217557 Y-17.293893 Z28.392157
G01 X26.708651 Y-17.293893 Z28.392157
G01 X26.454198 Y-17.293893 Z28.235294
G01 X26.199746 Y-17.293893 Z28.235294
G01 X25.945293 Y-17.293893 Z28.078431
G01 X25.69084 Y-17.293893 Z27.764706
G01 X25.436387 Y-17.293893 Z27.294118
G01 X25.181934 Y-17.293893 Z26.509804
G01 X24.927481 Y-17.293893 Z26.039216
G01 X24.673028 Y-17.293893 Z25.411765
G01 X24.418575 Y-17.293893 Z24.784314
G01 X24.164122 Y-17.293893 Z24.156863
G01 X23.909669 Y-17.293893 Z23.529412
G01 X23.655216 Y-17.293893 Z15.058824
G01 X23.400763 Y-17.293893 Z0
G01 X0.245547 Y-17.293893 Z0
G01 X0.245547 Y-17.548346 Z0
G01 X0.245547 Y-17.802799 Z0
G01 X22.891858 Y-17.802799 Z0
G01 X23.14631 Y-17.802799 Z4.078431
G01 X23.400763 Y-17.802799 Z24
G01 X23.655216 Y-17.802799 Z24.627451
G01 X23.909669 Y-17.802799 Z25.411765
G01 X24.164122 Y-17.802799 Z25.882353
G01 X24.418575 Y-17.802799 Z26.352941
G01 X24.673028 Y-17.802799 Z26.980392
G01 X24.927481 Y-17.802799 Z27.764706
G01 X25.181934 Y-17.802799 Z28.078431
G01 X25.436387 Y-17.802799 Z28.235294
G01 X25.69084 Y-17.802799 Z28.392157
G01 X26.199746 Y-17.802799 Z28.392157
G01 X26.454198 Y-17.802799 Z28.54902
G01 X26.963104 Y-17.802799 Z28.54902
G01 X27.217557 Y-17.802799 Z28.705882
G01 X27.726463 Y-17.802799 Z28.705882
G01 X27.980916 Y-17.802799 Z28.862745
G01 X28.235369 Y-17.802799 Z28.862745
G01 X28.489822 Y-17.802799 Z29.019608
G01 X28.744275 Y-17.802799 Z29.176471
G01 X28.998728 Y-17.802799 Z29.490196
G01 X29.253181 Y-17.802799 Z29.803922
G01 X29.507634 Y-17.802799 Z29.960784
G01 X29.762087 Y-17.802799 Z30.117647
G01 X30.016539 Y-17.802799 Z30.431373
G01 X30.270992 Y-17.802799 Z30.745098
G01 X30.525445 Y-17.802799 Z30.901961
G01 X30.779898 Y-17.802799 Z31.058824
G01 X31.034351 Y-17.802799 Z31.372549
G01 X31.288804 Y-17.802799 Z31.529412
G01 X31.543257 Y-17.802799 Z31.686275
G01 X31.79771 Y-17.802799 Z31.843137
G01 X32.052163 Y-17.802799 Z32
G01 X32.306616 Y-17.802799 Z32.156863
G01 X32.561069 Y-17.802799 Z32.313725
G01 X32.815522 Y-17.802799 Z32.313725
G01 X33.069975 Y-17.802799 Z32.627451
G01 X33.324427 Y-17.802799 Z32.784314
G01 X33.57888 Y-17.802799 Z34.666667
G01 X33.833333 Y-17.802799 Z37.960784
G01 X34.087786 Y-17.802799 Z38.117647
G01 X34.342239 Y-17.802799 Z38.27451
G01 X34.596692 Y-17.802799 Z38.27451
G01 X34.851145 Y-17.802799 Z38.431373
G01 X35.105598 Y-17.802799 Z38.588235
G01 X35.360051 Y-17.802799 Z38.588235
G01 X35.614504 Y-17.802799 Z38.745098
G01 X35.868957 Y-17.802799 Z38.901961
G01 X36.12341 Y-17.802799 Z39.058824
G01 X36.377863 Y-17.802799 Z39.058824
G01 X36.632316 Y-17.802799 Z39.215686
G01 X36.886768 Y-17.802799 Z39.372549
G01 X37.141221 Y-17.802799 Z39.372549
G01 X37.395674 Y-17.802799 Z39.529412
G01 X37.650127 Y-17.802799 Z39.529412
G01 X37.90458 Y-17.802799 Z39.686275
G01 X38.667939 Y-17.802799 Z39.686275
G01 X38.922392 Y-17.802799 Z39.843137
G01 X41.212468 Y-17.802799 Z39.843137
G01 X41.466921 Y-17.802799 Z40
G01 X43.502545 Y-17.802799 Z40
G01 X43.756997 Y-17.802799 Z39.843137
G01 X44.01145 Y-17.802799 Z39.686275
G01 X44.265903 Y-17.802799 Z39.529412
G01 X44.520356 Y-17.802799 Z39.529412
G01 X44.774809 Y-17.802799 Z39.372549
G01 X45.029262 Y-17.802799 Z39.215686
G01 X45.283715 Y-17.802799 Z39.058824
G01 X45.538168 Y-17.802799 Z39.058824
G01 X45.792621 Y-17.802799 Z38.901961
G01 X46.047074 Y-17.802799 Z38.27451
G01 X46.301527 Y-17.802799 Z36.54902
G01 X46.55598 Y-17.802799 Z35.137255
G01 X46.810433 Y-17.802799 Z35.294118
G01 X47.319338 Y-17.802799 Z35.294118
G01 X47.573791 Y-17.802799 Z35.45098
G01 X48.33715 Y-17.802799 Z35.45098
G01 X48.591603 Y-17.802799 Z35.607843
G01 X50.881679 Y-17.802799 Z35.607843
G01 X51.136132 Y-17.802799 Z35.45098
G01 X52.153944 Y-17.802799 Z35.45098
G01 X52.408397 Y-17.802799 Z35.294118
G01 X52.66285 Y-17.802799 Z35.764706
G01 X52.917303 Y-17.802799 Z37.960784
G01 X53.171756 Y-17.802799 Z38.901961
G01 X53.426209 Y-17.802799 Z39.058824
G01 X53.680662 Y-17.802799 Z39.215686
G01 X53.935115 Y-17.802799 Z39.372549
G01 X54.189567 Y-17.802799 Z39.372549
G01 X54.44402 Y-17.802799 Z39.529412
G01 X54.698473 Y-17.802799 Z39.686275
G01 X54.952926 Y-17.802799 Z39.686275
G01 X55.207379 Y-17.802799 Z39.843137
G01 X55.461832 Y-17.802799 Z40
G01 X57.243003 Y-17.802799 Z40
G01 X57.497455 Y-17.802799 Z39.843137
G01 X60.041985 Y-17.802799 Z39.843137
G01 X60.296438 Y-17.802799 Z39.686275
G01 X61.059796 Y-17.802799 Z39.686275
G01 X61.314249 Y-17.802799 Z39.529412
G01 X61.568702 Y-17.802799 Z39.529412
G01 X61.823155 Y-17.802799 Z39.372549
G01 X62.077608 Y-17.802799 Z39.215686
G01 X62.332061 Y-17.802799 Z39.215686
G01 X62.586514 Y-17.802799 Z39.058824
G01 X62.840967 Y-17.802799 Z38.901961
G01 X63.09542 Y-17.802799 Z38.745098
G01 X63.349873 Y-17.802799 Z38.745098
G01 X63.604326 Y-17.802799 Z38.588235
G01 X63.858779 Y-17.802799 Z38.431373
G01 X64.113232 Y-17.802799 Z38.431373
G01 X64.367684 Y-17.802799 Z38.27451
G01 X64.622137 Y-17.802799 Z38.117647
G01 X64.87659 Y-17.802799 Z38.117647
G01 X65.131043 Y-17.802799 Z37.960784
G01 X65.385496 Y-17.802799 Z36.392157
G01 X65.639949 Y-17.802799 Z33.098039
G01 X65.894402 Y-17.802799 Z32.470588
G01 X66.148855 Y-17.802799 Z32.313725
G01 X66.403308 Y-17.802799 Z32.156863
G01 X66.657761 Y-17.802799 Z32
G01 X66.912214 Y-17.802799 Z31.843137
G01 X67.166667 Y-17.802799 Z31.843137
G01 X67.42112 Y-17.802799 Z31.529412
G01 X67.675573 Y-17.802799 Z31.372549
G01 X67.930025 Y-17.802799 Z31.372549
G01 X68.184478 Y-17.802799 Z31.058824
G01 X68.438931 Y-17.802799 Z30.901961
G01 X68.693384 Y-17.802799 Z30.588235
G01 X68.947837 Y-17.802799 Z30.431373
G01 X69.20229 Y-17.802799 Z30.117647
G01 X69.456743 Y-17.802799 Z29.960784
G01 X69.711196 Y-17.802799 Z29.647059
G01 X69.965649 Y-17.802799 Z29.333333
G01 X70.220102 Y-17.802799 Z29.176471
G01 X70.474555 Y-17.802799 Z29.019608
G01 X70.729008 Y-17.802799 Z28.862745
G01 X70.983461 Y-17.802799 Z28.862745
G01 X71.237913 Y-17.802799 Z28.705882
G01 X71.492366 Y-17.802799 Z28.705882
G01 X71.746819 Y-17.802799 Z28.54902
G01 X72.510178 Y-17.802799 Z28.54902
G01 X72.764631 Y-17.802799 Z28.392157
G01 X73.273537 Y-17.802799 Z28.392157
G01 X73.52799 Y-17.802799 Z28.235294
G01 X73.782443 Y-17.802799 Z28.235294
G01 X74.036896 Y-17.802799 Z27.607843
G01 X74.291349 Y-17.802799 Z26.980392
G01 X74.545802 Y-17.802799 Z26.352941
G01 X74.800254 Y-17.802799 Z25.72549
G01 X75.054707 Y-17.802799 Z25.254902
G01 X75.30916 Y-17.802799 Z24.470588
G01 X75.563613 Y-17.802799 Z23.686275
G01 X75.818066 Y-17.802799 Z0
G01 X99.736641 Y-17.802799 Z0
G01 X99.736641 Y-18.057252 Z0
G01 X99.736641 Y-18.311705 Z0
G01 X76.072519 Y-18.311705 Z0
G01 X75.818066 Y-18.311705 Z18.352941
G01 X75.563613 Y-18.311705 Z25.568627
G01 X75.30916 Y-18.311705 Z26.196078
G01 X75.054707 Y-18.311705 Z26.823529
G01 X74.800254 Y-18.311705 Z27.294118
G01 X74.545802 Y-18.311705 Z27.921569
G01 X74.291349 Y-18.311705 Z28.392157
G01 X74.036896 Y-18.311705 Z28.54902
G01 X73.273537 Y-18.311705 Z28.54902
G01 X73.019084 Y-18.311705 Z28.705882
G01 X72.510178 Y-18.311705 Z28.705882
G01 X72.255725 Y-18.311705 Z28.862745
G01 X72.001272 Y-18.311705 Z28.862745
G01 X71.746819 Y-18.311705 Z29.019608
G01 X71.237913 Y-18.311705 Z29.019608
G01 X70.983461 Y-18.311705 Z29.176471
G01 X70.474555 Y-18.311705 Z29.176471
G01 X70.220102 Y-18.311705 Z29.333333
G01 X69.965649 Y-18.311705 Z29.647059
G01 X69.711196 Y-18.311705 Z29.960784
G01 X69.456743 Y-18.311705 Z30.117647
G01 X69.20229 Y-18.311705 Z30.431373
G01 X68.947837 Y-18.311705 Z30.588235
G01 X68.693384 Y-18.311705 Z30.901961
G01 X68.438931 Y-18.311705 Z31.058824
G01 X68.184478 Y-18.311705 Z31.372549
G01 X67.930025 Y-18.311705 Z31.529412
G01 X67.675573 Y-18.311705 Z31.529412
G01 X67.42112 Y-18.311705 Z31.686275
G01 X67.166667 Y-18.311705 Z32
G01 X66.912214 Y-18.311705 Z32.156863
G01 X66.657761 Y-18.311705 Z32.156863
G01 X66.403308 Y-18.311705 Z32.313725
G01 X66.148855 Y-18.311705 Z32.470588
G01 X65.894402 Y-18.311705 Z32.627451
G01 X65.639949 Y-18.311705 Z37.803922
G01 X65.385496 Y-18.311705 Z37.960784
G01 X65.131043 Y-18.311705 Z38.117647
G01 X64.87659 Y-18.311705 Z38.27451
G01 X64.622137 Y-18.311705 Z38.431373
G01 X64.367684 Y-18.311705 Z38.431373
G01 X64.113232 Y-18.311705 Z38.588235
G01 X63.858779 Y-18.311705 Z38.745098
G01 X63.604326 Y-18.311705 Z38.745098
G01 X63.349873 Y-18.311705 Z38.901961
G01 X63.09542 Y-18.311705 Z39.058824
G01 X62.840967 Y-18.311705 Z39.215686
G01 X62.586514 Y-18.311705 Z39.215686
G01 X62.332061 Y-18.311705 Z39.372549
G01 X62.077608 Y-18.311705 Z39.529412
G01 X61.314249 Y-18.311705 Z39.529412
G01 X61.059796 Y-18.311705 Z39.686275
G01 X59.278626 Y-18.311705 Z39.686275
G01 X59.024173 Y-18.311705 Z39.843137
G01 X57.497455 Y-18.311705 Z39.843137
G01 X57.243003 Y-18.311705 Z40
G01 X55.207379 Y-18.311705 Z40
G01 X54.952926 Y-18.311705 Z39.843137
G01 X54.698473 Y-18.311705 Z39.686275
G01 X54.44402 Y-18.311705 Z39.529412
G01 X54.189567 Y-18.311705 Z39.529412
G01 X53.935115 Y-18.311705 Z39.372549
G01 X53.680662 Y-18.311705 Z39.215686
G01 X53.426209 Y-18.311705 Z39.215686
G01 X53.171756 Y-18.311705 Z39.058824
G01 X52.917303 Y-18.311705 Z38.901961
G01 X52.66285 Y-18.311705 Z38.745098
G01 X52.408397 Y-18.311705 Z35.607843
G01 X51.645038 Y-18.311705 Z35.607843
G01 X51.390585 Y-18.311705 Z35.764706
G01 X50.118321 Y-18.311705 Z35.764706
G01 X49.863868 Y-18.311705 Z35.921569
G01 X49.100509 Y-18.311705 Z35.921569
G01 X48.846056 Y-18.311705 Z35.764706
G01 X48.082697 Y-18.311705 Z35.764706
G01 X47.828244 Y-18.311705 Z35.607843
G01 X47.319338 Y-18.311705 Z35.607843
G01 X47.064885 Y-18.311705 Z35.45098
G01 X46.810433 Y-18.311705 Z35.45098
G01 X46.55598 Y-18.311705 Z37.647059
G01 X46.301527 Y-18.311705 Z38.745098
G01 X46.047074 Y-18.311705 Z38.901961
G01 X45.792621 Y-18.311705 Z38.901961
G01 X45.538168 Y-18.311705 Z39.215686
G01 X45.283715 Y-18.311705 Z39.215686
G01 X45.029262 Y-18.311705 Z39.372549
G01 X44.774809 Y-18.311705 Z39.372549
G01 X44.520356 Y-18.311705 Z39.529412
G01 X44.265903 Y-18.311705 Z39.686275
G01 X44.01145 Y-18.311705 Z39.843137
G01 X43.756997 Y-18.311705 Z40
G01 X41.466921 Y-18.311705 Z40
G01 X41.212468 Y-18.311705 Z39.843137
G01 X39.940204 Y-18.311705 Z39.843137
G01 X39.685751 Y-18.311705 Z39.686275
G01 X37.395674 Y-18.311705 Z39.686275
G01 X37.141221 Y-18.311705 Z39.529412
G01 X36.886768 Y-18.311705 Z39.529412
G01 X36.632316 Y-18.311705 Z39.372549
G01 X36.377863 Y-18.311705 Z39.372549
G01 X36.12341 Y-18.311705 Z39.215686
G01 X35.868957 Y-18.311705 Z39.058824
G01 X35.614504 Y-18.311705 Z38.901961
G01 X35.360051 Y-18.311705 Z38.901961
G01 X35.105598 Y-18.311705 Z38.745098
G01 X34.851145 Y-18.311705 Z38.588235
G01 X34.596692 Y-18.311705 Z38.588235
G01 X34.342239 Y-18.311705 Z38.431373
G01 X34.087786 Y-18.311705 Z38.27451
G01 X33.833333 Y-18.311705 Z38.27451
G01 X33.57888 Y-18.311705 Z38.117647
G01 X33.324427 Y-18.311705 Z37.960784
G01 X33.069975 Y-18.311705 Z34.352941
G01 X32.815522 Y-18.311705 Z32.470588
G01 X32.561069 Y-18.311705 Z32.470588
G01 X32.306616 Y-18.311705 Z32.313725
G01 X32.052163 Y-18.311705 Z32.156863
G01 X31.79771 Y-18.311705 Z32
G01 X31.543257 Y-18.311705 Z31.843137
G01 X31.288804 Y-18.311705 Z31.686275
G01 X31.034351 Y-18.311705 Z31.529412
G01 X30.779898 Y-18.311705 Z31.372549
G01 X30.525445 Y-18.311705 Z31.215686
G01 X30.270992 Y-18.311705 Z30.901961
G01 X30.016539 Y-18.311705 Z30.745098
G01 X29.762087 Y-18.311705 Z30.431373
G01 X29.507634 Y-18.311705 Z30.27451
