(Generated by PartKam Version 0.05)

G21 G90 G40

(follow path 1)
G0 Z15
T0 M6
G17
M3
G0 X0 Y0
G1 Z-2 F500
G1 X0 Y133.33248730964468 F1000
G0 Z15
G0 X13.333248730964467 Y0
G1 Z-2 F500
G1 X13.33248730964467 Y133.33248730964468 F1000
G0 Z15
G0 X26.666751269035533 Y0
G1 Z-2 F500
G1 X26.66751269035533 Y133.33248730964468 F1000
G0 Z15
G0 X40 Y0
G1 Z-2 F500
G1 X40 Y133.33248730964468 F1000
G0 Z15
G0 X53.33324873096447 Y0
G1 Z-2 F500
G1 X53.33248730964467 Y133.33248730964468 F1000
G0 Z15
G0 X66.66675126903553 Y0
G1 Z-2 F500
G1 X66.66751269035532 Y133.33248730964468 F1000
G0 Z15
G0 X80 Y0
G1 Z-2 F500
G1 X80 Y133.33248730964468 F1000
G0 Z15
G0 X93.33324873096447 Y0
G1 Z-2 F500
G1 X93.33248730964468 Y133.33248730964468 F1000
G0 Z15
G0 X106.66675126903553 Y0
G1 Z-2 F500
G1 X106.66751269035532 Y133.33248730964468 F1000
G0 Z15
G0 X120 Y0
G1 Z-2 F500
G1 X120 Y133.33248730964468 F1000
G0 Z15
G0 X133.33324873096447 Y0
G1 Z-2 F500
G1 X133.33248730964468 Y133.33248730964468 F1000
G0 Z15
M5
M30
