(Generated by PartKam Version 0.05)

G21 G90 G40

(pocket 1)
G0 Z10
T0 M6
G17
M3
G0 X49.769543147208125 Y49.443401015228424
G1 Z-1 F800
G3 X50 Y49.398477157360404 I0.23096446700507614 J0.5558375634517766 F1000
G3 X50.23096446700507 Y49.44416243654822 I0 J0.6015228426395939
G3 X50.42639593908629 Y49.57360406091371 I-0.23096446700507614 J0.5558375634517766
G3 X50.55583756345178 Y49.76903553299493 I-0.42639593908629436 J0.42639593908629436
G3 X50.601522842639596 Y50 I-0.5558375634517766 J0.23096446700507614
G3 X50.55583756345178 Y50.23096446700507 I-0.6015228426395939 J0
G3 X50.42639593908629 Y50.42639593908629 I-0.5558375634517766 J-0.23096446700507614
G3 X50.23096446700507 Y50.55583756345178 I-0.42639593908629436 J-0.42639593908629436
G3 X50 Y50.601522842639596 I-0.23096446700507614 J-0.5558375634517766
G3 X49.76903553299493 Y50.55583756345178 I0 J-0.6015228426395939
G3 X49.57360406091371 Y50.42639593908629 I0.23096446700507614 J-0.5558375634517766
G3 X49.44416243654822 Y50.23096446700507 I0.42639593908629436 J-0.42639593908629436
G3 X49.398477157360404 Y50 I0.5558375634517766 J-0.23096446700507614
G3 X49.44416243654822 Y49.76903553299493 I0.6015228426395939 J0
G3 X49.57360406091371 Y49.57360406091371 I0.5558375634517766 J0.23096446700507614
G3 X49.76903553299493 Y49.44416243654822 I0.42639593908629436 J0.42639593908629436
G1 X49.28350253807107 Y48.27005076142132 F1000
G3 X50 Y48.12690355329949 I0.7157360406091371 J1.7309644670050761 F1000
G3 X50.715736040609144 Y48.26903553299492 I0 J1.8730964467005076
G3 X51.3248730964467 Y48.6751269035533 I-0.7157360406091371 J1.7309644670050761
G3 X51.73096446700508 Y49.284263959390856 I-1.3248730964467004 J1.3248730964467004
G3 X51.87309644670051 Y50 I-1.7309644670050761 J0.7157360406091371
G3 X51.73096446700508 Y50.715736040609144 I-1.8730964467005076 J0
G3 X51.3248730964467 Y51.3248730964467 I-1.7309644670050761 J-0.7157360406091371
G3 X50.715736040609144 Y51.73096446700508 I-1.3248730964467004 J-1.3248730964467004
G3 X50 Y51.87309644670051 I-0.7157360406091371 J-1.7309644670050761
G3 X49.284263959390856 Y51.73096446700508 I0 J-1.8730964467005076
G3 X48.6751269035533 Y51.3248730964467 I0.7157360406091371 J-1.7309644670050761
G3 X48.26903553299492 Y50.715736040609144 I1.3248730964467004 J-1.3248730964467004
G3 X48.12690355329949 Y50 I1.7309644670050761 J-0.7157360406091371
G3 X48.26903553299492 Y49.284263959390856 I1.8730964467005076 J0
G3 X48.6751269035533 Y48.6751269035533 I1.7309644670050761 J0.7157360406091371
G3 X49.284263959390856 Y48.26903553299492 I1.3248730964467004 J1.3248730964467004
G1 X48.79746192893401 Y47.096700507614216 F1000
G3 X50 Y46.857868020304565 I1.2030456852791878 J2.9035532994923856 F1000
G3 X51.20304568527919 Y47.09644670050761 I0 J3.1421319796954315
G3 X52.22335025380711 Y47.77664974619289 I-1.2030456852791878 J2.9035532994923856
G3 X52.90355329949239 Y48.79695431472081 I-2.2233502538071064 J2.2233502538071064
G3 X53.142131979695435 Y50 I-2.9035532994923856 J1.2030456852791878
G3 X52.90355329949239 Y51.20304568527919 I-3.1421319796954315 J0
G3 X52.22335025380711 Y52.22335025380711 I-2.9035532994923856 J-1.2030456852791878
G3 X51.20304568527919 Y52.90355329949239 I-2.2233502538071064 J-2.2233502538071064
G3 X50 Y53.142131979695435 I-1.2030456852791878 J-2.9035532994923856
G3 X48.79695431472081 Y52.90355329949239 I0 J-3.1421319796954315
G3 X47.77664974619289 Y52.22335025380711 I1.2030456852791878 J-2.9035532994923856
G3 X47.09644670050761 Y51.20304568527919 I2.2233502538071064 J-2.2233502538071064
G3 X46.857868020304565 Y50 I2.9035532994923856 J-1.2030456852791878
G3 X47.09644670050761 Y48.79695431472081 I3.1421319796954315 J0
G3 X47.77664974619289 Y47.77664974619289 I2.9035532994923856 J1.2030456852791878
G3 X48.79695431472081 Y47.09644670050761 I2.2233502538071064 J2.2233502538071064
G1 X48.311421319796956 Y45.92335025380711 F1000
G3 X50 Y45.58629441624365 I1.6878172588832487 J4.0761421319796955 F1000
G3 X51.68781725888324 Y45.923857868020306 I0 J4.413705583756345
G3 X53.11928934010152 Y46.88071065989848 I-1.6878172588832487 J4.0761421319796955
G3 X54.076142131979694 Y48.31218274111676 I-3.1192893401015227 J3.1192893401015227
G3 X54.41370558375635 Y50 I-4.0761421319796955 J1.6878172588832487
G3 X54.076142131979694 Y51.68781725888324 I-4.413705583756345 J0
G3 X53.11928934010152 Y53.11928934010152 I-4.0761421319796955 J-1.6878172588832487
G3 X51.68781725888324 Y54.076142131979694 I-3.1192893401015227 J-3.1192893401015227
G3 X50 Y54.41370558375635 I-1.6878172588832487 J-4.0761421319796955
G3 X48.31218274111676 Y54.076142131979694 I0 J-4.413705583756345
G3 X46.88071065989848 Y53.11928934010152 I1.6878172588832487 J-4.0761421319796955
G3 X45.923857868020306 Y51.68781725888324 I3.1192893401015227 J-3.1192893401015227
G3 X45.58629441624365 Y50 I4.0761421319796955 J-1.6878172588832487
G3 X45.923857868020306 Y48.31218274111676 I4.413705583756345 J0
G3 X46.88071065989848 Y46.88071065989848 I4.0761421319796955 J1.6878172588832487
G3 X48.31218274111676 Y45.923857868020306 I3.1192893401015227 J3.1192893401015227
G0 Z10
G0 X49.769543147208125 Y49.443401015228424
G1 Z-2 F800
G3 X50 Y49.398477157360404 I0.23096446700507614 J0.5558375634517766 F1000
G3 X50.23096446700507 Y49.44416243654822 I0 J0.6015228426395939
G3 X50.42639593908629 Y49.57360406091371 I-0.23096446700507614 J0.5558375634517766
G3 X50.55583756345178 Y49.76903553299493 I-0.42639593908629436 J0.42639593908629436
G3 X50.601522842639596 Y50 I-0.5558375634517766 J0.23096446700507614
G3 X50.55583756345178 Y50.23096446700507 I-0.6015228426395939 J0
G3 X50.42639593908629 Y50.42639593908629 I-0.5558375634517766 J-0.23096446700507614
G3 X50.23096446700507 Y50.55583756345178 I-0.42639593908629436 J-0.42639593908629436
G3 X50 Y50.601522842639596 I-0.23096446700507614 J-0.5558375634517766
G3 X49.76903553299493 Y50.55583756345178 I0 J-0.6015228426395939
G3 X49.57360406091371 Y50.42639593908629 I0.23096446700507614 J-0.5558375634517766
G3 X49.44416243654822 Y50.23096446700507 I0.42639593908629436 J-0.42639593908629436
G3 X49.398477157360404 Y50 I0.5558375634517766 J-0.23096446700507614
G3 X49.44416243654822 Y49.76903553299493 I0.6015228426395939 J0
G3 X49.57360406091371 Y49.57360406091371 I0.5558375634517766 J0.23096446700507614
G3 X49.76903553299493 Y49.44416243654822 I0.42639593908629436 J0.42639593908629436
G1 X49.28350253807107 Y48.27005076142132 F1000
G3 X50 Y48.12690355329949 I0.7157360406091371 J1.7309644670050761 F1000
G3 X50.715736040609144 Y48.26903553299492 I0 J1.8730964467005076
G3 X51.3248730964467 Y48.6751269035533 I-0.7157360406091371 J1.7309644670050761
G3 X51.73096446700508 Y49.284263959390856 I-1.3248730964467004 J1.3248730964467004
G3 X51.87309644670051 Y50 I-1.7309644670050761 J0.7157360406091371
G3 X51.73096446700508 Y50.715736040609144 I-1.8730964467005076 J0
G3 X51.3248730964467 Y51.3248730964467 I-1.7309644670050761 J-0.7157360406091371
G3 X50.715736040609144 Y51.73096446700508 I-1.3248730964467004 J-1.3248730964467004
G3 X50 Y51.87309644670051 I-0.7157360406091371 J-1.7309644670050761
G3 X49.284263959390856 Y51.73096446700508 I0 J-1.8730964467005076
G3 X48.6751269035533 Y51.3248730964467 I0.7157360406091371 J-1.7309644670050761
G3 X48.26903553299492 Y50.715736040609144 I1.3248730964467004 J-1.3248730964467004
G3 X48.12690355329949 Y50 I1.7309644670050761 J-0.7157360406091371
G3 X48.26903553299492 Y49.284263959390856 I1.8730964467005076 J0
G3 X48.6751269035533 Y48.6751269035533 I1.7309644670050761 J0.7157360406091371
G3 X49.284263959390856 Y48.26903553299492 I1.3248730964467004 J1.3248730964467004
G1 X48.79746192893401 Y47.096700507614216 F1000
G3 X50 Y46.857868020304565 I1.2030456852791878 J2.9035532994923856 F1000
G3 X51.20304568527919 Y47.09644670050761 I0 J3.1421319796954315
G3 X52.22335025380711 Y47.77664974619289 I-1.2030456852791878 J2.9035532994923856
G3 X52.90355329949239 Y48.79695431472081 I-2.2233502538071064 J2.2233502538071064
G3 X53.142131979695435 Y50 I-2.9035532994923856 J1.2030456852791878
G3 X52.90355329949239 Y51.20304568527919 I-3.1421319796954315 J0
G3 X52.22335025380711 Y52.22335025380711 I-2.9035532994923856 J-1.2030456852791878
G3 X51.20304568527919 Y52.90355329949239 I-2.2233502538071064 J-2.2233502538071064
G3 X50 Y53.142131979695435 I-1.2030456852791878 J-2.9035532994923856
G3 X48.79695431472081 Y52.90355329949239 I0 J-3.1421319796954315
G3 X47.77664974619289 Y52.22335025380711 I1.2030456852791878 J-2.9035532994923856
G3 X47.09644670050761 Y51.20304568527919 I2.2233502538071064 J-2.2233502538071064
G3 X46.857868020304565 Y50 I2.9035532994923856 J-1.2030456852791878
G3 X47.09644670050761 Y48.79695431472081 I3.1421319796954315 J0
G3 X47.77664974619289 Y47.77664974619289 I2.9035532994923856 J1.2030456852791878
G3 X48.79695431472081 Y47.09644670050761 I2.2233502538071064 J2.2233502538071064
G1 X48.311421319796956 Y45.92335025380711 F1000
G3 X50 Y45.58629441624365 I1.6878172588832487 J4.0761421319796955 F1000
G3 X51.68781725888324 Y45.923857868020306 I0 J4.413705583756345
G3 X53.11928934010152 Y46.88071065989848 I-1.6878172588832487 J4.0761421319796955
G3 X54.076142131979694 Y48.31218274111676 I-3.1192893401015227 J3.1192893401015227
G3 X54.41370558375635 Y50 I-4.0761421319796955 J1.6878172588832487
G3 X54.076142131979694 Y51.68781725888324 I-4.413705583756345 J0
G3 X53.11928934010152 Y53.11928934010152 I-4.0761421319796955 J-1.6878172588832487
G3 X51.68781725888324 Y54.076142131979694 I-3.1192893401015227 J-3.1192893401015227
G3 X50 Y54.41370558375635 I-1.6878172588832487 J-4.0761421319796955
G3 X48.31218274111676 Y54.076142131979694 I0 J-4.413705583756345
G3 X46.88071065989848 Y53.11928934010152 I1.6878172588832487 J-4.0761421319796955
G3 X45.923857868020306 Y51.68781725888324 I3.1192893401015227 J-3.1192893401015227
G3 X45.58629441624365 Y50 I4.0761421319796955 J-1.6878172588832487
G3 X45.923857868020306 Y48.31218274111676 I4.413705583756345 J0
G3 X46.88071065989848 Y46.88071065989848 I4.0761421319796955 J1.6878172588832487
G3 X48.31218274111676 Y45.923857868020306 I3.1192893401015227 J3.1192893401015227
G0 Z10
G0 X49.769543147208125 Y49.443401015228424
G1 Z-3 F800
G3 X50 Y49.398477157360404 I0.23096446700507614 J0.5558375634517766 F1000
G3 X50.23096446700507 Y49.44416243654822 I0 J0.6015228426395939
G3 X50.42639593908629 Y49.57360406091371 I-0.23096446700507614 J0.5558375634517766
G3 X50.55583756345178 Y49.76903553299493 I-0.42639593908629436 J0.42639593908629436
G3 X50.601522842639596 Y50 I-0.5558375634517766 J0.23096446700507614
G3 X50.55583756345178 Y50.23096446700507 I-0.6015228426395939 J0
G3 X50.42639593908629 Y50.42639593908629 I-0.5558375634517766 J-0.23096446700507614
G3 X50.23096446700507 Y50.55583756345178 I-0.42639593908629436 J-0.42639593908629436
G3 X50 Y50.601522842639596 I-0.23096446700507614 J-0.5558375634517766
G3 X49.76903553299493 Y50.55583756345178 I0 J-0.6015228426395939
G3 X49.57360406091371 Y50.42639593908629 I0.23096446700507614 J-0.5558375634517766
G3 X49.44416243654822 Y50.23096446700507 I0.42639593908629436 J-0.42639593908629436
G3 X49.398477157360404 Y50 I0.5558375634517766 J-0.23096446700507614
G3 X49.44416243654822 Y49.76903553299493 I0.6015228426395939 J0
G3 X49.57360406091371 Y49.57360406091371 I0.5558375634517766 J0.23096446700507614
G3 X49.76903553299493 Y49.44416243654822 I0.42639593908629436 J0.42639593908629436
G1 X49.28350253807107 Y48.27005076142132 F1000
G3 X50 Y48.12690355329949 I0.7157360406091371 J1.7309644670050761 F1000
G3 X50.715736040609144 Y48.26903553299492 I0 J1.8730964467005076
G3 X51.3248730964467 Y48.6751269035533 I-0.7157360406091371 J1.7309644670050761
G3 X51.73096446700508 Y49.284263959390856 I-1.3248730964467004 J1.3248730964467004
G3 X51.87309644670051 Y50 I-1.7309644670050761 J0.7157360406091371
G3 X51.73096446700508 Y50.715736040609144 I-1.8730964467005076 J0
G3 X51.3248730964467 Y51.3248730964467 I-1.7309644670050761 J-0.7157360406091371
G3 X50.715736040609144 Y51.73096446700508 I-1.3248730964467004 J-1.3248730964467004
G3 X50 Y51.87309644670051 I-0.7157360406091371 J-1.7309644670050761
G3 X49.284263959390856 Y51.73096446700508 I0 J-1.8730964467005076
G3 X48.6751269035533 Y51.3248730964467 I0.7157360406091371 J-1.7309644670050761
G3 X48.26903553299492 Y50.715736040609144 I1.3248730964467004 J-1.3248730964467004
G3 X48.12690355329949 Y50 I1.7309644670050761 J-0.7157360406091371
G3 X48.26903553299492 Y49.284263959390856 I1.8730964467005076 J0
G3 X48.6751269035533 Y48.6751269035533 I1.7309644670050761 J0.7157360406091371
G3 X49.284263959390856 Y48.26903553299492 I1.3248730964467004 J1.3248730964467004
G1 X48.79746192893401 Y47.096700507614216 F1000
G3 X50 Y46.857868020304565 I1.2030456852791878 J2.9035532994923856 F1000
G3 X51.20304568527919 Y47.09644670050761 I0 J3.1421319796954315
G3 X52.22335025380711 Y47.77664974619289 I-1.2030456852791878 J2.9035532994923856
G3 X52.90355329949239 Y48.79695431472081 I-2.2233502538071064 J2.2233502538071064
G3 X53.142131979695435 Y50 I-2.9035532994923856 J1.2030456852791878
G3 X52.90355329949239 Y51.20304568527919 I-3.1421319796954315 J0
G3 X52.22335025380711 Y52.22335025380711 I-2.9035532994923856 J-1.2030456852791878
G3 X51.20304568527919 Y52.90355329949239 I-2.2233502538071064 J-2.2233502538071064
G3 X50 Y53.142131979695435 I-1.2030456852791878 J-2.9035532994923856
G3 X48.79695431472081 Y52.90355329949239 I0 J-3.1421319796954315
G3 X47.77664974619289 Y52.22335025380711 I1.2030456852791878 J-2.9035532994923856
G3 X47.09644670050761 Y51.20304568527919 I2.2233502538071064 J-2.2233502538071064
G3 X46.857868020304565 Y50 I2.9035532994923856 J-1.2030456852791878
G3 X47.09644670050761 Y48.79695431472081 I3.1421319796954315 J0
G3 X47.77664974619289 Y47.77664974619289 I2.9035532994923856 J1.2030456852791878
G3 X48.79695431472081 Y47.09644670050761 I2.2233502538071064 J2.2233502538071064
G1 X48.311421319796956 Y45.92335025380711 F1000
G3 X50 Y45.58629441624365 I1.6878172588832487 J4.0761421319796955 F1000
G3 X51.68781725888324 Y45.923857868020306 I0 J4.413705583756345
G3 X53.11928934010152 Y46.88071065989848 I-1.6878172588832487 J4.0761421319796955
G3 X54.076142131979694 Y48.31218274111676 I-3.1192893401015227 J3.1192893401015227
G3 X54.41370558375635 Y50 I-4.0761421319796955 J1.6878172588832487
G3 X54.076142131979694 Y51.68781725888324 I-4.413705583756345 J0
G3 X53.11928934010152 Y53.11928934010152 I-4.0761421319796955 J-1.6878172588832487
G3 X51.68781725888324 Y54.076142131979694 I-3.1192893401015227 J-3.1192893401015227
G3 X50 Y54.41370558375635 I-1.6878172588832487 J-4.0761421319796955
G3 X48.31218274111676 Y54.076142131979694 I0 J-4.413705583756345
G3 X46.88071065989848 Y53.11928934010152 I1.6878172588832487 J-4.0761421319796955
G3 X45.923857868020306 Y51.68781725888324 I3.1192893401015227 J-3.1192893401015227
G3 X45.58629441624365 Y50 I4.0761421319796955 J-1.6878172588832487
G3 X45.923857868020306 Y48.31218274111676 I4.413705583756345 J0
G3 X46.88071065989848 Y46.88071065989848 I4.0761421319796955 J1.6878172588832487
G3 X48.31218274111676 Y45.923857868020306 I3.1192893401015227 J3.1192893401015227
G0 Z10
G0 X49.769543147208125 Y49.443401015228424
G1 Z-4 F800
G3 X50 Y49.398477157360404 I0.23096446700507614 J0.5558375634517766 F1000
G3 X50.23096446700507 Y49.44416243654822 I0 J0.6015228426395939
G3 X50.42639593908629 Y49.57360406091371 I-0.23096446700507614 J0.5558375634517766
G3 X50.55583756345178 Y49.76903553299493 I-0.42639593908629436 J0.42639593908629436
G3 X50.601522842639596 Y50 I-0.5558375634517766 J0.23096446700507614
G3 X50.55583756345178 Y50.23096446700507 I-0.6015228426395939 J0
G3 X50.42639593908629 Y50.42639593908629 I-0.5558375634517766 J-0.23096446700507614
G3 X50.23096446700507 Y50.55583756345178 I-0.42639593908629436 J-0.42639593908629436
G3 X50 Y50.601522842639596 I-0.23096446700507614 J-0.5558375634517766
G3 X49.76903553299493 Y50.55583756345178 I0 J-0.6015228426395939
G3 X49.57360406091371 Y50.42639593908629 I0.23096446700507614 J-0.5558375634517766
G3 X49.44416243654822 Y50.23096446700507 I0.42639593908629436 J-0.42639593908629436
G3 X49.398477157360404 Y50 I0.5558375634517766 J-0.23096446700507614
G3 X49.44416243654822 Y49.76903553299493 I0.6015228426395939 J0
G3 X49.57360406091371 Y49.57360406091371 I0.5558375634517766 J0.23096446700507614
G3 X49.76903553299493 Y49.44416243654822 I0.42639593908629436 J0.42639593908629436
G1 X49.28350253807107 Y48.27005076142132 F1000
G3 X50 Y48.12690355329949 I0.7157360406091371 J1.7309644670050761 F1000
G3 X50.715736040609144 Y48.26903553299492 I0 J1.8730964467005076
G3 X51.3248730964467 Y48.6751269035533 I-0.7157360406091371 J1.7309644670050761
G3 X51.73096446700508 Y49.284263959390856 I-1.3248730964467004 J1.3248730964467004
G3 X51.87309644670051 Y50 I-1.7309644670050761 J0.7157360406091371
G3 X51.73096446700508 Y50.715736040609144 I-1.8730964467005076 J0
G3 X51.3248730964467 Y51.3248730964467 I-1.7309644670050761 J-0.7157360406091371
G3 X50.715736040609144 Y51.73096446700508 I-1.3248730964467004 J-1.3248730964467004
G3 X50 Y51.87309644670051 I-0.7157360406091371 J-1.7309644670050761
G3 X49.284263959390856 Y51.73096446700508 I0 J-1.8730964467005076
G3 X48.6751269035533 Y51.3248730964467 I0.7157360406091371 J-1.7309644670050761
G3 X48.26903553299492 Y50.715736040609144 I1.3248730964467004 J-1.3248730964467004
G3 X48.12690355329949 Y50 I1.7309644670050761 J-0.7157360406091371
G3 X48.26903553299492 Y49.284263959390856 I1.8730964467005076 J0
G3 X48.6751269035533 Y48.6751269035533 I1.7309644670050761 J0.7157360406091371
G3 X49.284263959390856 Y48.26903553299492 I1.3248730964467004 J1.3248730964467004
G1 X48.79746192893401 Y47.096700507614216 F1000
G3 X50 Y46.857868020304565 I1.2030456852791878 J2.9035532994923856 F1000
G3 X51.20304568527919 Y47.09644670050761 I0 J3.1421319796954315
G3 X52.22335025380711 Y47.77664974619289 I-1.2030456852791878 J2.9035532994923856
G3 X52.90355329949239 Y48.79695431472081 I-2.2233502538071064 J2.2233502538071064
G3 X53.142131979695435 Y50 I-2.9035532994923856 J1.2030456852791878
G3 X52.90355329949239 Y51.20304568527919 I-3.1421319796954315 J0
G3 X52.22335025380711 Y52.22335025380711 I-2.9035532994923856 J-1.2030456852791878
G3 X51.20304568527919 Y52.90355329949239 I-2.2233502538071064 J-2.2233502538071064
G3 X50 Y53.142131979695435 I-1.2030456852791878 J-2.9035532994923856
G3 X48.79695431472081 Y52.90355329949239 I0 J-3.1421319796954315
G3 X47.77664974619289 Y52.22335025380711 I1.2030456852791878 J-2.9035532994923856
G3 X47.09644670050761 Y51.20304568527919 I2.2233502538071064 J-2.2233502538071064
G3 X46.857868020304565 Y50 I2.9035532994923856 J-1.2030456852791878
G3 X47.09644670050761 Y48.79695431472081 I3.1421319796954315 J0
G3 X47.77664974619289 Y47.77664974619289 I2.9035532994923856 J1.2030456852791878
G3 X48.79695431472081 Y47.09644670050761 I2.2233502538071064 J2.2233502538071064
G1 X48.311421319796956 Y45.92335025380711 F1000
G3 X50 Y45.58629441624365 I1.6878172588832487 J4.0761421319796955 F1000
G3 X51.68781725888324 Y45.923857868020306 I0 J4.413705583756345
G3 X53.11928934010152 Y46.88071065989848 I-1.6878172588832487 J4.0761421319796955
G3 X54.076142131979694 Y48.31218274111676 I-3.1192893401015227 J3.1192893401015227
G3 X54.41370558375635 Y50 I-4.0761421319796955 J1.6878172588832487
G3 X54.076142131979694 Y51.68781725888324 I-4.413705583756345 J0
G3 X53.11928934010152 Y53.11928934010152 I-4.0761421319796955 J-1.6878172588832487
G3 X51.68781725888324 Y54.076142131979694 I-3.1192893401015227 J-3.1192893401015227
G3 X50 Y54.41370558375635 I-1.6878172588832487 J-4.0761421319796955
G3 X48.31218274111676 Y54.076142131979694 I0 J-4.413705583756345
G3 X46.88071065989848 Y53.11928934010152 I1.6878172588832487 J-4.0761421319796955
G3 X45.923857868020306 Y51.68781725888324 I3.1192893401015227 J-3.1192893401015227
G3 X45.58629441624365 Y50 I4.0761421319796955 J-1.6878172588832487
G3 X45.923857868020306 Y48.31218274111676 I4.413705583756345 J0
G3 X46.88071065989848 Y46.88071065989848 I4.0761421319796955 J1.6878172588832487
G3 X48.31218274111676 Y45.923857868020306 I3.1192893401015227 J3.1192893401015227

(pocket 2)
G0 Z10
G0 X49.25761421319797 Y50
G1 Z-1 F800
G3 X49.31472081218274 Y49.71573604060914 I0.7436548223350253 J0 F1000
G3 X49.474619289340104 Y49.474619289340104 I0.6852791878172588 J0.28426395939086296
G3 X49.71573604060914 Y49.31472081218274 I0.5253807106598986 J0.5253807106598986
G3 X50 Y49.256345177664976 I0.28426395939086296 J0.6852791878172588
G3 X50.28426395939086 Y49.31472081218274 I0 J0.7436548223350253
G3 X50.525380710659896 Y49.474619289340104 I-0.28426395939086296 J0.6852791878172588
G3 X50.68527918781726 Y49.71573604060914 I-0.5253807106598986 J0.5253807106598986
G3 X50.743654822335024 Y50 I-0.6852791878172588 J0.28426395939086296
G3 X50.68527918781726 Y50.28426395939086 I-0.7436548223350253 J0
G3 X50.525380710659896 Y50.525380710659896 I-0.6852791878172588 J-0.28426395939086296
G3 X50.28426395939086 Y50.68527918781726 I-0.5253807106598986 J-0.5253807106598986
G3 X50 Y50.743654822335024 I-0.28426395939086296 J-0.6852791878172588
G3 X49.71573604060914 Y50.68527918781726 I0 J-0.7436548223350253
G3 X49.474619289340104 Y50.525380710659896 I0.28426395939086296 J-0.6852791878172588
G3 X49.31472081218274 Y50.28426395939086 I0.5253807106598986 J-0.5253807106598986
G3 X49.256345177664976 Y50 I0.6852791878172588 J-0.28426395939086296
G1 X47.98756345177665 Y50 F1000
G3 X48.13959390862944 Y49.23096446700508 I2.012690355329949 J0 F1000
G3 X48.576142131979694 Y48.576142131979694 I1.8604060913705585 J0.7690355329949239
G3 X49.23096446700508 Y48.13959390862944 I1.4238578680203045 J1.4238578680203045
G3 X50 Y47.98730964467005 I0.7690355329949239 J1.8604060913705585
G3 X50.76903553299492 Y48.13959390862944 I0 J2.012690355329949
G3 X51.423857868020306 Y48.576142131979694 I-0.7690355329949239 J1.8604060913705585
G3 X51.86040609137056 Y49.23096446700508 I-1.4238578680203045 J1.4238578680203045
G3 X52.01269035532995 Y50 I-1.8604060913705585 J0.7690355329949239
G3 X51.86040609137056 Y50.76903553299492 I-2.012690355329949 J0
G3 X51.423857868020306 Y51.423857868020306 I-1.8604060913705585 J-0.7690355329949239
G3 X50.76903553299492 Y51.86040609137056 I-1.4238578680203045 J-1.4238578680203045
G3 X50 Y52.01269035532995 I-0.7690355329949239 J-1.8604060913705585
G3 X49.23096446700508 Y51.86040609137056 I0 J-2.012690355329949
G3 X48.576142131979694 Y51.423857868020306 I0.7690355329949239 J-1.8604060913705585
G3 X48.13959390862944 Y50.76903553299492 I1.4238578680203045 J-1.4238578680203045
G3 X47.98730964467005 Y50 I1.8604060913705585 J-0.7690355329949239
G0 Z10
G0 X49.25761421319797 Y50
G1 Z-2 F800
G3 X49.31472081218274 Y49.71573604060914 I0.7436548223350253 J0 F1000
G3 X49.474619289340104 Y49.474619289340104 I0.6852791878172588 J0.28426395939086296
G3 X49.71573604060914 Y49.31472081218274 I0.5253807106598986 J0.5253807106598986
G3 X50 Y49.256345177664976 I0.28426395939086296 J0.6852791878172588
G3 X50.28426395939086 Y49.31472081218274 I0 J0.7436548223350253
G3 X50.525380710659896 Y49.474619289340104 I-0.28426395939086296 J0.6852791878172588
G3 X50.68527918781726 Y49.71573604060914 I-0.5253807106598986 J0.5253807106598986
G3 X50.743654822335024 Y50 I-0.6852791878172588 J0.28426395939086296
G3 X50.68527918781726 Y50.28426395939086 I-0.7436548223350253 J0
G3 X50.525380710659896 Y50.525380710659896 I-0.6852791878172588 J-0.28426395939086296
G3 X50.28426395939086 Y50.68527918781726 I-0.5253807106598986 J-0.5253807106598986
G3 X50 Y50.743654822335024 I-0.28426395939086296 J-0.6852791878172588
G3 X49.71573604060914 Y50.68527918781726 I0 J-0.7436548223350253
G3 X49.474619289340104 Y50.525380710659896 I0.28426395939086296 J-0.6852791878172588
G3 X49.31472081218274 Y50.28426395939086 I0.5253807106598986 J-0.5253807106598986
G3 X49.256345177664976 Y50 I0.6852791878172588 J-0.28426395939086296
G1 X47.98756345177665 Y50 F1000
G3 X48.13959390862944 Y49.23096446700508 I2.012690355329949 J0 F1000
G3 X48.576142131979694 Y48.576142131979694 I1.8604060913705585 J0.7690355329949239
G3 X49.23096446700508 Y48.13959390862944 I1.4238578680203045 J1.4238578680203045
G3 X50 Y47.98730964467005 I0.7690355329949239 J1.8604060913705585
G3 X50.76903553299492 Y48.13959390862944 I0 J2.012690355329949
G3 X51.423857868020306 Y48.576142131979694 I-0.7690355329949239 J1.8604060913705585
G3 X51.86040609137056 Y49.23096446700508 I-1.4238578680203045 J1.4238578680203045
G3 X52.01269035532995 Y50 I-1.8604060913705585 J0.7690355329949239
G3 X51.86040609137056 Y50.76903553299492 I-2.012690355329949 J0
G3 X51.423857868020306 Y51.423857868020306 I-1.8604060913705585 J-0.7690355329949239
G3 X50.76903553299492 Y51.86040609137056 I-1.4238578680203045 J-1.4238578680203045
G3 X50 Y52.01269035532995 I-0.7690355329949239 J-1.8604060913705585
G3 X49.23096446700508 Y51.86040609137056 I0 J-2.012690355329949
G3 X48.576142131979694 Y51.423857868020306 I0.7690355329949239 J-1.8604060913705585
G3 X48.13959390862944 Y50.76903553299492 I1.4238578680203045 J-1.4238578680203045
G3 X47.98730964467005 Y50 I1.8604060913705585 J-0.7690355329949239
G0 Z10
G0 X49.25761421319797 Y50
G1 Z-3 F800
G3 X49.31472081218274 Y49.71573604060914 I0.7436548223350253 J0 F1000
G3 X49.474619289340104 Y49.474619289340104 I0.6852791878172588 J0.28426395939086296
G3 X49.71573604060914 Y49.31472081218274 I0.5253807106598986 J0.5253807106598986
G3 X50 Y49.256345177664976 I0.28426395939086296 J0.6852791878172588
G3 X50.28426395939086 Y49.31472081218274 I0 J0.7436548223350253
G3 X50.525380710659896 Y49.474619289340104 I-0.28426395939086296 J0.6852791878172588
G3 X50.68527918781726 Y49.71573604060914 I-0.5253807106598986 J0.5253807106598986
G3 X50.743654822335024 Y50 I-0.6852791878172588 J0.28426395939086296
G3 X50.68527918781726 Y50.28426395939086 I-0.7436548223350253 J0
G3 X50.525380710659896 Y50.525380710659896 I-0.6852791878172588 J-0.28426395939086296
G3 X50.28426395939086 Y50.68527918781726 I-0.5253807106598986 J-0.5253807106598986
G3 X50 Y50.743654822335024 I-0.28426395939086296 J-0.6852791878172588
G3 X49.71573604060914 Y50.68527918781726 I0 J-0.7436548223350253
G3 X49.474619289340104 Y50.525380710659896 I0.28426395939086296 J-0.6852791878172588
G3 X49.31472081218274 Y50.28426395939086 I0.5253807106598986 J-0.5253807106598986
G3 X49.256345177664976 Y50 I0.6852791878172588 J-0.28426395939086296
G1 X47.98756345177665 Y50 F1000
G3 X48.13959390862944 Y49.23096446700508 I2.012690355329949 J0 F1000
G3 X48.576142131979694 Y48.576142131979694 I1.8604060913705585 J0.7690355329949239
G3 X49.23096446700508 Y48.13959390862944 I1.4238578680203045 J1.4238578680203045
G3 X50 Y47.98730964467005 I0.7690355329949239 J1.8604060913705585
G3 X50.76903553299492 Y48.13959390862944 I0 J2.012690355329949
G3 X51.423857868020306 Y48.576142131979694 I-0.7690355329949239 J1.8604060913705585
G3 X51.86040609137056 Y49.23096446700508 I-1.4238578680203045 J1.4238578680203045
G3 X52.01269035532995 Y50 I-1.8604060913705585 J0.7690355329949239
G3 X51.86040609137056 Y50.76903553299492 I-2.012690355329949 J0
G3 X51.423857868020306 Y51.423857868020306 I-1.8604060913705585 J-0.7690355329949239
G3 X50.76903553299492 Y51.86040609137056 I-1.4238578680203045 J-1.4238578680203045
G3 X50 Y52.01269035532995 I-0.7690355329949239 J-1.8604060913705585
G3 X49.23096446700508 Y51.86040609137056 I0 J-2.012690355329949
G3 X48.576142131979694 Y51.423857868020306 I0.7690355329949239 J-1.8604060913705585
G3 X48.13959390862944 Y50.76903553299492 I1.4238578680203045 J-1.4238578680203045
G3 X47.98730964467005 Y50 I1.8604060913705585 J-0.7690355329949239
G0 Z10
G0 X49.25761421319797 Y50
G1 Z-4 F800
G3 X49.31472081218274 Y49.71573604060914 I0.7436548223350253 J0 F1000
G3 X49.474619289340104 Y49.474619289340104 I0.6852791878172588 J0.28426395939086296
G3 X49.71573604060914 Y49.31472081218274 I0.5253807106598986 J0.5253807106598986
G3 X50 Y49.256345177664976 I0.28426395939086296 J0.6852791878172588
G3 X50.28426395939086 Y49.31472081218274 I0 J0.7436548223350253
G3 X50.525380710659896 Y49.474619289340104 I-0.28426395939086296 J0.6852791878172588
G3 X50.68527918781726 Y49.71573604060914 I-0.5253807106598986 J0.5253807106598986
G3 X50.743654822335024 Y50 I-0.6852791878172588 J0.28426395939086296
G3 X50.68527918781726 Y50.28426395939086 I-0.7436548223350253 J0
G3 X50.525380710659896 Y50.525380710659896 I-0.6852791878172588 J-0.28426395939086296
G3 X50.28426395939086 Y50.68527918781726 I-0.5253807106598986 J-0.5253807106598986
G3 X50 Y50.743654822335024 I-0.28426395939086296 J-0.6852791878172588
G3 X49.71573604060914 Y50.68527918781726 I0 J-0.7436548223350253
G3 X49.474619289340104 Y50.525380710659896 I0.28426395939086296 J-0.6852791878172588
G3 X49.31472081218274 Y50.28426395939086 I0.5253807106598986 J-0.5253807106598986
G3 X49.256345177664976 Y50 I0.6852791878172588 J-0.28426395939086296
G1 X47.98756345177665 Y50 F1000
G3 X48.13959390862944 Y49.23096446700508 I2.012690355329949 J0 F1000
G3 X48.576142131979694 Y48.576142131979694 I1.8604060913705585 J0.7690355329949239
G3 X49.23096446700508 Y48.13959390862944 I1.4238578680203045 J1.4238578680203045
G3 X50 Y47.98730964467005 I0.7690355329949239 J1.8604060913705585
G3 X50.76903553299492 Y48.13959390862944 I0 J2.012690355329949
G3 X51.423857868020306 Y48.576142131979694 I-0.7690355329949239 J1.8604060913705585
G3 X51.86040609137056 Y49.23096446700508 I-1.4238578680203045 J1.4238578680203045
G3 X52.01269035532995 Y50 I-1.8604060913705585 J0.7690355329949239
G3 X51.86040609137056 Y50.76903553299492 I-2.012690355329949 J0
G3 X51.423857868020306 Y51.423857868020306 I-1.8604060913705585 J-0.7690355329949239
G3 X50.76903553299492 Y51.86040609137056 I-1.4238578680203045 J-1.4238578680203045
G3 X50 Y52.01269035532995 I-0.7690355329949239 J-1.8604060913705585
G3 X49.23096446700508 Y51.86040609137056 I0 J-2.012690355329949
G3 X48.576142131979694 Y51.423857868020306 I0.7690355329949239 J-1.8604060913705585
G3 X48.13959390862944 Y50.76903553299492 I1.4238578680203045 J-1.4238578680203045
G3 X47.98730964467005 Y50 I1.8604060913705585 J-0.7690355329949239
G0 Z10
G0 X49.25761421319797 Y50
G1 Z-5 F800
G3 X49.31472081218274 Y49.71573604060914 I0.7436548223350253 J0 F1000
G3 X49.474619289340104 Y49.474619289340104 I0.6852791878172588 J0.28426395939086296
G3 X49.71573604060914 Y49.31472081218274 I0.5253807106598986 J0.5253807106598986
G3 X50 Y49.256345177664976 I0.28426395939086296 J0.6852791878172588
G3 X50.28426395939086 Y49.31472081218274 I0 J0.7436548223350253
G3 X50.525380710659896 Y49.474619289340104 I-0.28426395939086296 J0.6852791878172588
G3 X50.68527918781726 Y49.71573604060914 I-0.5253807106598986 J0.5253807106598986
G3 X50.743654822335024 Y50 I-0.6852791878172588 J0.28426395939086296
G3 X50.68527918781726 Y50.28426395939086 I-0.7436548223350253 J0
G3 X50.525380710659896 Y50.525380710659896 I-0.6852791878172588 J-0.28426395939086296
G3 X50.28426395939086 Y50.68527918781726 I-0.5253807106598986 J-0.5253807106598986
G3 X50 Y50.743654822335024 I-0.28426395939086296 J-0.6852791878172588
G3 X49.71573604060914 Y50.68527918781726 I0 J-0.7436548223350253
G3 X49.474619289340104 Y50.525380710659896 I0.28426395939086296 J-0.6852791878172588
G3 X49.31472081218274 Y50.28426395939086 I0.5253807106598986 J-0.5253807106598986
G3 X49.256345177664976 Y50 I0.6852791878172588 J-0.28426395939086296
G1 X47.98756345177665 Y50 F1000
G3 X48.13959390862944 Y49.23096446700508 I2.012690355329949 J0 F1000
G3 X48.576142131979694 Y48.576142131979694 I1.8604060913705585 J0.7690355329949239
G3 X49.23096446700508 Y48.13959390862944 I1.4238578680203045 J1.4238578680203045
G3 X50 Y47.98730964467005 I0.7690355329949239 J1.8604060913705585
G3 X50.76903553299492 Y48.13959390862944 I0 J2.012690355329949
G3 X51.423857868020306 Y48.576142131979694 I-0.7690355329949239 J1.8604060913705585
G3 X51.86040609137056 Y49.23096446700508 I-1.4238578680203045 J1.4238578680203045
G3 X52.01269035532995 Y50 I-1.8604060913705585 J0.7690355329949239
G3 X51.86040609137056 Y50.76903553299492 I-2.012690355329949 J0
G3 X51.423857868020306 Y51.423857868020306 I-1.8604060913705585 J-0.7690355329949239
G3 X50.76903553299492 Y51.86040609137056 I-1.4238578680203045 J-1.4238578680203045
G3 X50 Y52.01269035532995 I-0.7690355329949239 J-1.8604060913705585
G3 X49.23096446700508 Y51.86040609137056 I0 J-2.012690355329949
G3 X48.576142131979694 Y51.423857868020306 I0.7690355329949239 J-1.8604060913705585
G3 X48.13959390862944 Y50.76903553299492 I1.4238578680203045 J-1.4238578680203045
G3 X47.98730964467005 Y50 I1.8604060913705585 J-0.7690355329949239
G0 Z10
G0 X49.25761421319797 Y50
G1 Z-6 F800
G3 X49.31472081218274 Y49.71573604060914 I0.7436548223350253 J0 F1000
G3 X49.474619289340104 Y49.474619289340104 I0.6852791878172588 J0.28426395939086296
G3 X49.71573604060914 Y49.31472081218274 I0.5253807106598986 J0.5253807106598986
G3 X50 Y49.256345177664976 I0.28426395939086296 J0.6852791878172588
G3 X50.28426395939086 Y49.31472081218274 I0 J0.7436548223350253
G3 X50.525380710659896 Y49.474619289340104 I-0.28426395939086296 J0.6852791878172588
G3 X50.68527918781726 Y49.71573604060914 I-0.5253807106598986 J0.5253807106598986
G3 X50.743654822335024 Y50 I-0.6852791878172588 J0.28426395939086296
G3 X50.68527918781726 Y50.28426395939086 I-0.7436548223350253 J0
G3 X50.525380710659896 Y50.525380710659896 I-0.6852791878172588 J-0.28426395939086296
G3 X50.28426395939086 Y50.68527918781726 I-0.5253807106598986 J-0.5253807106598986
G3 X50 Y50.743654822335024 I-0.28426395939086296 J-0.6852791878172588
G3 X49.71573604060914 Y50.68527918781726 I0 J-0.7436548223350253
G3 X49.474619289340104 Y50.525380710659896 I0.28426395939086296 J-0.6852791878172588
G3 X49.31472081218274 Y50.28426395939086 I0.5253807106598986 J-0.5253807106598986
G3 X49.256345177664976 Y50 I0.6852791878172588 J-0.28426395939086296
G1 X47.98756345177665 Y50 F1000
G3 X48.13959390862944 Y49.23096446700508 I2.012690355329949 J0 F1000
G3 X48.576142131979694 Y48.576142131979694 I1.8604060913705585 J0.7690355329949239
G3 X49.23096446700508 Y48.13959390862944 I1.4238578680203045 J1.4238578680203045
G3 X50 Y47.98730964467005 I0.7690355329949239 J1.8604060913705585
G3 X50.76903553299492 Y48.13959390862944 I0 J2.012690355329949
G3 X51.423857868020306 Y48.576142131979694 I-0.7690355329949239 J1.8604060913705585
G3 X51.86040609137056 Y49.23096446700508 I-1.4238578680203045 J1.4238578680203045
G3 X52.01269035532995 Y50 I-1.8604060913705585 J0.7690355329949239
G3 X51.86040609137056 Y50.76903553299492 I-2.012690355329949 J0
G3 X51.423857868020306 Y51.423857868020306 I-1.8604060913705585 J-0.7690355329949239
G3 X50.76903553299492 Y51.86040609137056 I-1.4238578680203045 J-1.4238578680203045
G3 X50 Y52.01269035532995 I-0.7690355329949239 J-1.8604060913705585
G3 X49.23096446700508 Y51.86040609137056 I0 J-2.012690355329949
G3 X48.576142131979694 Y51.423857868020306 I0.7690355329949239 J-1.8604060913705585
G3 X48.13959390862944 Y50.76903553299492 I1.4238578680203045 J-1.4238578680203045
G3 X47.98730964467005 Y50 I1.8604060913705585 J-0.7690355329949239
G0 Z10
G0 X49.25761421319797 Y50
G1 Z-7 F800
G3 X49.31472081218274 Y49.71573604060914 I0.7436548223350253 J0 F1000
G3 X49.474619289340104 Y49.474619289340104 I0.6852791878172588 J0.28426395939086296
G3 X49.71573604060914 Y49.31472081218274 I0.5253807106598986 J0.5253807106598986
G3 X50 Y49.256345177664976 I0.28426395939086296 J0.6852791878172588
G3 X50.28426395939086 Y49.31472081218274 I0 J0.7436548223350253
G3 X50.525380710659896 Y49.474619289340104 I-0.28426395939086296 J0.6852791878172588
G3 X50.68527918781726 Y49.71573604060914 I-0.5253807106598986 J0.5253807106598986
G3 X50.743654822335024 Y50 I-0.6852791878172588 J0.28426395939086296
G3 X50.68527918781726 Y50.28426395939086 I-0.7436548223350253 J0
G3 X50.525380710659896 Y50.525380710659896 I-0.6852791878172588 J-0.28426395939086296
G3 X50.28426395939086 Y50.68527918781726 I-0.5253807106598986 J-0.5253807106598986
G3 X50 Y50.743654822335024 I-0.28426395939086296 J-0.6852791878172588
G3 X49.71573604060914 Y50.68527918781726 I0 J-0.7436548223350253
G3 X49.474619289340104 Y50.525380710659896 I0.28426395939086296 J-0.6852791878172588
G3 X49.31472081218274 Y50.28426395939086 I0.5253807106598986 J-0.5253807106598986
G3 X49.256345177664976 Y50 I0.6852791878172588 J-0.28426395939086296
G1 X47.98756345177665 Y50 F1000
G3 X48.13959390862944 Y49.23096446700508 I2.012690355329949 J0 F1000
G3 X48.576142131979694 Y48.576142131979694 I1.8604060913705585 J0.7690355329949239
G3 X49.23096446700508 Y48.13959390862944 I1.4238578680203045 J1.4238578680203045
G3 X50 Y47.98730964467005 I0.7690355329949239 J1.8604060913705585
G3 X50.76903553299492 Y48.13959390862944 I0 J2.012690355329949
G3 X51.423857868020306 Y48.576142131979694 I-0.7690355329949239 J1.8604060913705585
G3 X51.86040609137056 Y49.23096446700508 I-1.4238578680203045 J1.4238578680203045
G3 X52.01269035532995 Y50 I-1.8604060913705585 J0.7690355329949239
G3 X51.86040609137056 Y50.76903553299492 I-2.012690355329949 J0
G3 X51.423857868020306 Y51.423857868020306 I-1.8604060913705585 J-0.7690355329949239
G3 X50.76903553299492 Y51.86040609137056 I-1.4238578680203045 J-1.4238578680203045
G3 X50 Y52.01269035532995 I-0.7690355329949239 J-1.8604060913705585
G3 X49.23096446700508 Y51.86040609137056 I0 J-2.012690355329949
G3 X48.576142131979694 Y51.423857868020306 I0.7690355329949239 J-1.8604060913705585
G3 X48.13959390862944 Y50.76903553299492 I1.4238578680203045 J-1.4238578680203045
G3 X47.98730964467005 Y50 I1.8604060913705585 J-0.7690355329949239
G0 Z10
G0 X49.25761421319797 Y50
G1 Z-8 F800
G3 X49.31472081218274 Y49.71573604060914 I0.7436548223350253 J0 F1000
G3 X49.474619289340104 Y49.474619289340104 I0.6852791878172588 J0.28426395939086296
G3 X49.71573604060914 Y49.31472081218274 I0.5253807106598986 J0.5253807106598986
G3 X50 Y49.256345177664976 I0.28426395939086296 J0.6852791878172588
G3 X50.28426395939086 Y49.31472081218274 I0 J0.7436548223350253
G3 X50.525380710659896 Y49.474619289340104 I-0.28426395939086296 J0.6852791878172588
G3 X50.68527918781726 Y49.71573604060914 I-0.5253807106598986 J0.5253807106598986
G3 X50.743654822335024 Y50 I-0.6852791878172588 J0.28426395939086296
G3 X50.68527918781726 Y50.28426395939086 I-0.7436548223350253 J0
G3 X50.525380710659896 Y50.525380710659896 I-0.6852791878172588 J-0.28426395939086296
G3 X50.28426395939086 Y50.68527918781726 I-0.5253807106598986 J-0.5253807106598986
G3 X50 Y50.743654822335024 I-0.28426395939086296 J-0.6852791878172588
G3 X49.71573604060914 Y50.68527918781726 I0 J-0.7436548223350253
G3 X49.474619289340104 Y50.525380710659896 I0.28426395939086296 J-0.6852791878172588
G3 X49.31472081218274 Y50.28426395939086 I0.5253807106598986 J-0.5253807106598986
G3 X49.256345177664976 Y50 I0.6852791878172588 J-0.28426395939086296
G1 X47.98756345177665 Y50 F1000
G3 X48.13959390862944 Y49.23096446700508 I2.012690355329949 J0 F1000
G3 X48.576142131979694 Y48.576142131979694 I1.8604060913705585 J0.7690355329949239
G3 X49.23096446700508 Y48.13959390862944 I1.4238578680203045 J1.4238578680203045
G3 X50 Y47.98730964467005 I0.7690355329949239 J1.8604060913705585
G3 X50.76903553299492 Y48.13959390862944 I0 J2.012690355329949
G3 X51.423857868020306 Y48.576142131979694 I-0.7690355329949239 J1.8604060913705585
G3 X51.86040609137056 Y49.23096446700508 I-1.4238578680203045 J1.4238578680203045
G3 X52.01269035532995 Y50 I-1.8604060913705585 J0.7690355329949239
G3 X51.86040609137056 Y50.76903553299492 I-2.012690355329949 J0
G3 X51.423857868020306 Y51.423857868020306 I-1.8604060913705585 J-0.7690355329949239
G3 X50.76903553299492 Y51.86040609137056 I-1.4238578680203045 J-1.4238578680203045
G3 X50 Y52.01269035532995 I-0.7690355329949239 J-1.8604060913705585
G3 X49.23096446700508 Y51.86040609137056 I0 J-2.012690355329949
G3 X48.576142131979694 Y51.423857868020306 I0.7690355329949239 J-1.8604060913705585
G3 X48.13959390862944 Y50.76903553299492 I1.4238578680203045 J-1.4238578680203045
G3 X47.98730964467005 Y50 I1.8604060913705585 J-0.7690355329949239
G0 Z10
G0 X49.25761421319797 Y50
G1 Z-9 F800
G3 X49.31472081218274 Y49.71573604060914 I0.7436548223350253 J0 F1000
G3 X49.474619289340104 Y49.474619289340104 I0.6852791878172588 J0.28426395939086296
G3 X49.71573604060914 Y49.31472081218274 I0.5253807106598986 J0.5253807106598986
G3 X50 Y49.256345177664976 I0.28426395939086296 J0.6852791878172588
G3 X50.28426395939086 Y49.31472081218274 I0 J0.7436548223350253
G3 X50.525380710659896 Y49.474619289340104 I-0.28426395939086296 J0.6852791878172588
G3 X50.68527918781726 Y49.71573604060914 I-0.5253807106598986 J0.5253807106598986
G3 X50.743654822335024 Y50 I-0.6852791878172588 J0.28426395939086296
G3 X50.68527918781726 Y50.28426395939086 I-0.7436548223350253 J0
G3 X50.525380710659896 Y50.525380710659896 I-0.6852791878172588 J-0.28426395939086296
G3 X50.28426395939086 Y50.68527918781726 I-0.5253807106598986 J-0.5253807106598986
G3 X50 Y50.743654822335024 I-0.28426395939086296 J-0.6852791878172588
G3 X49.71573604060914 Y50.68527918781726 I0 J-0.7436548223350253
G3 X49.474619289340104 Y50.525380710659896 I0.28426395939086296 J-0.6852791878172588
G3 X49.31472081218274 Y50.28426395939086 I0.5253807106598986 J-0.5253807106598986
G3 X49.256345177664976 Y50 I0.6852791878172588 J-0.28426395939086296
G1 X47.98756345177665 Y50 F1000
G3 X48.13959390862944 Y49.23096446700508 I2.012690355329949 J0 F1000
G3 X48.576142131979694 Y48.576142131979694 I1.8604060913705585 J0.7690355329949239
G3 X49.23096446700508 Y48.13959390862944 I1.4238578680203045 J1.4238578680203045
G3 X50 Y47.98730964467005 I0.7690355329949239 J1.8604060913705585
G3 X50.76903553299492 Y48.13959390862944 I0 J2.012690355329949
G3 X51.423857868020306 Y48.576142131979694 I-0.7690355329949239 J1.8604060913705585
G3 X51.86040609137056 Y49.23096446700508 I-1.4238578680203045 J1.4238578680203045
G3 X52.01269035532995 Y50 I-1.8604060913705585 J0.7690355329949239
G3 X51.86040609137056 Y50.76903553299492 I-2.012690355329949 J0
G3 X51.423857868020306 Y51.423857868020306 I-1.8604060913705585 J-0.7690355329949239
G3 X50.76903553299492 Y51.86040609137056 I-1.4238578680203045 J-1.4238578680203045
G3 X50 Y52.01269035532995 I-0.7690355329949239 J-1.8604060913705585
G3 X49.23096446700508 Y51.86040609137056 I0 J-2.012690355329949
G3 X48.576142131979694 Y51.423857868020306 I0.7690355329949239 J-1.8604060913705585
G3 X48.13959390862944 Y50.76903553299492 I1.4238578680203045 J-1.4238578680203045
G3 X47.98730964467005 Y50 I1.8604060913705585 J-0.7690355329949239
G0 Z10
G0 X49.25761421319797 Y50
G1 Z-10 F800
G3 X49.31472081218274 Y49.71573604060914 I0.7436548223350253 J0 F1000
G3 X49.474619289340104 Y49.474619289340104 I0.6852791878172588 J0.28426395939086296
G3 X49.71573604060914 Y49.31472081218274 I0.5253807106598986 J0.5253807106598986
G3 X50 Y49.256345177664976 I0.28426395939086296 J0.6852791878172588
G3 X50.28426395939086 Y49.31472081218274 I0 J0.7436548223350253
G3 X50.525380710659896 Y49.474619289340104 I-0.28426395939086296 J0.6852791878172588
G3 X50.68527918781726 Y49.71573604060914 I-0.5253807106598986 J0.5253807106598986
G3 X50.743654822335024 Y50 I-0.6852791878172588 J0.28426395939086296
G3 X50.68527918781726 Y50.28426395939086 I-0.7436548223350253 J0
G3 X50.525380710659896 Y50.525380710659896 I-0.6852791878172588 J-0.28426395939086296
G3 X50.28426395939086 Y50.68527918781726 I-0.5253807106598986 J-0.5253807106598986
G3 X50 Y50.743654822335024 I-0.28426395939086296 J-0.6852791878172588
G3 X49.71573604060914 Y50.68527918781726 I0 J-0.7436548223350253
G3 X49.474619289340104 Y50.525380710659896 I0.28426395939086296 J-0.6852791878172588
G3 X49.31472081218274 Y50.28426395939086 I0.5253807106598986 J-0.5253807106598986
G3 X49.256345177664976 Y50 I0.6852791878172588 J-0.28426395939086296
G1 X47.98756345177665 Y50 F1000
G3 X48.13959390862944 Y49.23096446700508 I2.012690355329949 J0 F1000
G3 X48.576142131979694 Y48.576142131979694 I1.8604060913705585 J0.7690355329949239
G3 X49.23096446700508 Y48.13959390862944 I1.4238578680203045 J1.4238578680203045
G3 X50 Y47.98730964467005 I0.7690355329949239 J1.8604060913705585
G3 X50.76903553299492 Y48.13959390862944 I0 J2.012690355329949
G3 X51.423857868020306 Y48.576142131979694 I-0.7690355329949239 J1.8604060913705585
G3 X51.86040609137056 Y49.23096446700508 I-1.4238578680203045 J1.4238578680203045
G3 X52.01269035532995 Y50 I-1.8604060913705585 J0.7690355329949239
G3 X51.86040609137056 Y50.76903553299492 I-2.012690355329949 J0
G3 X51.423857868020306 Y51.423857868020306 I-1.8604060913705585 J-0.7690355329949239
G3 X50.76903553299492 Y51.86040609137056 I-1.4238578680203045 J-1.4238578680203045
G3 X50 Y52.01269035532995 I-0.7690355329949239 J-1.8604060913705585
G3 X49.23096446700508 Y51.86040609137056 I0 J-2.012690355329949
G3 X48.576142131979694 Y51.423857868020306 I0.7690355329949239 J-1.8604060913705585
G3 X48.13959390862944 Y50.76903553299492 I1.4238578680203045 J-1.4238578680203045
G3 X47.98730964467005 Y50 I1.8604060913705585 J-0.7690355329949239
G0 Z10
G0 X49.25761421319797 Y50
G1 Z-11 F800
G3 X49.31472081218274 Y49.71573604060914 I0.7436548223350253 J0 F1000
G3 X49.474619289340104 Y49.474619289340104 I0.6852791878172588 J0.28426395939086296
G3 X49.71573604060914 Y49.31472081218274 I0.5253807106598986 J0.5253807106598986
G3 X50 Y49.256345177664976 I0.28426395939086296 J0.6852791878172588
G3 X50.28426395939086 Y49.31472081218274 I0 J0.7436548223350253
G3 X50.525380710659896 Y49.474619289340104 I-0.28426395939086296 J0.6852791878172588
G3 X50.68527918781726 Y49.71573604060914 I-0.5253807106598986 J0.5253807106598986
G3 X50.743654822335024 Y50 I-0.6852791878172588 J0.28426395939086296
G3 X50.68527918781726 Y50.28426395939086 I-0.7436548223350253 J0
G3 X50.525380710659896 Y50.525380710659896 I-0.6852791878172588 J-0.28426395939086296
G3 X50.28426395939086 Y50.68527918781726 I-0.5253807106598986 J-0.5253807106598986
G3 X50 Y50.743654822335024 I-0.28426395939086296 J-0.6852791878172588
G3 X49.71573604060914 Y50.68527918781726 I0 J-0.7436548223350253
G3 X49.474619289340104 Y50.525380710659896 I0.28426395939086296 J-0.6852791878172588
G3 X49.31472081218274 Y50.28426395939086 I0.5253807106598986 J-0.5253807106598986
G3 X49.256345177664976 Y50 I0.6852791878172588 J-0.28426395939086296
G1 X47.98756345177665 Y50 F1000
G3 X48.13959390862944 Y49.23096446700508 I2.012690355329949 J0 F1000
G3 X48.576142131979694 Y48.576142131979694 I1.8604060913705585 J0.7690355329949239
G3 X49.23096446700508 Y48.13959390862944 I1.4238578680203045 J1.4238578680203045
G3 X50 Y47.98730964467005 I0.7690355329949239 J1.8604060913705585
G3 X50.76903553299492 Y48.13959390862944 I0 J2.012690355329949
G3 X51.423857868020306 Y48.576142131979694 I-0.7690355329949239 J1.8604060913705585
G3 X51.86040609137056 Y49.23096446700508 I-1.4238578680203045 J1.4238578680203045
G3 X52.01269035532995 Y50 I-1.8604060913705585 J0.7690355329949239
G3 X51.86040609137056 Y50.76903553299492 I-2.012690355329949 J0
G3 X51.423857868020306 Y51.423857868020306 I-1.8604060913705585 J-0.7690355329949239
G3 X50.76903553299492 Y51.86040609137056 I-1.4238578680203045 J-1.4238578680203045
G3 X50 Y52.01269035532995 I-0.7690355329949239 J-1.8604060913705585
G3 X49.23096446700508 Y51.86040609137056 I0 J-2.012690355329949
G3 X48.576142131979694 Y51.423857868020306 I0.7690355329949239 J-1.8604060913705585
G3 X48.13959390862944 Y50.76903553299492 I1.4238578680203045 J-1.4238578680203045
G3 X47.98730964467005 Y50 I1.8604060913705585 J-0.7690355329949239
G0 Z10
G0 X49.25761421319797 Y50
G1 Z-12 F800
G3 X49.31472081218274 Y49.71573604060914 I0.7436548223350253 J0 F1000
G3 X49.474619289340104 Y49.474619289340104 I0.6852791878172588 J0.28426395939086296
G3 X49.71573604060914 Y49.31472081218274 I0.5253807106598986 J0.5253807106598986
G3 X50 Y49.256345177664976 I0.28426395939086296 J0.6852791878172588
G3 X50.28426395939086 Y49.31472081218274 I0 J0.7436548223350253
G3 X50.525380710659896 Y49.474619289340104 I-0.28426395939086296 J0.6852791878172588
G3 X50.68527918781726 Y49.71573604060914 I-0.5253807106598986 J0.5253807106598986
G3 X50.743654822335024 Y50 I-0.6852791878172588 J0.28426395939086296
G3 X50.68527918781726 Y50.28426395939086 I-0.7436548223350253 J0
G3 X50.525380710659896 Y50.525380710659896 I-0.6852791878172588 J-0.28426395939086296
G3 X50.28426395939086 Y50.68527918781726 I-0.5253807106598986 J-0.5253807106598986
G3 X50 Y50.743654822335024 I-0.28426395939086296 J-0.6852791878172588
G3 X49.71573604060914 Y50.68527918781726 I0 J-0.7436548223350253
G3 X49.474619289340104 Y50.525380710659896 I0.28426395939086296 J-0.6852791878172588
G3 X49.31472081218274 Y50.28426395939086 I0.5253807106598986 J-0.5253807106598986
G3 X49.256345177664976 Y50 I0.6852791878172588 J-0.28426395939086296
G1 X47.98756345177665 Y50 F1000
G3 X48.13959390862944 Y49.23096446700508 I2.012690355329949 J0 F1000
G3 X48.576142131979694 Y48.576142131979694 I1.8604060913705585 J0.7690355329949239
G3 X49.23096446700508 Y48.13959390862944 I1.4238578680203045 J1.4238578680203045
G3 X50 Y47.98730964467005 I0.7690355329949239 J1.8604060913705585
G3 X50.76903553299492 Y48.13959390862944 I0 J2.012690355329949
G3 X51.423857868020306 Y48.576142131979694 I-0.7690355329949239 J1.8604060913705585
G3 X51.86040609137056 Y49.23096446700508 I-1.4238578680203045 J1.4238578680203045
G3 X52.01269035532995 Y50 I-1.8604060913705585 J0.7690355329949239
G3 X51.86040609137056 Y50.76903553299492 I-2.012690355329949 J0
G3 X51.423857868020306 Y51.423857868020306 I-1.8604060913705585 J-0.7690355329949239
G3 X50.76903553299492 Y51.86040609137056 I-1.4238578680203045 J-1.4238578680203045
G3 X50 Y52.01269035532995 I-0.7690355329949239 J-1.8604060913705585
G3 X49.23096446700508 Y51.86040609137056 I0 J-2.012690355329949
G3 X48.576142131979694 Y51.423857868020306 I0.7690355329949239 J-1.8604060913705585
G3 X48.13959390862944 Y50.76903553299492 I1.4238578680203045 J-1.4238578680203045
G3 X47.98730964467005 Y50 I1.8604060913705585 J-0.7690355329949239
G0 Z10
G0 X49.25761421319797 Y50
G1 Z-13 F800
G3 X49.31472081218274 Y49.71573604060914 I0.7436548223350253 J0 F1000
G3 X49.474619289340104 Y49.474619289340104 I0.6852791878172588 J0.28426395939086296
G3 X49.71573604060914 Y49.31472081218274 I0.5253807106598986 J0.5253807106598986
G3 X50 Y49.256345177664976 I0.28426395939086296 J0.6852791878172588
G3 X50.28426395939086 Y49.31472081218274 I0 J0.7436548223350253
G3 X50.525380710659896 Y49.474619289340104 I-0.28426395939086296 J0.6852791878172588
G3 X50.68527918781726 Y49.71573604060914 I-0.5253807106598986 J0.5253807106598986
G3 X50.743654822335024 Y50 I-0.6852791878172588 J0.28426395939086296
G3 X50.68527918781726 Y50.28426395939086 I-0.7436548223350253 J0
G3 X50.525380710659896 Y50.525380710659896 I-0.6852791878172588 J-0.28426395939086296
G3 X50.28426395939086 Y50.68527918781726 I-0.5253807106598986 J-0.5253807106598986
G3 X50 Y50.743654822335024 I-0.28426395939086296 J-0.6852791878172588
G3 X49.71573604060914 Y50.68527918781726 I0 J-0.7436548223350253
G3 X49.474619289340104 Y50.525380710659896 I0.28426395939086296 J-0.6852791878172588
G3 X49.31472081218274 Y50.28426395939086 I0.5253807106598986 J-0.5253807106598986
G3 X49.256345177664976 Y50 I0.6852791878172588 J-0.28426395939086296
G1 X47.98756345177665 Y50 F1000
G3 X48.13959390862944 Y49.23096446700508 I2.012690355329949 J0 F1000
G3 X48.576142131979694 Y48.576142131979694 I1.8604060913705585 J0.7690355329949239
G3 X49.23096446700508 Y48.13959390862944 I1.4238578680203045 J1.4238578680203045
G3 X50 Y47.98730964467005 I0.7690355329949239 J1.8604060913705585
G3 X50.76903553299492 Y48.13959390862944 I0 J2.012690355329949
G3 X51.423857868020306 Y48.576142131979694 I-0.7690355329949239 J1.8604060913705585
G3 X51.86040609137056 Y49.23096446700508 I-1.4238578680203045 J1.4238578680203045
G3 X52.01269035532995 Y50 I-1.8604060913705585 J0.7690355329949239
G3 X51.86040609137056 Y50.76903553299492 I-2.012690355329949 J0
G3 X51.423857868020306 Y51.423857868020306 I-1.8604060913705585 J-0.7690355329949239
G3 X50.76903553299492 Y51.86040609137056 I-1.4238578680203045 J-1.4238578680203045
G3 X50 Y52.01269035532995 I-0.7690355329949239 J-1.8604060913705585
G3 X49.23096446700508 Y51.86040609137056 I0 J-2.012690355329949
G3 X48.576142131979694 Y51.423857868020306 I0.7690355329949239 J-1.8604060913705585
G3 X48.13959390862944 Y50.76903553299492 I1.4238578680203045 J-1.4238578680203045
G3 X47.98730964467005 Y50 I1.8604060913705585 J-0.7690355329949239
G0 Z10
G0 X49.25761421319797 Y50
G1 Z-14 F800
G3 X49.31472081218274 Y49.71573604060914 I0.7436548223350253 J0 F1000
G3 X49.474619289340104 Y49.474619289340104 I0.6852791878172588 J0.28426395939086296
G3 X49.71573604060914 Y49.31472081218274 I0.5253807106598986 J0.5253807106598986
G3 X50 Y49.256345177664976 I0.28426395939086296 J0.6852791878172588
G3 X50.28426395939086 Y49.31472081218274 I0 J0.7436548223350253
G3 X50.525380710659896 Y49.474619289340104 I-0.28426395939086296 J0.6852791878172588
G3 X50.68527918781726 Y49.71573604060914 I-0.5253807106598986 J0.5253807106598986
G3 X50.743654822335024 Y50 I-0.6852791878172588 J0.28426395939086296
G3 X50.68527918781726 Y50.28426395939086 I-0.7436548223350253 J0
G3 X50.525380710659896 Y50.525380710659896 I-0.6852791878172588 J-0.28426395939086296
G3 X50.28426395939086 Y50.68527918781726 I-0.5253807106598986 J-0.5253807106598986
G3 X50 Y50.743654822335024 I-0.28426395939086296 J-0.6852791878172588
G3 X49.71573604060914 Y50.68527918781726 I0 J-0.7436548223350253
G3 X49.474619289340104 Y50.525380710659896 I0.28426395939086296 J-0.6852791878172588
G3 X49.31472081218274 Y50.28426395939086 I0.5253807106598986 J-0.5253807106598986
G3 X49.256345177664976 Y50 I0.6852791878172588 J-0.28426395939086296
G1 X47.98756345177665 Y50 F1000
G3 X48.13959390862944 Y49.23096446700508 I2.012690355329949 J0 F1000
G3 X48.576142131979694 Y48.576142131979694 I1.8604060913705585 J0.7690355329949239
G3 X49.23096446700508 Y48.13959390862944 I1.4238578680203045 J1.4238578680203045
G3 X50 Y47.98730964467005 I0.7690355329949239 J1.8604060913705585
G3 X50.76903553299492 Y48.13959390862944 I0 J2.012690355329949
G3 X51.423857868020306 Y48.576142131979694 I-0.7690355329949239 J1.8604060913705585
G3 X51.86040609137056 Y49.23096446700508 I-1.4238578680203045 J1.4238578680203045
G3 X52.01269035532995 Y50 I-1.8604060913705585 J0.7690355329949239
G3 X51.86040609137056 Y50.76903553299492 I-2.012690355329949 J0
G3 X51.423857868020306 Y51.423857868020306 I-1.8604060913705585 J-0.7690355329949239
G3 X50.76903553299492 Y51.86040609137056 I-1.4238578680203045 J-1.4238578680203045
G3 X50 Y52.01269035532995 I-0.7690355329949239 J-1.8604060913705585
G3 X49.23096446700508 Y51.86040609137056 I0 J-2.012690355329949
G3 X48.576142131979694 Y51.423857868020306 I0.7690355329949239 J-1.8604060913705585
G3 X48.13959390862944 Y50.76903553299492 I1.4238578680203045 J-1.4238578680203045
G3 X47.98730964467005 Y50 I1.8604060913705585 J-0.7690355329949239
G0 Z10
G0 X49.25761421319797 Y50
G1 Z-15 F800
G3 X49.31472081218274 Y49.71573604060914 I0.7436548223350253 J0 F1000
G3 X49.474619289340104 Y49.474619289340104 I0.6852791878172588 J0.28426395939086296
G3 X49.71573604060914 Y49.31472081218274 I0.5253807106598986 J0.5253807106598986
G3 X50 Y49.256345177664976 I0.28426395939086296 J0.6852791878172588
G3 X50.28426395939086 Y49.31472081218274 I0 J0.7436548223350253
G3 X50.525380710659896 Y49.474619289340104 I-0.28426395939086296 J0.6852791878172588
G3 X50.68527918781726 Y49.71573604060914 I-0.5253807106598986 J0.5253807106598986
G3 X50.743654822335024 Y50 I-0.6852791878172588 J0.28426395939086296
G3 X50.68527918781726 Y50.28426395939086 I-0.7436548223350253 J0
G3 X50.525380710659896 Y50.525380710659896 I-0.6852791878172588 J-0.28426395939086296
G3 X50.28426395939086 Y50.68527918781726 I-0.5253807106598986 J-0.5253807106598986
G3 X50 Y50.743654822335024 I-0.28426395939086296 J-0.6852791878172588
G3 X49.71573604060914 Y50.68527918781726 I0 J-0.7436548223350253
G3 X49.474619289340104 Y50.525380710659896 I0.28426395939086296 J-0.6852791878172588
G3 X49.31472081218274 Y50.28426395939086 I0.5253807106598986 J-0.5253807106598986
G3 X49.256345177664976 Y50 I0.6852791878172588 J-0.28426395939086296
G1 X47.98756345177665 Y50 F1000
G3 X48.13959390862944 Y49.23096446700508 I2.012690355329949 J0 F1000
G3 X48.576142131979694 Y48.576142131979694 I1.8604060913705585 J0.7690355329949239
G3 X49.23096446700508 Y48.13959390862944 I1.4238578680203045 J1.4238578680203045
G3 X50 Y47.98730964467005 I0.7690355329949239 J1.8604060913705585
G3 X50.76903553299492 Y48.13959390862944 I0 J2.012690355329949
G3 X51.423857868020306 Y48.576142131979694 I-0.7690355329949239 J1.8604060913705585
G3 X51.86040609137056 Y49.23096446700508 I-1.4238578680203045 J1.4238578680203045
G3 X52.01269035532995 Y50 I-1.8604060913705585 J0.7690355329949239
G3 X51.86040609137056 Y50.76903553299492 I-2.012690355329949 J0
G3 X51.423857868020306 Y51.423857868020306 I-1.8604060913705585 J-0.7690355329949239
G3 X50.76903553299492 Y51.86040609137056 I-1.4238578680203045 J-1.4238578680203045
G3 X50 Y52.01269035532995 I-0.7690355329949239 J-1.8604060913705585
G3 X49.23096446700508 Y51.86040609137056 I0 J-2.012690355329949
G3 X48.576142131979694 Y51.423857868020306 I0.7690355329949239 J-1.8604060913705585
G3 X48.13959390862944 Y50.76903553299492 I1.4238578680203045 J-1.4238578680203045
G3 X47.98730964467005 Y50 I1.8604060913705585 J-0.7690355329949239
G0 Z10
M5
M30
