(Generated by PartKam Version 0.05)

G21 G90 G40

(follow path 1)
G0 Z5
T0 M6
G17
M3
G0 X0 Y50
G1 Z-2 F800
G1 X20 Y50 F1400
G0 Z5
G0 X80 Y50
G1 Z-2 F800
G1 X120 Y50 F1400
G0 Z5
G0 X180 Y50
G1 Z-2 F800
G1 X220 Y50 F1400
G0 Z5
G0 X280 Y50
G1 Z-2 F800
G1 X320 Y50 F1400
G0 Z5
G0 X380 Y50
G1 Z-2 F800
G1 X420 Y50 F1400
G0 Z5
G0 X480 Y50
G1 Z-2 F800
G1 X520 Y50 F1400
G0 Z5
G0 X580 Y50
G1 Z-2 F800
G1 X620 Y50 F1400
G0 Z5
G0 X680 Y50
G1 Z-2 F800
G1 X720 Y50 F1400
G0 Z5
G0 X800 Y50
G1 Z-2 F800
G1 X780 Y50 F1400
G0 Z5
G0 X0 Y150
G1 Z-2 F800
G1 X20 Y150 F1400
G0 Z5
G0 X80 Y150
G1 Z-2 F800
G1 X120 Y150 F1400
G0 Z5
G0 X180 Y150
G1 Z-2 F800
G1 X220 Y150 F1400
G0 Z5
G0 X280 Y150
G1 Z-2 F800
G1 X320 Y150 F1400
G0 Z5
G0 X380 Y150
G1 Z-2 F800
G1 X420 Y150 F1400
G0 Z5
G0 X480 Y150
G1 Z-2 F800
G1 X520 Y150 F1400
G0 Z5
G0 X580 Y150
G1 Z-2 F800
G1 X620 Y150 F1400
G0 Z5
G0 X680 Y150
G1 Z-2 F800
G1 X720 Y150 F1400
G0 Z5
G0 X800 Y150
G1 Z-2 F800
G1 X780 Y150 F1400
G0 Z5
G0 X0 Y250
G1 Z-2 F800
G1 X20 Y250 F1400
G0 Z5
G0 X80 Y250
G1 Z-2 F800
G1 X120 Y250 F1400
G0 Z5
G0 X180 Y250
G1 Z-2 F800
G1 X220 Y250 F1400
G0 Z5
G0 X280 Y250
G1 Z-2 F800
G1 X320 Y250 F1400
G0 Z5
G0 X380 Y250
G1 Z-2 F800
G1 X420 Y250 F1400
G0 Z5
G0 X480 Y250
G1 Z-2 F800
G1 X520 Y250 F1400
G0 Z5
G0 X580 Y250
G1 Z-2 F800
G1 X620 Y250 F1400
G0 Z5
G0 X680 Y250
G1 Z-2 F800
G1 X720 Y250 F1400
G0 Z5
G0 X800 Y250
G1 Z-2 F800
G1 X780 Y250 F1400
G0 Z5
G0 X0 Y350
G1 Z-2 F800
G1 X20 Y350 F1400
G0 Z5
G0 X80 Y350
G1 Z-2 F800
G1 X120 Y350 F1400
G0 Z5
G0 X180 Y350
G1 Z-2 F800
G1 X220 Y350 F1400
G0 Z5
G0 X280 Y350
G1 Z-2 F800
G1 X320 Y350 F1400
G0 Z5
G0 X380 Y350
G1 Z-2 F800
G1 X420 Y350 F1400
G0 Z5
G0 X480 Y350
G1 Z-2 F800
G1 X520 Y350 F1400
G0 Z5
G0 X580 Y350
G1 Z-2 F800
G1 X620 Y350 F1400
G0 Z5
G0 X680 Y350
G1 Z-2 F800
G1 X720 Y350 F1400
G0 Z5
G0 X800 Y350
G1 Z-2 F800
G1 X780 Y350 F1400
G0 Z5
G0 X0 Y450
G1 Z-2 F800
G1 X20 Y450 F1400
G0 Z5
G0 X80 Y450
G1 Z-2 F800
G1 X120 Y450 F1400
G0 Z5
G0 X180 Y450
G1 Z-2 F800
G1 X220 Y450 F1400
G0 Z5
G0 X280 Y450
G1 Z-2 F800
G1 X320 Y450 F1400
G0 Z5
G0 X380 Y450
G1 Z-2 F800
G1 X420 Y450 F1400
G0 Z5
G0 X480 Y450
G1 Z-2 F800
G1 X520 Y450 F1400
G0 Z5
G0 X580 Y450
G1 Z-2 F800
G1 X620 Y450 F1400
G0 Z5
G0 X680 Y450
G1 Z-2 F800
G1 X720 Y450 F1400
G0 Z5
G0 X800 Y450
G1 Z-2 F800
G1 X780 Y450 F1400
G0 Z5
G0 X0 Y550
G1 Z-2 F800
G1 X20 Y550 F1400
G0 Z5
G0 X80 Y550
G1 Z-2 F800
G1 X120 Y550 F1400
G0 Z5
G0 X180 Y550
G1 Z-2 F800
G1 X220 Y550 F1400
G0 Z5
G0 X280 Y550
G1 Z-2 F800
G1 X320 Y550 F1400
G0 Z5
G0 X380 Y550
G1 Z-2 F800
G1 X420 Y550 F1400
G0 Z5
G0 X480 Y550
G1 Z-2 F800
G1 X520 Y550 F1400
G0 Z5
G0 X580 Y550
G1 Z-2 F800
G1 X620 Y550 F1400
G0 Z5
G0 X680 Y550
G1 Z-2 F800
G1 X720 Y550 F1400
G0 Z5
G0 X800 Y550
G1 Z-2 F800
G1 X780 Y550 F1400
G0 Z5
G0 X0 Y650
G1 Z-2 F800
G1 X20 Y650 F1400
G0 Z5
G0 X80 Y650
G1 Z-2 F800
G1 X120 Y650 F1400
G0 Z5
G0 X180 Y650
G1 Z-2 F800
G1 X220 Y650 F1400
G0 Z5
G0 X280 Y650
G1 Z-2 F800
G1 X320 Y650 F1400
G0 Z5
G0 X380 Y650
G1 Z-2 F800
G1 X420 Y650 F1400
G0 Z5
G0 X480 Y650
G1 Z-2 F800
G1 X520 Y650 F1400
G0 Z5
G0 X580 Y650
G1 Z-2 F800
G1 X620 Y650 F1400
G0 Z5
G0 X680 Y650
G1 Z-2 F800
G1 X720 Y650 F1400
G0 Z5
G0 X800 Y650
G1 Z-2 F800
G1 X780 Y650 F1400
G0 Z5
G0 X0 Y750
G1 Z-2 F800
G1 X20 Y750 F1400
G0 Z5
G0 X80 Y750
G1 Z-2 F800
G1 X120 Y750 F1400
G0 Z5
G0 X180 Y750
G1 Z-2 F800
G1 X220 Y750 F1400
G0 Z5
G0 X280 Y750
G1 Z-2 F800
G1 X320 Y750 F1400
G0 Z5
G0 X380 Y750
G1 Z-2 F800
G1 X420 Y750 F1400
G0 Z5
G0 X480 Y750
G1 Z-2 F800
G1 X520 Y750 F1400
G0 Z5
G0 X580 Y750
G1 Z-2 F800
G1 X620 Y750 F1400
G0 Z5
G0 X680 Y750
G1 Z-2 F800
G1 X720 Y750 F1400
G0 Z5
G0 X800 Y750
G1 Z-2 F800
G1 X780 Y750 F1400
G0 Z5
G0 X0 Y850
G1 Z-2 F800
G1 X20 Y850 F1400
G0 Z5
G0 X80 Y850
G1 Z-2 F800
G1 X120 Y850 F1400
G0 Z5
G0 X180 Y850
G1 Z-2 F800
G1 X220 Y850 F1400
G0 Z5
G0 X280 Y850
G1 Z-2 F800
G1 X320 Y850 F1400
G0 Z5
G0 X380 Y850
G1 Z-2 F800
G1 X420 Y850 F1400
G0 Z5
G0 X480 Y850
G1 Z-2 F800
G1 X520 Y850 F1400
G0 Z5
G0 X580 Y850
G1 Z-2 F800
G1 X620 Y850 F1400
G0 Z5
G0 X680 Y850
G1 Z-2 F800
G1 X720 Y850 F1400
G0 Z5
G0 X800 Y850
G1 Z-2 F800
G1 X780 Y850 F1400
G0 Z5
G0 X0 Y950
G1 Z-2 F800
G1 X20 Y950 F1400
G0 Z5
G0 X80 Y950
G1 Z-2 F800
G1 X120 Y950 F1400
G0 Z5
G0 X180 Y950
G1 Z-2 F800
G1 X220 Y950 F1400
G0 Z5
G0 X280 Y950
G1 Z-2 F800
G1 X320 Y950 F1400
G0 Z5
G0 X380 Y950
G1 Z-2 F800
G1 X420 Y950 F1400
G0 Z5
G0 X480 Y950
G1 Z-2 F800
G1 X520 Y950 F1400
G0 Z5
G0 X580 Y950
G1 Z-2 F800
G1 X620 Y950 F1400
G0 Z5
G0 X680 Y950
G1 Z-2 F800
G1 X720 Y950 F1400
G0 Z5
G0 X800 Y950
G1 Z-2 F800
G1 X780 Y950 F1400
G0 Z5
G0 X0 Y1050
G1 Z-2 F800
G1 X20 Y1050 F1400
G0 Z5
G0 X80 Y1050
G1 Z-2 F800
G1 X120 Y1050 F1400
G0 Z5
G0 X180 Y1050
G1 Z-2 F800
G1 X220 Y1050 F1400
G0 Z5
G0 X280 Y1050
G1 Z-2 F800
G1 X320 Y1050 F1400
G0 Z5
G0 X380 Y1050
G1 Z-2 F800
G1 X420 Y1050 F1400
G0 Z5
G0 X480 Y1050
G1 Z-2 F800
G1 X520 Y1050 F1400
G0 Z5
G0 X580 Y1050
G1 Z-2 F800
G1 X620 Y1050 F1400
G0 Z5
G0 X680 Y1050
G1 Z-2 F800
G1 X720 Y1050 F1400
G0 Z5
G0 X800 Y1050
G1 Z-2 F800
G1 X780 Y1050 F1400
G0 Z5
G0 X0 Y1150
G1 Z-2 F800
G1 X20 Y1150 F1400
G0 Z5
G0 X80 Y1150
G1 Z-2 F800
G1 X120 Y1150 F1400
G0 Z5
G0 X180 Y1150
G1 Z-2 F800
G1 X220 Y1150 F1400
G0 Z5
G0 X280 Y1150
G1 Z-2 F800
G1 X320 Y1150 F1400
G0 Z5
G0 X380 Y1150
G1 Z-2 F800
G1 X420 Y1150 F1400
G0 Z5
G0 X480 Y1150
G1 Z-2 F800
G1 X520 Y1150 F1400
G0 Z5
G0 X580 Y1150
G1 Z-2 F800
G1 X620 Y1150 F1400
G0 Z5
G0 X680 Y1150
G1 Z-2 F800
G1 X720 Y1150 F1400
G0 Z5
G0 X800 Y1150
G1 Z-2 F800
G1 X780 Y1150 F1400
G0 Z5
G0 X0 Y1250
G1 Z-2 F800
G1 X20 Y1250 F1400
G0 Z5
G0 X80 Y1250
G1 Z-2 F800
G1 X120 Y1250 F1400
G0 Z5
G0 X180 Y1250
G1 Z-2 F800
G1 X220 Y1250 F1400
G0 Z5
G0 X280 Y1250
G1 Z-2 F800
G1 X320 Y1250 F1400
G0 Z5
G0 X380 Y1250
G1 Z-2 F800
G1 X420 Y1250 F1400
G0 Z5
G0 X480 Y1250
G1 Z-2 F800
G1 X520 Y1250 F1400
G0 Z5
G0 X580 Y1250
G1 Z-2 F800
G1 X620 Y1250 F1400
G0 Z5
G0 X680 Y1250
G1 Z-2 F800
G1 X720 Y1250 F1400
G0 Z5
G0 X800 Y1250
G1 Z-2 F800
G1 X780 Y1250 F1400
G0 Z5
G0 X0 Y0
G1 Z-2 F800
G1 X800 Y0 F1400
G0 Z5
G0 X0 Y100
G1 Z-2 F800
G1 X800 Y100 F1400
G0 Z5
G0 X0 Y200
G1 Z-2 F800
G1 X800 Y200 F1400
G0 Z5
G0 X0 Y300
G1 Z-2 F800
G1 X800 Y300 F1400
G0 Z5
G0 X0 Y400
G1 Z-2 F800
G1 X800 Y400 F1400
G0 Z5
G0 X0 Y500
G1 Z-2 F800
G1 X800 Y500 F1400
G0 Z5
G0 X0 Y600
G1 Z-2 F800
G1 X800 Y600 F1400
G0 Z5
G0 X0 Y700
G1 Z-2 F800
G1 X800 Y700 F1400
G0 Z5
G0 X0 Y800
G1 Z-2 F800
G1 X800 Y800 F1400
G0 Z5
G0 X0 Y900
G1 Z-2 F800
G1 X800 Y900 F1400
G0 Z5
G0 X0 Y1000
G1 Z-2 F800
G1 X800 Y1000 F1400
G0 Z5
G0 X0 Y1100
G1 Z-2 F800
G1 X800 Y1100 F1400
G0 Z5
G0 X0 Y1200
G1 Z-2 F800
G1 X800 Y1200 F1400

(follow path 2)
G0 Z5
G0 X0 Y0
G1 Z-2 F800
G1 X0 Y1250 F1400
G0 Z5
G0 X100 Y0
G1 Z-2 F800
G1 X100 Y1250 F1400
G0 Z5
G0 X200 Y0
G1 Z-2 F800
G1 X200 Y1250 F1400
G0 Z5
G0 X300 Y0
G1 Z-2 F800
G1 X300 Y1250 F1400
G0 Z5
G0 X400 Y0
G1 Z-2 F800
G1 X400 Y1250 F1400
G0 Z5
G0 X500 Y0
G1 Z-2 F800
G1 X500 Y1250 F1400
G0 Z5
G0 X600 Y0
G1 Z-2 F800
G1 X600 Y1250 F1400
G0 Z5
G0 X700 Y0
G1 Z-2 F800
G1 X700 Y1250 F1400
G0 Z5
G0 X800 Y0
G1 Z-2 F800
G1 X800 Y1250 F1400
G0 Z5
G0 X50 Y1220
G1 Z-2 F800
G1 X50 Y1180 F1400
G0 Z5
G0 X50 Y1120
G1 Z-2 F800
G1 X50 Y1080 F1400
G0 Z5
G0 X50 Y1020
G1 Z-2 F800
G1 X50 Y980 F1400
G0 Z5
G0 X50 Y920
G1 Z-2 F800
G1 X50 Y880 F1400
G0 Z5
G0 X50 Y720
G1 Z-2 F800
G1 X50 Y680 F1400
G0 Z5
G0 X50 Y820
G1 Z-2 F800
G1 X50 Y780 F1400
G0 Z5
G0 X50 Y620
G1 Z-2 F800
G1 X50 Y580 F1400
G0 Z5
G0 X50 Y0
G1 Z-2 F800
G1 X50 Y20 F1400
G0 Z5
G0 X50 Y80
G1 Z-2 F800
G1 X50 Y120 F1400
G0 Z5
G0 X50 Y180
G1 Z-2 F800
G1 X50 Y220 F1400
G0 Z5
G0 X50 Y280
G1 Z-2 F800
G1 X50 Y320 F1400
G0 Z5
G0 X50 Y380
G1 Z-2 F800
G1 X50 Y420 F1400
G0 Z5
G0 X50 Y480
G1 Z-2 F800
G1 X50 Y520 F1400
G0 Z5
G0 X150 Y1220
G1 Z-2 F800
G1 X150 Y1180 F1400
G0 Z5
G0 X150 Y1120
G1 Z-2 F800
G1 X150 Y1080 F1400
G0 Z5
G0 X150 Y1020
G1 Z-2 F800
G1 X150 Y980 F1400
G0 Z5
G0 X150 Y920
G1 Z-2 F800
G1 X150 Y880 F1400
G0 Z5
G0 X150 Y720
G1 Z-2 F800
G1 X150 Y680 F1400
G0 Z5
G0 X150 Y820
G1 Z-2 F800
G1 X150 Y780 F1400
G0 Z5
G0 X150 Y620
G1 Z-2 F800
G1 X150 Y580 F1400
G0 Z5
G0 X150 Y0
G1 Z-2 F800
G1 X150 Y20 F1400
G0 Z5
G0 X150 Y80
G1 Z-2 F800
G1 X150 Y120 F1400
G0 Z5
G0 X150 Y180
G1 Z-2 F800
G1 X150 Y220 F1400
G0 Z5
G0 X150 Y280
G1 Z-2 F800
G1 X150 Y320 F1400
G0 Z5
G0 X150 Y380
G1 Z-2 F800
G1 X150 Y420 F1400
G0 Z5
G0 X150 Y480
G1 Z-2 F800
G1 X150 Y520 F1400
G0 Z5
G0 X250 Y1220
G1 Z-2 F800
G1 X250 Y1180 F1400
G0 Z5
G0 X250 Y1120
G1 Z-2 F800
G1 X250 Y1080 F1400
G0 Z5
G0 X250 Y1020
G1 Z-2 F800
G1 X250 Y980 F1400
G0 Z5
G0 X250 Y920
G1 Z-2 F800
G1 X250 Y880 F1400
G0 Z5
G0 X250 Y720
G1 Z-2 F800
G1 X250 Y680 F1400
G0 Z5
G0 X250 Y820
G1 Z-2 F800
G1 X250 Y780 F1400
G0 Z5
G0 X250 Y620
G1 Z-2 F800
G1 X250 Y580 F1400
G0 Z5
G0 X250 Y0
G1 Z-2 F800
G1 X250 Y20 F1400
G0 Z5
G0 X250 Y80
G1 Z-2 F800
G1 X250 Y120 F1400
G0 Z5
G0 X250 Y180
G1 Z-2 F800
G1 X250 Y220 F1400
G0 Z5
G0 X250 Y280
G1 Z-2 F800
G1 X250 Y320 F1400
G0 Z5
G0 X250 Y380
G1 Z-2 F800
G1 X250 Y420 F1400
G0 Z5
G0 X250 Y480
G1 Z-2 F800
G1 X250 Y520 F1400
G0 Z5
G0 X350 Y1220
G1 Z-2 F800
G1 X350 Y1180 F1400
G0 Z5
G0 X350 Y1120
G1 Z-2 F800
G1 X350 Y1080 F1400
G0 Z5
G0 X350 Y1020
G1 Z-2 F800
G1 X350 Y980 F1400
G0 Z5
G0 X350 Y920
G1 Z-2 F800
G1 X350 Y880 F1400
G0 Z5
G0 X350 Y720
G1 Z-2 F800
G1 X350 Y680 F1400
G0 Z5
G0 X350 Y820
G1 Z-2 F800
G1 X350 Y780 F1400
G0 Z5
G0 X350 Y620
G1 Z-2 F800
G1 X350 Y580 F1400
G0 Z5
G0 X350 Y0
G1 Z-2 F800
G1 X350 Y20 F1400
G0 Z5
G0 X350 Y80
G1 Z-2 F800
G1 X350 Y120 F1400
G0 Z5
G0 X350 Y180
G1 Z-2 F800
G1 X350 Y220 F1400
G0 Z5
G0 X350 Y280
G1 Z-2 F800
G1 X350 Y320 F1400
G0 Z5
G0 X350 Y380
G1 Z-2 F800
G1 X350 Y420 F1400
G0 Z5
G0 X350 Y480
G1 Z-2 F800
G1 X350 Y520 F1400
G0 Z5
G0 X450 Y1220
G1 Z-2 F800
G1 X450 Y1180 F1400
G0 Z5
G0 X450 Y1120
G1 Z-2 F800
G1 X450 Y1080 F1400
G0 Z5
G0 X450 Y1020
G1 Z-2 F800
G1 X450 Y980 F1400
G0 Z5
G0 X450 Y920
G1 Z-2 F800
G1 X450 Y880 F1400
G0 Z5
G0 X450 Y720
G1 Z-2 F800
G1 X450 Y680 F1400
G0 Z5
G0 X450 Y820
G1 Z-2 F800
G1 X450 Y780 F1400
G0 Z5
G0 X450 Y620
G1 Z-2 F800
G1 X450 Y580 F1400
G0 Z5
G0 X450 Y0
G1 Z-2 F800
G1 X450 Y20 F1400
G0 Z5
G0 X450 Y80
G1 Z-2 F800
G1 X450 Y120 F1400
G0 Z5
G0 X450 Y180
G1 Z-2 F800
G1 X450 Y220 F1400
G0 Z5
G0 X450 Y280
G1 Z-2 F800
G1 X450 Y320 F1400
G0 Z5
G0 X450 Y380
G1 Z-2 F800
G1 X450 Y420 F1400
G0 Z5
G0 X450 Y480
G1 Z-2 F800
G1 X450 Y520 F1400
G0 Z5
G0 X550 Y1220
G1 Z-2 F800
G1 X550 Y1180 F1400
G0 Z5
G0 X550 Y1120
G1 Z-2 F800
G1 X550 Y1080 F1400
G0 Z5
G0 X550 Y1020
G1 Z-2 F800
G1 X550 Y980 F1400
G0 Z5
G0 X550 Y920
G1 Z-2 F800
G1 X550 Y880 F1400
G0 Z5
G0 X550 Y720
G1 Z-2 F800
G1 X550 Y680 F1400
G0 Z5
G0 X550 Y820
G1 Z-2 F800
G1 X550 Y780 F1400
G0 Z5
G0 X550 Y620
G1 Z-2 F800
G1 X550 Y580 F1400
G0 Z5
G0 X550 Y0
G1 Z-2 F800
G1 X550 Y20 F1400
G0 Z5
G0 X550 Y80
G1 Z-2 F800
G1 X550 Y120 F1400
G0 Z5
G0 X550 Y180
G1 Z-2 F800
G1 X550 Y220 F1400
G0 Z5
G0 X550 Y280
G1 Z-2 F800
G1 X550 Y320 F1400
G0 Z5
G0 X550 Y380
G1 Z-2 F800
G1 X550 Y420 F1400
G0 Z5
G0 X550 Y480
G1 Z-2 F800
G1 X550 Y520 F1400
G0 Z5
G0 X650 Y1220
G1 Z-2 F800
G1 X650 Y1180 F1400
G0 Z5
G0 X650 Y1120
G1 Z-2 F800
G1 X650 Y1080 F1400
G0 Z5
G0 X650 Y1020
G1 Z-2 F800
G1 X650 Y980 F1400
G0 Z5
G0 X650 Y920
G1 Z-2 F800
G1 X650 Y880 F1400
G0 Z5
G0 X650 Y720
G1 Z-2 F800
G1 X650 Y680 F1400
G0 Z5
G0 X650 Y820
G1 Z-2 F800
G1 X650 Y780 F1400
G0 Z5
G0 X650 Y620
G1 Z-2 F800
G1 X650 Y580 F1400
G0 Z5
G0 X650 Y0
G1 Z-2 F800
G1 X650 Y20 F1400
G0 Z5
G0 X650 Y80
G1 Z-2 F800
G1 X650 Y120 F1400
G0 Z5
G0 X650 Y180
G1 Z-2 F800
G1 X650 Y220 F1400
G0 Z5
G0 X650 Y280
G1 Z-2 F800
G1 X650 Y320 F1400
G0 Z5
G0 X650 Y380
G1 Z-2 F800
G1 X650 Y420 F1400
G0 Z5
G0 X650 Y480
G1 Z-2 F800
G1 X650 Y520 F1400
G0 Z5
G0 X750 Y1220
G1 Z-2 F800
G1 X750 Y1180 F1400
G0 Z5
G0 X750 Y1120
G1 Z-2 F800
G1 X750 Y1080 F1400
G0 Z5
G0 X750 Y1020
G1 Z-2 F800
G1 X750 Y980 F1400
G0 Z5
G0 X750 Y920
G1 Z-2 F800
G1 X750 Y880 F1400
G0 Z5
G0 X750 Y720
G1 Z-2 F800
G1 X750 Y680 F1400
G0 Z5
G0 X750 Y820
G1 Z-2 F800
G1 X750 Y780 F1400
G0 Z5
G0 X750 Y620
G1 Z-2 F800
G1 X750 Y580 F1400
G0 Z5
G0 X750 Y0
G1 Z-2 F800
G1 X750 Y20 F1400
G0 Z5
G0 X750 Y80
G1 Z-2 F800
G1 X750 Y120 F1400
G0 Z5
G0 X750 Y180
G1 Z-2 F800
G1 X750 Y220 F1400
G0 Z5
G0 X750 Y280
G1 Z-2 F800
G1 X750 Y320 F1400
G0 Z5
G0 X750 Y380
G1 Z-2 F800
G1 X750 Y420 F1400
G0 Z5
G0 X750 Y480
G1 Z-2 F800
G1 X750 Y520 F1400
G0 Z5
M5
M30
